;FLAVOR:UltiGCode
;TIME:5712
;MATERIAL:6154
;MATERIAL2:0
;NOZZLE_DIAMETER:0.4
;MINX:82.042
;MINY:82.041
;MINZ:0.27
;MAXX:140.958
;MAXY:140.959
;MAXZ:36.97
;TARGET_MACHINE.NAME:Ultimaker 2+
;Generated with Cura_SteamEngine 5.6.0
M82 ;absolute extrusion mode
G0 F3000 Y50 ;avoid prime blob
G92 E0
G92 E0
G10
;LAYER_COUNT:368
;LAYER:0
M107
G0 F7200 X90.31 Y91.036 Z0.27
;TYPE:SKIRT
G11
G1 F1800 X91.086 Y90.268 E0.11791
G1 X91.891 Y89.52 E0.23659
G1 X92.657 Y88.864 E0.34551
G1 X93.473 Y88.202 E0.45899
G1 X94.384 Y87.529 E0.58132
G1 X95.243 Y86.938 E0.69393
G1 X96.167 Y86.349 E0.81227
G1 X97.073 Y85.824 E0.92536
G1 X98.041 Y85.297 E1.04439
G1 X98.989 Y84.831 E1.15847
G1 X99.963 Y84.395 E1.27373
G1 X100.957 Y83.994 E1.38948
G1 X101.924 Y83.641 E1.50066
G1 X102.974 Y83.303 E1.61979
G1 X103.925 Y83.034 E1.72653
G1 X105.029 Y82.761 E1.84935
G1 X106.072 Y82.546 E1.96436
G1 X107.14 Y82.374 E2.0812
G1 X108.227 Y82.228 E2.19965
G1 X109.277 Y82.13 E2.31354
G1 X110.379 Y82.061 E2.43279
G1 X111.389 Y82.041 E2.54189
G1 X112.41 Y82.046 E2.65216
G1 X113.345 Y82.091 E2.75325
G1 X114.631 Y82.207 E2.89271
G1 X115.673 Y82.339 E3.00614
G1 X116.729 Y82.506 E3.12161
G1 X117.681 Y82.693 E3.22639
G1 X118.849 Y82.976 E3.35618
G1 X119.835 Y83.249 E3.46668
G1 X120.859 Y83.565 E3.58241
G1 X121.813 Y83.9 E3.69161
G1 X122.837 Y84.31 E3.81074
G1 X123.852 Y84.757 E3.93052
G1 X124.792 Y85.21 E4.04321
G1 X125.756 Y85.718 E4.1609
G1 X126.642 Y86.23 E4.27141
G1 X127.606 Y86.831 E4.3941
G1 X128.433 Y87.389 E4.50185
G1 X129.339 Y88.055 E4.62329
G1 X130.174 Y88.715 E4.73824
G1 X131.001 Y89.421 E4.85567
G1 X131.777 Y90.132 E4.96934
G1 X132.534 Y90.874 E5.08382
G1 X133.238 Y91.611 E5.1939
G1 X133.987 Y92.467 E5.31674
G1 X134.665 Y93.306 E5.43324
G1 X135.313 Y94.158 E5.54884
G1 X135.919 Y95.021 E5.66273
G1 X136.509 Y95.927 E5.7795
G1 X137.048 Y96.827 E5.8928
G1 X137.566 Y97.776 E6.00956
G1 X138.049 Y98.731 E6.12514
G1 X138.481 Y99.672 E6.23697
G1 X138.908 Y100.702 E6.35739
G1 X139.264 Y101.653 E6.46706
G1 X139.612 Y102.708 E6.58704
G1 X139.91 Y103.707 E6.69963
G1 X140.189 Y104.782 E6.81957
G1 X140.398 Y105.748 E6.92631
G1 X140.593 Y106.855 E7.04771
G1 X140.75 Y107.966 E7.16889
G1 X140.853 Y108.982 E7.27918
G1 X140.93 Y110.046 E7.39439
G1 X140.958 Y110.85 E7.48128
G1 X140.958 Y112.241 E7.63151
G1 X140.909 Y113.252 E7.74082
G1 X140.831 Y114.354 E7.86014
G1 X140.731 Y115.236 E7.956
G1 X140.537 Y116.451 E8.08889
G1 X140.343 Y117.507 E8.20484
G1 X140.116 Y118.526 E8.31759
G1 X139.821 Y119.609 E8.43882
G1 X139.515 Y120.61 E8.55186
G1 X139.175 Y121.602 E8.66512
G1 X138.789 Y122.604 E8.78109
G1 X138.36 Y123.598 E8.89801
G1 X137.887 Y124.596 E9.01729
G1 X137.406 Y125.523 E9.13008
G1 X136.878 Y126.46 E9.24623
G1 X136.318 Y127.371 E9.36172
G1 X135.724 Y128.266 E9.47774
G1 X135.093 Y129.145 E9.5946
G1 X134.441 Y129.98 E9.70901
G1 X133.772 Y130.782 E9.82181
G1 X133.044 Y131.59 E9.93926
G1 X132.3 Y132.359 E10.05482
G1 X131.528 Y133.103 E10.17062
G1 X130.743 Y133.799 E10.28392
G1 X129.9 Y134.507 E10.40282
G1 X129.061 Y135.152 E10.51711
G1 X128.182 Y135.781 E10.63384
G1 X127.328 Y136.344 E10.74431
G1 X126.382 Y136.922 E10.86404
G1 X125.456 Y137.444 E10.97885
G1 X124.515 Y137.93 E11.09323
G1 X123.53 Y138.391 E11.21068
G1 X122.579 Y138.795 E11.32228
G1 X121.525 Y139.203 E11.44434
G1 X120.555 Y139.531 E11.55493
G1 X119.538 Y139.835 E11.66956
G1 X118.466 Y140.121 E11.78939
G1 X117.415 Y140.356 E11.9057
G1 X116.412 Y140.541 E12.01585
G1 X115.352 Y140.704 E12.13168
G1 X114.286 Y140.832 E12.24763
G1 X113.198 Y140.916 E12.36549
G1 X112.169 Y140.952 E12.47669
G1 X111.023 Y140.959 E12.60046
G1 X110.046 Y140.921 E12.70605
G1 X108.972 Y140.851 E12.82229
G1 X107.839 Y140.73 E12.94535
G1 X106.787 Y140.578 E13.06015
G1 X105.752 Y140.389 E13.17377
G1 X104.665 Y140.154 E13.29388
G1 X103.723 Y139.908 E13.39903
G1 X102.644 Y139.597 E13.52031
G1 X101.611 Y139.251 E13.63796
G1 X100.649 Y138.889 E13.74897
G1 X99.663 Y138.478 E13.86434
G1 X98.678 Y138.021 E13.98161
G1 X97.706 Y137.533 E14.09907
G1 X96.806 Y137.038 E14.21001
G1 X95.86 Y136.464 E14.32951
G1 X94.989 Y135.898 E14.4417
G1 X94.074 Y135.252 E14.56266
G1 X93.279 Y134.648 E14.67049
G1 X92.4 Y133.927 E14.79327
G1 X91.619 Y133.24 E14.90561
G1 X90.903 Y132.567 E15.01174
G1 X90.09 Y131.73 E15.13776
G1 X89.352 Y130.922 E15.25594
G1 X88.666 Y130.11 E15.37074
G1 X88.003 Y129.268 E15.48649
G1 X87.382 Y128.415 E15.60044
G1 X86.772 Y127.503 E15.71894
G1 X86.22 Y126.61 E15.83232
G1 X85.69 Y125.694 E15.94661
G1 X85.173 Y124.721 E16.06561
G1 X84.765 Y123.871 E16.16744
G1 X84.297 Y122.797 E16.29396
G1 X83.916 Y121.831 E16.40611
G1 X83.558 Y120.814 E16.52255
G1 X83.216 Y119.73 E16.64532
G1 X82.948 Y118.73 E16.75713
G1 X82.71 Y117.716 E16.86961
G1 X82.492 Y116.618 E16.99051
G1 X82.327 Y115.554 E17.1068
G1 X82.21 Y114.547 E17.21629
G1 X82.117 Y113.483 E17.33164
G1 X82.056 Y112.401 E17.44868
G1 X82.042 Y111.282 E17.56954
G1 X82.076 Y110.248 E17.68127
G1 X82.138 Y109.225 E17.79196
G1 X82.237 Y108.104 E17.9135
G1 X82.368 Y107.122 E18.02049
G1 X82.552 Y106.022 E18.14094
G1 X82.77 Y104.99 E18.25486
G1 X83.026 Y103.972 E18.36823
G1 X83.33 Y102.883 E18.49034
G1 X83.631 Y101.959 E18.59529
G1 X84.033 Y100.847 E18.72299
G1 X84.404 Y99.937 E18.82913
G1 X84.878 Y98.897 E18.95256
G1 X85.349 Y97.951 E19.06669
G1 X85.85 Y97.016 E19.18125
G1 X86.409 Y96.069 E19.30002
G1 X86.978 Y95.181 E19.41392
G1 X87.584 Y94.304 E19.52905
G1 X88.233 Y93.434 E19.64627
G1 X88.898 Y92.608 E19.7608
G1 X89.566 Y91.835 E19.87114
G1 X90.31 Y91.036 E19.98905
G0 F7200 X90.591 Y91.32
G1 F1800 X91.358 Y90.561 E20.10559
G1 X92.151 Y89.824 E20.22251
G1 X92.909 Y89.175 E20.33028
G1 X93.711 Y88.524 E20.44184
G1 X94.611 Y87.858 E20.56276
G1 X95.458 Y87.275 E20.67381
G1 X96.368 Y86.695 E20.79035
G1 X97.264 Y86.175 E20.90224
G1 X98.217 Y85.656 E21.01943
G1 X99.153 Y85.196 E21.13207
G1 X100.113 Y84.766 E21.24568
G1 X101.094 Y84.37 E21.35993
G1 X102.047 Y84.022 E21.4695
G1 X103.083 Y83.688 E21.58706
G1 X104.021 Y83.422 E21.69236
G1 X105.11 Y83.153 E21.81351
G1 X106.136 Y82.941 E21.92666
G1 X107.193 Y82.77 E22.0423
G1 X108.264 Y82.626 E22.159
G1 X109.302 Y82.529 E22.2716
G1 X110.387 Y82.461 E22.38901
G1 X111.387 Y82.441 E22.49703
G1 X112.391 Y82.446 E22.60546
G1 X113.326 Y82.491 E22.70656
G1 X114.581 Y82.604 E22.84265
G1 X115.611 Y82.734 E22.95477
G1 X116.652 Y82.898 E23.06858
G1 X117.587 Y83.082 E23.1715
G1 X118.742 Y83.361 E23.29983
G1 X119.717 Y83.631 E23.40909
G1 X120.727 Y83.943 E23.52326
G1 X121.664 Y84.271 E23.63047
G1 X122.676 Y84.676 E23.7482
G1 X123.678 Y85.117 E23.86643
G1 X124.606 Y85.564 E23.97768
G1 X125.556 Y86.064 E24.09362
G1 X126.43 Y86.569 E24.20263
G1 X127.382 Y87.163 E24.32382
G1 X128.209 Y87.721 E24.43157
G1 X129.091 Y88.369 E24.54977
G1 X129.914 Y89.019 E24.66303
G1 X130.731 Y89.716 E24.77901
G1 X131.497 Y90.418 E24.89123
G1 X132.245 Y91.15 E25.00426
G1 X132.937 Y91.875 E25.1125
G1 X133.676 Y92.719 E25.23366
G1 X134.347 Y93.548 E25.34884
G1 X134.986 Y94.388 E25.46283
G1 X135.584 Y95.239 E25.57516
G1 X136.166 Y96.132 E25.69028
G1 X136.697 Y97.019 E25.80193
G1 X137.209 Y97.957 E25.91734
G1 X137.685 Y98.898 E26.03123
G1 X138.117 Y99.839 E26.14306
G1 X138.533 Y100.842 E26.26033
G1 X138.884 Y101.779 E26.36839
G1 X139.229 Y102.822 E26.48704
G1 X139.523 Y103.807 E26.59806
G1 X139.798 Y104.867 E26.71632
G1 X140.004 Y105.817 E26.82131
G1 X140.197 Y106.911 E26.94129
G1 X140.352 Y108.006 E27.06072
G1 X140.454 Y109.011 E27.16982
G1 X140.53 Y110.06 E27.28341
G1 X140.558 Y110.864 E27.3703
G1 X140.558 Y112.222 E27.51696
G1 X140.51 Y113.224 E27.6253
G1 X140.434 Y114.309 E27.74277
G1 X140.336 Y115.173 E27.83668
G1 X140.144 Y116.379 E27.96857
G1 X139.953 Y117.42 E28.08287
G1 X139.73 Y118.421 E28.19363
G1 X139.438 Y119.492 E28.31352
G1 X139.132 Y120.493 E28.42657
G1 X138.802 Y121.458 E28.53671
G1 X138.422 Y122.445 E28.65093
G1 X137.998 Y123.427 E28.76645
G1 X137.532 Y124.412 E28.88414
G1 X137.058 Y125.327 E28.99543
G1 X136.537 Y126.251 E29.10999
G1 X135.985 Y127.15 E29.22393
G1 X135.399 Y128.033 E29.33838
G1 X134.778 Y128.899 E29.45347
G1 X134.134 Y129.724 E29.5665
G1 X133.475 Y130.514 E29.67761
G1 X132.756 Y131.312 E29.79362
G1 X132.022 Y132.071 E29.90765
G1 X131.262 Y132.804 E30.02168
G1 X130.486 Y133.493 E30.13376
G1 X129.656 Y134.19 E30.25082
G1 X128.828 Y134.827 E30.36364
G1 X127.962 Y135.447 E30.47867
G1 X127.119 Y136.003 E30.58773
G1 X126.185 Y136.574 E30.70596
G1 X125.272 Y137.089 E30.81917
G1 X124.346 Y137.568 E30.93176
G1 X123.373 Y138.023 E31.04777
G1 X122.435 Y138.422 E31.15786
G1 X121.397 Y138.824 E31.27808
G1 X120.44 Y139.148 E31.38719
G1 X119.435 Y139.449 E31.5005
G1 X118.379 Y139.731 E31.61854
G1 X117.342 Y139.963 E31.73331
G1 X116.351 Y140.146 E31.84214
G1 X115.304 Y140.307 E31.95655
G1 X114.255 Y140.433 E32.07066
G1 X113.184 Y140.516 E32.18667
G1 X112.167 Y140.552 E32.29658
G1 X111.038 Y140.559 E32.41851
G1 X110.072 Y140.522 E32.52291
G1 X109.014 Y140.453 E32.63742
G1 X107.896 Y140.334 E32.75885
G1 X106.859 Y140.185 E32.87199
G1 X105.836 Y139.998 E32.98431
G1 X104.766 Y139.767 E33.10253
G1 X103.834 Y139.524 E33.20655
G1 X102.771 Y139.218 E33.32602
G1 X101.752 Y138.877 E33.44207
G1 X100.803 Y138.52 E33.55157
G1 X99.831 Y138.115 E33.6653
G1 X98.857 Y137.664 E33.78122
G1 X97.899 Y137.183 E33.89699
G1 X97.014 Y136.696 E34.00609
G1 X96.078 Y136.128 E34.12433
G1 X95.22 Y135.571 E34.23481
G1 X94.316 Y134.933 E34.35431
G1 X93.521 Y134.329 E34.46214
G1 X92.664 Y133.627 E34.58178
G1 X91.893 Y132.949 E34.69267
G1 X91.19 Y132.288 E34.79688
G1 X90.385 Y131.46 E34.9216
G1 X89.657 Y130.664 E35.0381
G1 X88.98 Y129.863 E35.15137
G1 X88.326 Y129.032 E35.26558
G1 X87.714 Y128.192 E35.37782
G1 X87.112 Y127.293 E35.49467
G1 X86.566 Y126.41 E35.60679
G1 X86.043 Y125.506 E35.71959
G1 X85.534 Y124.548 E35.83675
G1 X85.132 Y123.711 E35.93703
G1 X84.669 Y122.65 E36.06205
G1 X84.293 Y121.698 E36.1726
G1 X83.939 Y120.694 E36.28757
G1 X83.602 Y119.626 E36.40852
G1 X83.337 Y118.638 E36.519
G1 X83.102 Y117.638 E36.62994
G1 X82.887 Y116.557 E36.74898
G1 X82.724 Y115.508 E36.86363
G1 X82.608 Y114.512 E36.97192
G1 X82.516 Y113.461 E37.08586
G1 X82.456 Y112.396 E37.20107
G1 X82.442 Y111.295 E37.31998
G1 X82.475 Y110.272 E37.43053
G1 X82.536 Y109.26 E37.54002
G1 X82.634 Y108.157 E37.65961
G1 X82.763 Y107.188 E37.76519
G1 X82.947 Y106.088 E37.88564
G1 X83.158 Y105.087 E37.99612
G1 X83.411 Y104.079 E38.10836
G1 X83.71 Y103.007 E38.22856
G1 X84.007 Y102.095 E38.33215
G1 X84.403 Y100.998 E38.4581
G1 X84.768 Y100.103 E38.56249
G1 X85.236 Y99.075 E38.68448
G1 X85.702 Y98.14 E38.79731
G1 X86.203 Y97.205 E38.91187
G1 X86.746 Y96.285 E39.02725
G1 X87.307 Y95.408 E39.13968
G1 X87.905 Y94.543 E39.25325
G1 X88.545 Y93.685 E39.36886
G1 X89.201 Y92.87 E39.48185
G1 X89.869 Y92.097 E39.59219
G1 X90.591 Y91.32 E39.70674
G0 F7200 X90.873 Y91.604
G1 F1800 X91.63 Y90.854 E39.82183
G1 X92.411 Y90.128 E39.93699
G1 X93.161 Y89.486 E40.04361
G1 X93.963 Y88.835 E40.15517
G1 X94.838 Y88.187 E40.27276
G1 X95.673 Y87.612 E40.38226
G1 X96.569 Y87.041 E40.497
G1 X97.455 Y86.526 E40.60768
G1 X98.393 Y86.015 E40.72304
G1 X99.317 Y85.561 E40.83423
G1 X100.263 Y85.137 E40.94619
G1 X101.231 Y84.746 E41.05894
G1 X102.17 Y84.403 E41.16691
G1 X103.192 Y84.073 E41.2829
G1 X104.117 Y83.81 E41.38676
G1 X105.191 Y83.545 E41.50623
G1 X106.2 Y83.336 E41.61751
G1 X107.246 Y83.166 E41.73196
G1 X108.301 Y83.024 E41.84693
G1 X109.327 Y82.928 E41.95822
G1 X110.395 Y82.861 E42.07379
G1 X111.385 Y82.841 E42.18073
G1 X112.372 Y82.846 E42.28733
G1 X113.307 Y82.891 E42.38843
G1 X114.531 Y83.001 E42.52115
G1 X115.549 Y83.129 E42.63196
G1 X116.575 Y83.29 E42.74413
G1 X117.493 Y83.471 E42.84518
G1 X118.635 Y83.746 E42.97204
G1 X119.599 Y84.013 E43.08007
G1 X120.595 Y84.321 E43.19267
G1 X121.532 Y84.649 E43.29988
G1 X122.515 Y85.042 E43.41422
G1 X123.504 Y85.477 E43.5309
G1 X124.42 Y85.918 E43.6407
G1 X125.356 Y86.41 E43.7549
G1 X126.218 Y86.908 E43.86242
G1 X127.158 Y87.495 E43.98211
G1 X127.985 Y88.053 E44.08985
G1 X128.843 Y88.683 E44.20481
G1 X129.654 Y89.323 E44.31639
G1 X130.461 Y90.011 E44.43092
G1 X131.217 Y90.704 E44.54168
G1 X131.956 Y91.426 E44.65326
G1 X132.636 Y92.138 E44.75959
G1 X133.365 Y92.971 E44.87914
G1 X134.029 Y93.79 E44.99301
G1 X134.659 Y94.618 E45.10538
G1 X135.249 Y95.458 E45.21624
G1 X135.823 Y96.338 E45.32971
G1 X136.346 Y97.211 E45.43962
G1 X136.852 Y98.138 E45.55368
G1 X137.321 Y99.065 E45.66588
G1 X137.753 Y100.006 E45.77771
G1 X138.158 Y100.982 E45.89183
G1 X138.504 Y101.905 E45.99829
G1 X138.846 Y102.936 E46.1156
G1 X139.136 Y103.908 E46.22515
G1 X139.407 Y104.952 E46.34164
G1 X139.61 Y105.887 E46.44497
G1 X139.801 Y106.967 E46.56342
G1 X139.954 Y108.046 E46.68112
G1 X140.055 Y109.04 E46.78902
G1 X140.13 Y110.074 E46.90099
G1 X140.158 Y110.878 E46.98787
G1 X140.158 Y112.203 E47.13097
G1 X140.111 Y113.196 E47.23834
G1 X140.036 Y114.264 E47.35397
G1 X139.941 Y115.11 E47.44591
G1 X139.751 Y116.307 E47.5768
G1 X139.563 Y117.333 E47.68946
G1 X139.344 Y118.316 E47.79822
G1 X139.055 Y119.375 E47.91678
G1 X138.753 Y120.364 E48.02846
G1 X138.429 Y121.314 E48.13686
G1 X138.055 Y122.286 E48.24934
G1 X137.636 Y123.256 E48.36346
G1 X137.177 Y124.228 E48.47955
G1 X136.709 Y125.131 E48.58939
G1 X136.196 Y126.042 E48.70231
G1 X135.652 Y126.929 E48.81468
G1 X135.074 Y127.8 E48.92758
G1 X134.462 Y128.653 E49.04096
G1 X133.827 Y129.468 E49.15254
G1 X133.178 Y130.246 E49.26197
G1 X132.468 Y131.034 E49.37652
G1 X131.744 Y131.783 E49.48902
G1 X130.996 Y132.505 E49.6013
G1 X130.229 Y133.187 E49.71215
G1 X129.412 Y133.873 E49.82736
G1 X128.595 Y134.502 E49.93872
G1 X127.742 Y135.113 E50.05204
G1 X126.91 Y135.662 E50.1597
G1 X125.989 Y136.226 E50.27633
G1 X125.088 Y136.734 E50.38804
G1 X124.176 Y137.206 E50.49895
G1 X123.217 Y137.655 E50.61331
G1 X122.29 Y138.049 E50.72209
G1 X121.268 Y138.445 E50.84046
G1 X120.325 Y138.765 E50.94801
G1 X119.332 Y139.063 E51.05998
G1 X118.292 Y139.341 E51.17625
G1 X117.269 Y139.57 E51.28946
G1 X116.29 Y139.751 E51.39699
G1 X115.256 Y139.91 E51.50997
G1 X114.224 Y140.034 E51.62223
G1 X113.17 Y140.116 E51.73641
G1 X112.164 Y140.152 E51.84512
G1 X111.053 Y140.159 E51.96511
G1 X110.098 Y140.123 E52.06833
G1 X109.056 Y140.055 E52.1811
G1 X107.953 Y139.938 E52.3009
G1 X106.931 Y139.792 E52.41239
G1 X105.92 Y139.607 E52.52339
G1 X104.867 Y139.38 E52.63973
G1 X103.945 Y139.14 E52.74262
G1 X102.898 Y138.839 E52.86028
G1 X101.893 Y138.503 E52.97472
G1 X100.957 Y138.151 E53.08272
G1 X99.999 Y137.752 E53.1948
G1 X99.036 Y137.307 E53.30938
G1 X98.092 Y136.833 E53.42346
G1 X97.222 Y136.354 E53.53072
G1 X96.296 Y135.792 E53.6477
G1 X95.451 Y135.244 E53.75647
G1 X94.558 Y134.614 E53.8745
G1 X93.763 Y134.01 E53.98233
G1 X92.928 Y133.326 E54.09891
G1 X92.167 Y132.658 E54.20827
G1 X91.477 Y132.009 E54.31057
G1 X90.68 Y131.19 E54.43399
G1 X89.962 Y130.406 E54.54881
G1 X89.294 Y129.616 E54.66054
G1 X88.649 Y128.797 E54.77313
G1 X88.046 Y127.969 E54.88375
G1 X87.452 Y127.083 E54.99896
G1 X86.912 Y126.21 E55.10982
G1 X86.396 Y125.318 E55.22111
G1 X85.895 Y124.375 E55.33644
G1 X85.499 Y123.551 E55.43517
G1 X85.041 Y122.503 E55.55869
G1 X84.67 Y121.565 E55.66763
G1 X84.32 Y120.574 E55.78114
G1 X83.988 Y119.522 E55.90028
G1 X83.726 Y118.546 E56.00942
G1 X83.494 Y117.56 E56.11882
G1 X83.282 Y116.495 E56.23609
G1 X83.121 Y115.462 E56.349
G1 X83.006 Y114.477 E56.45611
G1 X82.915 Y113.438 E56.56875
G1 X82.856 Y112.391 E56.682
G1 X82.842 Y111.308 E56.79898
G1 X82.874 Y110.296 E56.90833
G1 X82.934 Y109.295 E57.01663
G1 X83.03 Y108.21 E57.13427
G1 X83.158 Y107.254 E57.23844
G1 X83.342 Y106.154 E57.35889
G1 X83.546 Y105.184 E57.46594
G1 X83.796 Y104.186 E57.57705
G1 X84.09 Y103.131 E57.69534
G1 X84.383 Y102.231 E57.79756
G1 X84.774 Y101.149 E57.92181
G1 X85.132 Y100.269 E58.02441
G1 X85.594 Y99.253 E58.14495
G1 X86.054 Y98.329 E58.25643
G1 X86.548 Y97.408 E58.3693
G1 X87.083 Y96.5 E58.48312
G1 X87.636 Y95.635 E58.594
G1 X88.225 Y94.782 E58.70595
G1 X88.857 Y93.936 E58.82
G1 X89.504 Y93.132 E58.93146
G1 X90.172 Y92.359 E59.04179
G1 X90.873 Y91.604 E59.15306
G0 F7200 X91.155 Y91.888
G1 F1800 X91.902 Y91.147 E59.2667
G1 X92.671 Y90.432 E59.3801
