;FLAVOR:UltiGCode
;TIME:4657
;MATERIAL:4683
;MATERIAL2:0
;NOZZLE_DIAMETER:0.4
;MINX:93.159
;MINY:79.462
;MINZ:0.27
;MAXX:131.579
;MAXY:117.882
;MAXZ:32.97
;TARGET_MACHINE.NAME:Ultimaker 2+
;Generated with Cura_SteamEngine 5.6.0
M82 ;absolute extrusion mode
G0 F3000 Y50 ;avoid prime blob
G92 E0
G92 E0
G10
;LAYER_COUNT:328
;LAYER:0
M107
G0 F7200 X94.249 Y82.958 Z0.27
;TYPE:SKIRT
G11
G1 F1800 X96.816 Y80.465 E0.38646
G1 X99.888 Y79.462 E0.73547
G1 X125.149 Y79.462 E3.46366
G1 X127.767 Y80.352 E3.7623
G1 X128.083 Y80.552 E3.80269
G1 X130.576 Y83.119 E4.18915
G1 X131.579 Y86.191 E4.53816
G1 X131.579 Y111.061 E7.22412
G1 X131.159 Y112.989 E7.43723
G1 X130.049 Y114.809 E7.66746
G1 X127.903 Y116.891 E7.99038
G1 X124.846 Y117.882 E8.33745
G1 X99.98 Y117.882 E11.02298
G1 X98.052 Y117.462 E11.23608
G1 X96.232 Y116.352 E11.46632
G1 X94.15 Y114.206 E11.78924
G1 X93.159 Y111.149 E12.13631
G1 X93.159 Y85.892 E14.86406
G1 X94.049 Y83.274 E15.1627
G1 X94.249 Y82.958 E15.20309
G0 F7200 X94.528 Y83.245
G1 F1800 X97.029 Y80.816 E15.57962
G1 X99.951 Y79.862 E15.91159
G1 X125.082 Y79.862 E18.62574
G1 X127.638 Y80.731 E18.9173
G1 X127.796 Y80.831 E18.9375
G1 X130.225 Y83.332 E19.31403
G1 X131.179 Y86.254 E19.646
G1 X131.179 Y111.017 E22.3204
G1 X130.782 Y112.84 E22.5219
G1 X129.736 Y114.555 E22.73885
G1 X127.691 Y116.539 E23.04657
G1 X124.782 Y117.482 E23.37684
G1 X100.024 Y117.482 E26.0507
G1 X98.201 Y117.085 E26.2522
G1 X96.486 Y116.039 E26.46915
G1 X94.502 Y113.994 E26.77687
G1 X93.559 Y111.085 E27.10714
G1 X93.559 Y85.959 E29.82075
G1 X94.428 Y83.403 E30.11232
G1 X94.528 Y83.245 E30.13251
G0 F7200 X94.807 Y83.532
G1 F1800 X97.242 Y81.167 E30.49911
G1 X100.014 Y80.262 E30.81404
G1 X125.015 Y80.262 E33.51415
G1 X127.509 Y81.11 E33.79864
G1 X129.874 Y83.545 E34.16525
G1 X130.779 Y86.317 E34.48017
G1 X130.779 Y110.973 E37.14302
G1 X130.405 Y112.691 E37.33291
G1 X129.423 Y114.301 E37.53658
G1 X127.479 Y116.187 E37.82911
G1 X124.718 Y117.082 E38.14257
G1 X100.068 Y117.082 E40.80477
G1 X98.35 Y116.708 E40.99466
G1 X96.74 Y115.726 E41.19833
G1 X94.854 Y113.782 E41.49085
G1 X93.959 Y111.021 E41.80431
G1 X93.959 Y86.026 E44.50377
G1 X94.807 Y83.532 E44.78827
G0 F7200 X95.155 Y83.752
G1 F1800 X97.455 Y81.518 E45.13456
G1 X100.077 Y80.662 E45.43244
G1 X124.948 Y80.662 E48.11851
G1 X127.289 Y81.458 E48.38555
G1 X129.523 Y83.758 E48.73184
G1 X130.379 Y86.38 E49.02973
G1 X130.379 Y110.929 E51.68102
G1 X130.028 Y112.542 E51.8593
G1 X129.11 Y114.047 E52.04969
G1 X127.267 Y115.835 E52.32701
G1 X124.654 Y116.682 E52.62367
G1 X100.112 Y116.682 E55.27421
G1 X98.499 Y116.331 E55.45249
G1 X96.994 Y115.413 E55.64288
G1 X95.206 Y113.57 E55.9202
G1 X94.359 Y110.957 E56.21686
G1 X94.359 Y86.093 E58.90217
G1 X95.155 Y83.752 E59.16922
G0 F7200 X95.503 Y83.972
G1 F1800 X97.668 Y81.869 E59.49519
G1 X100.14 Y81.062 E59.77603
G1 X124.881 Y81.062 E62.44806
G1 X127.069 Y81.806 E62.69765
G1 X129.172 Y83.971 E63.02362
G1 X129.979 Y86.443 E63.30446
G1 X129.979 Y110.885 E65.9442
G1 X129.651 Y112.393 E66.11087
G1 X128.797 Y113.793 E66.28798
G1 X127.055 Y115.483 E66.55011
G1 X124.59 Y116.282 E66.82996
G1 X100.156 Y116.282 E69.46883
G1 X98.648 Y115.954 E69.63551
G1 X97.248 Y115.1 E69.81262
G1 X95.558 Y113.358 E70.07474
G1 X94.759 Y110.893 E70.3546
G1 X94.759 Y86.16 E73.02576
G1 X95.503 Y83.972 E73.27535
G0 F7200 X95.851 Y84.192
G1 F1800 X97.881 Y82.22 E73.58101
G1 X100.203 Y81.462 E73.84481
G1 X124.814 Y81.462 E76.50279
G1 X126.849 Y82.154 E76.73493
G1 X128.821 Y84.184 E77.04059
G1 X129.579 Y86.506 E77.30439
G1 X129.579 Y110.841 E79.93257
G1 X129.274 Y112.244 E80.08763
G1 X128.484 Y113.539 E80.25146
G1 X126.843 Y115.131 E80.49839
G1 X124.526 Y115.882 E80.76144
G1 X100.2 Y115.882 E83.38865
G1 X98.797 Y115.577 E83.54371
G1 X97.502 Y114.787 E83.70754
G1 X95.91 Y113.146 E83.95447
G1 X95.159 Y110.829 E84.21752
G1 X95.159 Y86.227 E86.87453
G1 X95.851 Y84.192 E87.10667
G0 F7200 X96.199 Y84.412
G1 F1800 X98.094 Y82.571 E87.39201
G1 X100.266 Y81.862 E87.63877
G1 X124.747 Y81.862 E90.28272
G1 X126.629 Y82.502 E90.4974
G1 X128.47 Y84.397 E90.78274
G1 X129.179 Y86.569 E91.0295
G1 X129.179 Y110.797 E93.64612
G1 X128.897 Y112.095 E93.78958
G1 X128.171 Y113.285 E93.94013
G1 X126.631 Y114.779 E94.17185
G1 X124.462 Y115.482 E94.4181
G1 X100.244 Y115.482 E97.03365
G1 X98.946 Y115.2 E97.1771
G1 X97.756 Y114.474 E97.32765
G1 X96.262 Y112.934 E97.55938
G1 X95.559 Y110.765 E97.80563
G1 X95.559 Y86.294 E100.44849
G1 X96.199 Y84.412 E100.66318
G0 F7200 X96.547 Y84.632
G1 F1800 X98.307 Y82.922 E100.9282
G1 X100.329 Y82.262 E101.15792
G1 X124.68 Y82.262 E103.78783
G1 X126.409 Y82.85 E103.98506
G1 X128.119 Y84.61 E104.25008
G1 X128.779 Y86.632 E104.4798
G1 X128.779 Y110.753 E107.08487
G1 X128.52 Y111.946 E107.21671
G1 X127.858 Y113.031 E107.35398
G1 X126.419 Y114.427 E107.57051
G1 X124.398 Y115.082 E107.79995
G1 X100.288 Y115.082 E110.40383
G1 X99.095 Y114.823 E110.53568
G1 X98.01 Y114.161 E110.67295
G1 X96.614 Y112.722 E110.88947
G1 X95.959 Y110.701 E111.11892
G1 X95.959 Y86.361 E113.74764
G1 X96.547 Y84.632 E113.94487
G0 F7200 X96.895 Y84.852
G1 F1800 X98.52 Y83.273 E114.18958
G1 X100.392 Y82.662 E114.40225
G1 X124.613 Y82.662 E117.01812
G1 X126.189 Y83.198 E117.1979
G1 X127.768 Y84.823 E117.44261
G1 X128.379 Y86.695 E117.65528
G1 X128.379 Y110.709 E120.2488
G1 X128.143 Y111.797 E120.36903
G1 X127.545 Y112.777 E120.49302
G1 X126.207 Y114.075 E120.69435
G1 X124.334 Y114.682 E120.90699
G1 X100.332 Y114.682 E123.49921
G1 X99.244 Y114.446 E123.61944
G1 X98.264 Y113.848 E123.74343
G1 X96.966 Y112.51 E123.94476
G1 X96.359 Y110.637 E124.1574
G1 X96.359 Y86.428 E126.77197
G1 X96.895 Y84.852 E126.95176
G0 F7200 X97.243 Y85.072
G1 F1800 X98.733 Y83.624 E127.17615
G1 X100.455 Y83.062 E127.37178
G1 X124.546 Y83.062 E129.9736
G1 X125.969 Y83.546 E130.13593
G1 X127.417 Y85.036 E130.36033
G1 X127.979 Y86.758 E130.55596
G1 X127.979 Y110.665 E133.13791
G1 X127.766 Y111.646 E133.24633
G1 X127.23 Y112.525 E133.35752
G1 X125.994 Y113.724 E133.54349
G1 X124.273 Y114.282 E133.73889
G1 X100.376 Y114.282 E136.31976
G1 X99.395 Y114.069 E136.42818
G1 X98.516 Y113.533 E136.53937
G1 X97.317 Y112.297 E136.72535
G1 X96.759 Y110.576 E136.92074
G1 X96.759 Y86.495 E139.52149
G1 X97.243 Y85.072 E139.68382
G0 F7200 X97.591 Y85.292
G1 F1800 X98.946 Y83.975 E139.88789
G1 X100.518 Y83.462 E140.06648
G1 X124.479 Y83.462 E142.65427
G1 X125.749 Y83.894 E142.79915
G1 X127.066 Y85.249 E143.00322
G1 X127.579 Y86.821 E143.18181
G1 X127.579 Y110.621 E145.75221
G1 X127.389 Y111.495 E145.84881
G1 X126.915 Y112.273 E145.9472
G1 X125.781 Y113.373 E146.11782
G1 X124.212 Y113.882 E146.29597
G1 X100.42 Y113.882 E148.8655
G1 X99.546 Y113.692 E148.9621
G1 X98.768 Y113.218 E149.06049
G1 X97.668 Y112.084 E149.23111
G1 X97.159 Y110.515 E149.40926
G1 X97.159 Y86.562 E151.99618
G1 X97.591 Y85.292 E152.14106
G0 F7200 X97.939 Y85.512
G1 F1800 X99.159 Y84.326 E152.32482
G1 X100.581 Y83.862 E152.48637
G1 X124.412 Y83.862 E155.06011
G1 X125.529 Y84.242 E155.18754
G1 X126.715 Y85.462 E155.3713
G1 X127.179 Y86.884 E155.53284
G1 X127.179 Y110.577 E158.09169
G1 X127.012 Y111.344 E158.17646
G1 X126.598 Y112.024 E158.26244
G1 X125.569 Y113.022 E158.41726
G1 X124.151 Y113.482 E158.57826
G1 X100.464 Y113.482 E161.13646
G1 X99.697 Y113.315 E161.22123
G1 X99.017 Y112.901 E161.30721
G1 X98.019 Y111.872 E161.46203
G1 X97.559 Y110.454 E161.62303
G1 X97.559 Y86.629 E164.19613
G1 X97.939 Y85.512 E164.32355
G0 F7200 X98.287 Y85.732
G1 F1800 X99.372 Y84.677 E164.487
G1 X100.644 Y84.262 E164.6315
G1 X124.345 Y84.262 E167.19121
G1 X125.309 Y84.59 E167.30118
G1 X126.364 Y85.675 E167.46462
G1 X126.779 Y86.947 E167.60913
G1 X126.779 Y110.533 E170.15641
G1 X126.635 Y111.193 E170.22937
G1 X126.281 Y111.775 E170.30294
G1 X125.357 Y112.671 E170.44195
G1 X124.09 Y113.082 E170.5858
G1 X100.508 Y113.082 E173.13266
G1 X99.848 Y112.938 E173.20561
G1 X99.266 Y112.584 E173.27918
G1 X98.37 Y111.66 E173.41819
G1 X97.959 Y110.393 E173.56205
G1 X97.959 Y86.696 E176.12132
G1 X98.287 Y85.732 E176.23129
G0 F7200 X98.635 Y85.952
G1 F1800 X99.585 Y85.028 E176.37442
G1 X100.707 Y84.662 E176.50188
G1 X124.278 Y84.662 E179.04755
G1 X125.089 Y84.938 E179.14007
G1 X126.013 Y85.888 E179.2832
G1 X126.379 Y87.01 E179.41066
G1 X126.379 Y110.489 E181.94639
G1 X126.258 Y111.042 E182.00753
G1 X125.964 Y111.526 E182.06869
G1 X125.145 Y112.32 E182.19188
G1 X124.029 Y112.682 E182.31859
G1 X100.552 Y112.682 E184.85411
G1 X99.999 Y112.561 E184.91525
G1 X99.515 Y112.267 E184.97641
G1 X98.721 Y111.448 E185.0996
G1 X98.359 Y110.332 E185.22631
G1 X98.359 Y86.763 E187.77176
G1 X98.635 Y85.952 E187.86428
G0 F7200 X98.983 Y86.172
G1 F1800 X99.798 Y85.379 E187.98709
G1 X100.77 Y85.062 E188.09751
G1 X124.211 Y85.062 E190.62914
G1 X124.869 Y85.286 E190.70421
G1 X125.662 Y86.101 E190.82702
G1 X125.979 Y87.073 E190.93744
G1 X125.979 Y110.489 E193.46637
G1 X125.869 Y110.949 E193.51745
G1 X125.686 Y111.239 E193.55448
G1 X124.934 Y111.968 E193.66759
G1 X123.967 Y112.282 E193.7774
G1 X100.552 Y112.282 E196.30622
G1 X100.092 Y112.172 E196.3573
G1 X99.802 Y111.989 E196.39433
G1 X99.073 Y111.237 E196.50745
G1 X98.759 Y110.27 E196.61725
G1 X98.759 Y86.83 E199.14877
G1 X98.983 Y86.172 E199.22384
G0 F7200 X99.331 Y86.392
G1 F1800 X100.011 Y85.73 E199.32634
G1 X100.833 Y85.462 E199.41971
G1 X124.144 Y85.462 E201.9373
G1 X124.649 Y85.634 E201.99492
G1 X125.311 Y86.314 E202.09741
G1 X125.579 Y87.136 E202.19078
G1 X125.579 Y110.449 E204.70859
G1 X125.52 Y110.753 E204.74203
G1 X125.408 Y110.952 E204.7667
G1 X124.723 Y111.616 E204.86973
G1 X123.905 Y111.882 E204.96263
G1 X100.592 Y111.882 E207.48043
G1 X100.288 Y111.823 E207.51387
G1 X100.089 Y111.711 E207.53854
G1 X99.425 Y111.026 E207.64157
G1 X99.159 Y110.208 E207.73447
G1 X99.159 Y86.897 E210.25205
G1 X99.331 Y86.392 E210.30967
G0 F7200 X99.61 Y86.679
G1 F1800 X100.224 Y86.081 E210.40224
G1 X100.896 Y85.862 E210.47857
G1 X124.144 Y85.862 E212.98935
G1 X124.362 Y85.913 E213.01353
G1 X124.96 Y86.527 E213.1061
G1 X125.179 Y87.199 E213.18243
G1 X125.179 Y110.449 E215.69343
G1 X125.13 Y110.665 E215.71735
G1 X124.512 Y111.264 E215.8103
G1 X123.842 Y111.482 E215.8864
G1 X100.592 Y111.482 E218.3974
G1 X100.376 Y111.433 E218.42132
G1 X99.777 Y110.815 E218.51427
G1 X99.559 Y110.145 E218.59036
G1 X99.559 Y86.897 E221.10115
G1 X99.61 Y86.679 E221.12533
G0 F7200 X99.959 Y86.897
G1 F1800 X100.437 Y86.432 E221.19735
G1 X100.959 Y86.262 E221.25664
G1 X124.144 Y86.262 E223.76062
G1 X124.609 Y86.74 E223.83264
G1 X124.779 Y87.262 E223.89193
G1 X124.779 Y110.449 E226.39612
G1 X124.301 Y110.912 E226.468
G1 X123.779 Y111.082 E226.52729
G1 X100.592 Y111.082 E229.03148
G1 X100.129 Y110.604 E229.10335
G1 X99.959 Y110.082 E229.16264
G1 X99.959 Y86.897 E231.66662
G0 F7200 X100.759 Y87.163
G1 F1800 X100.959 Y87.062 E231.69082
G1 X123.878 Y87.062 E234.16607
G1 X123.979 Y87.262 E234.19027
G1 X123.979 Y110.181 E236.66552
G1 X123.779 Y110.282 E236.68972
G1 X100.86 Y110.282 E239.16497
G1 X100.759 Y110.082 E239.18917
G1 X100.759 Y87.163 E241.66442
G0 F7200 X100.359 Y87.031
G1 F1800 X100.579 Y86.806 E241.69841
G1 X100.959 Y86.662 E241.7423
G1 X124.01 Y86.662 E244.23181
G1 X124.235 Y86.882 E244.26579
G1 X124.379 Y87.262 E244.30968
G1 X124.379 Y110.314 E246.79929
G1 X124.159 Y110.538 E246.8332
G1 X123.779 Y110.682 E246.87709
G1 X100.727 Y110.682 E249.36671
G1 X100.503 Y110.462 E249.40062
G1 X100.359 Y110.082 E249.4445
G1 X100.359 Y87.031 E251.93401
G10
;MESH:EndWithWheel v1.3mf
G0 F7200 X101.373 Y87.676
G0 X101.159 Y109.882
;TYPE:WALL-OUTER
G11
G1 F1800 X123.579 Y109.882 E254.59751
G1 X123.579 Y87.462 E257.261
G1 X101.159 Y87.462 E259.9245
G1 X101.159 Y109.882 E262.588
G0 F7200 X101.359 Y109.882
G0 X101.559 Y109.482
;TYPE:WALL-INNER
G1 F1800 X123.179 Y109.482 E264.80621
G1 X123.179 Y87.862 E267.02442
G1 X101.559 Y87.862 E269.24263
G1 X101.559 Y109.482 E271.46084
G0 F7200 X101.879 Y109.162
;TYPE:SKIN
G1 F1200 X122.859 Y109.162 E273.50576
G1 X122.859 Y88.182 E275.55068
G1 X101.879 Y88.182 E277.59561
G1 X101.879 Y109.162 E279.64053
G0 F7200 X102.173 Y108.961
G1 F1200 X102.078 Y108.866 E279.65362
G0 F7200 X102.078 Y108.301
G1 F1200 X102.739 Y108.961 E279.74467
G0 F7200 X103.304 Y108.961
G1 F1200 X102.078 Y107.735 E279.91366
G0 F7200 X102.078 Y107.169
G1 F1200 X103.87 Y108.961 E280.16068
G0 F7200 X104.436 Y108.961
G1 F1200 X102.078 Y106.604 E280.48564
G0 F7200 X102.078 Y106.038
G1 F1200 X105.001 Y108.961 E280.88856
G0 F7200 X105.567 Y108.961
G1 F1200 X102.078 Y105.472 E281.3695
G0 F7200 X102.078 Y104.907
G1 F1200 X106.133 Y108.961 E281.92838
G0 F7200 X106.698 Y108.961
G1 F1200 X102.078 Y104.341 E282.56522
G0 F7200 X102.078 Y103.775
G1 F1200 X107.264 Y108.961 E283.28007
G0 F7200 X107.83 Y108.961
G1 F1200 X102.078 Y103.21 E284.07288
G0 F7200 X102.078 Y102.644
G1 F1200 X108.395 Y108.961 E284.94364
G0 F7200 X108.961 Y108.961
G1 F1200 X102.078 Y102.078 E285.89241
G0 F7200 X102.078 Y101.512
G1 F1200 X109.527 Y108.961 E286.91921
G0 F7200 X110.092 Y108.961
G1 F1200 X102.078 Y100.947 E288.02389
G0 F7200 X102.078 Y100.381
G1 F1200 X110.658 Y108.961 E289.20658
G0 F7200 X111.224 Y108.961
G1 F1200 X102.078 Y99.815 E290.4673
G0 F7200 X102.078 Y99.25
G1 F1200 X111.79 Y108.961 E291.80596
G0 F7200 X112.355 Y108.961
G1 F1200 X102.078 Y98.684 E293.22258
G0 F7200 X102.078 Y98.118
G1 F1200 X112.921 Y108.961 E294.71722
G0 F7200 X113.487 Y108.961
G1 F1200 X102.078 Y97.553 E296.2898
G0 F7200 X102.078 Y96.987
G1 F1200 X114.052 Y108.961 E297.94034
G0 F7200 X114.618 Y108.961
G1 F1200 X102.078 Y96.421 E299.6689
G0 F7200 X102.078 Y95.856
G1 F1200 X115.184 Y108.961 E301.4754
G0 F7200 X115.749 Y108.961
G1 F1200 X102.078 Y95.29 E303.35986
G0 F7200 X102.078 Y94.724
G1 F1200 X116.315 Y108.961 E305.32234
G0 F7200 X116.881 Y108.961
G1 F1200 X102.078 Y94.159 E307.36276
G0 F7200 X102.078 Y93.593
G1 F1200 X117.446 Y108.961 E309.48114
G0 F7200 X118.012 Y108.961
G1 F1200 X102.078 Y93.027 E311.67754
G0 F7200 X102.078 Y92.461
G1 F1200 X118.578 Y108.961 E313.95195
G0 F7200 X119.143 Y108.961
G1 F1200 X102.078 Y91.896 E316.30425
G0 F7200 X102.078 Y91.33
G1 F1200 X119.709 Y108.961 E318.73457
G0 F7200 X120.275 Y108.961
G1 F1200 X102.078 Y90.764 E321.2429
G0 F7200 X102.078 Y90.199
G1 F1200 X120.841 Y108.961 E323.82919
G0 F7200 X121.406 Y108.961
G1 F1200 X102.078 Y89.633 E326.49343
G0 F7200 X102.078 Y89.067
G1 F1200 X121.972 Y108.961 E329.23568
G0 F7200 X122.538 Y108.961
G1 F1200 X102.078 Y88.502 E332.05589
G0 F7200 X102.524 Y88.381
G1 F1200 X122.658 Y108.516 E334.8313
G0 F7200 X122.658 Y107.95
G1 F1200 X103.089 Y88.381 E337.52876
G0 F7200 X103.655 Y88.381
G1 F1200 X122.658 Y107.384 E340.14819
G0 F7200 X122.658 Y106.819
G1 F1200 X104.221 Y88.381 E342.68968
G0 F7200 X104.786 Y88.381
G1 F1200 X122.658 Y106.253 E345.15322
G0 F7200 X122.658 Y105.687
G1 F1200 X105.352 Y88.381 E347.53874
G0 F7200 X105.918 Y88.381
G1 F1200 X122.658 Y105.122 E349.8463
G0 F7200 X122.658 Y104.556
G1 F1200 X106.483 Y88.381 E352.07592
G0 F7200 X107.049 Y88.381
G1 F1200 X122.658 Y103.99 E354.22752
G0 F7200 X122.658 Y103.424
G1 F1200 X107.615 Y88.381 E356.3011
G0 F7200 X108.18 Y88.381
G1 F1200 X122.658 Y102.859 E358.29679
G0 F7200 X122.658 Y102.293
G1 F1200 X108.746 Y88.381 E360.21447
G0 F7200 X109.312 Y88.381
G1 F1200 X122.658 Y101.727 E362.05413
G0 F7200 X122.658 Y101.162
G1 F1200 X109.878 Y88.381 E363.81584
G0 F7200 X110.443 Y88.381
G1 F1200 X122.658 Y100.596 E365.49959
G0 F7200 X122.658 Y100.03
G1 F1200 X111.009 Y88.381 E367.10533
G0 F7200 X111.575 Y88.381
G1 F1200 X122.658 Y99.465 E368.63312
G0 F7200 X122.658 Y98.899
G1 F1200 X112.14 Y88.381 E370.08296
G0 F7200 X112.706 Y88.381
G1 F1200 X122.658 Y98.333 E371.45477
G0 F7200 X122.658 Y97.768
G1 F1200 X113.272 Y88.381 E372.74864
G0 F7200 X113.837 Y88.381
G1 F1200 X122.658 Y97.202 E373.96456
G0 F7200 X122.658 Y96.636
G1 F1200 X114.403 Y88.381 E375.10245
G0 F7200 X114.969 Y88.381
G1 F1200 X122.658 Y96.071 E376.1624
G0 F7200 X122.658 Y95.505
G1 F1200 X115.534 Y88.381 E377.1444
G0 F7200 X116.1 Y88.381
G1 F1200 X122.658 Y94.939 E378.04837
G0 F7200 X122.658 Y94.374
G1 F1200 X116.666 Y88.381 E378.8744
G0 F7200 X117.231 Y88.381
