;FLAVOR:UltiGCode
;TIME:4643
;MATERIAL:4682
;MATERIAL2:0
;NOZZLE_DIAMETER:0.4
;MINX:98.566
;MINY:74.097
;MINZ:0.27
;MAXX:136.986
;MAXY:112.517
;MAXZ:32.97
;TARGET_MACHINE.NAME:Ultimaker 2+
;Generated with Cura_SteamEngine 5.6.0
M82 ;absolute extrusion mode
G0 F3000 Y50 ;avoid prime blob
G92 E0
G92 E0
G10
;LAYER_COUNT:328
;LAYER:0
M107
G0 F7200 X99.656 Y77.593 Z0.27
;TYPE:SKIRT
G11
G1 F1800 X102.223 Y75.1 E0.38646
G1 X105.295 Y74.097 E0.73547
G1 X130.556 Y74.097 E3.46366
G1 X133.174 Y74.987 E3.7623
G1 X133.49 Y75.187 E3.80269
G1 X135.983 Y77.754 E4.18915
G1 X136.986 Y80.826 E4.53816
G1 X136.986 Y105.696 E7.22412
G1 X136.566 Y107.624 E7.43723
G1 X135.456 Y109.444 E7.66746
G1 X133.31 Y111.526 E7.99038
G1 X130.253 Y112.517 E8.33745
G1 X105.387 Y112.517 E11.02298
G1 X103.459 Y112.097 E11.23608
G1 X101.639 Y110.987 E11.46632
G1 X99.557 Y108.841 E11.78924
G1 X98.566 Y105.784 E12.13631
G1 X98.566 Y80.527 E14.86406
G1 X99.456 Y77.909 E15.1627
G1 X99.656 Y77.593 E15.20309
G0 F7200 X99.935 Y77.88
G1 F1800 X102.436 Y75.451 E15.57962
G1 X105.358 Y74.497 E15.91159
G1 X130.489 Y74.497 E18.62574
G1 X133.045 Y75.366 E18.9173
G1 X133.203 Y75.466 E18.9375
G1 X135.632 Y77.967 E19.31403
G1 X136.586 Y80.889 E19.646
G1 X136.586 Y105.652 E22.3204
G1 X136.189 Y107.475 E22.5219
G1 X135.143 Y109.19 E22.73885
G1 X133.098 Y111.174 E23.04657
G1 X130.189 Y112.117 E23.37684
G1 X105.431 Y112.117 E26.0507
G1 X103.608 Y111.72 E26.2522
G1 X101.893 Y110.674 E26.46915
G1 X99.909 Y108.629 E26.77687
G1 X98.966 Y105.72 E27.10714
G1 X98.966 Y80.594 E29.82075
G1 X99.835 Y78.038 E30.11232
G1 X99.935 Y77.88 E30.13251
G0 F7200 X100.214 Y78.167
G1 F1800 X102.649 Y75.802 E30.49911
G1 X105.421 Y74.897 E30.81404
G1 X130.422 Y74.897 E33.51415
G1 X132.916 Y75.745 E33.79864
G1 X135.281 Y78.18 E34.16525
G1 X136.186 Y80.952 E34.48017
G1 X136.186 Y105.608 E37.14302
G1 X135.812 Y107.326 E37.33291
G1 X134.83 Y108.936 E37.53658
G1 X132.886 Y110.822 E37.82911
G1 X130.125 Y111.717 E38.14257
G1 X105.475 Y111.717 E40.80477
G1 X103.757 Y111.343 E40.99466
G1 X102.147 Y110.361 E41.19833
G1 X100.261 Y108.417 E41.49085
G1 X99.366 Y105.656 E41.80431
G1 X99.366 Y80.661 E44.50377
G1 X100.214 Y78.167 E44.78827
G0 F7200 X100.562 Y78.387
G1 F1800 X102.862 Y76.153 E45.13456
G1 X105.484 Y75.297 E45.43244
G1 X130.355 Y75.297 E48.11851
G1 X132.696 Y76.093 E48.38555
G1 X134.93 Y78.393 E48.73184
G1 X135.786 Y81.015 E49.02973
G1 X135.786 Y105.564 E51.68102
G1 X135.435 Y107.177 E51.8593
G1 X134.517 Y108.682 E52.04969
G1 X132.674 Y110.47 E52.32701
G1 X130.061 Y111.317 E52.62367
G1 X105.519 Y111.317 E55.27421
G1 X103.906 Y110.966 E55.45249
G1 X102.401 Y110.048 E55.64288
G1 X100.613 Y108.205 E55.9202
G1 X99.766 Y105.592 E56.21686
G1 X99.766 Y80.728 E58.90217
G1 X100.562 Y78.387 E59.16922
G0 F7200 X100.91 Y78.607
G1 F1800 X103.075 Y76.504 E59.49519
G1 X105.547 Y75.697 E59.77603
G1 X130.288 Y75.697 E62.44806
G1 X132.476 Y76.441 E62.69765
G1 X134.579 Y78.606 E63.02362
G1 X135.386 Y81.078 E63.30446
G1 X135.386 Y105.52 E65.9442
G1 X135.058 Y107.028 E66.11087
G1 X134.204 Y108.428 E66.28798
G1 X132.462 Y110.118 E66.55011
G1 X129.997 Y110.917 E66.82996
G1 X105.563 Y110.917 E69.46883
G1 X104.055 Y110.589 E69.63551
G1 X102.655 Y109.735 E69.81262
G1 X100.965 Y107.993 E70.07474
G1 X100.166 Y105.528 E70.3546
G1 X100.166 Y80.795 E73.02576
G1 X100.91 Y78.607 E73.27535
G0 F7200 X101.258 Y78.827
G1 F1800 X103.288 Y76.855 E73.58101
G1 X105.61 Y76.097 E73.84481
G1 X130.221 Y76.097 E76.50279
G1 X132.256 Y76.789 E76.73493
G1 X134.228 Y78.819 E77.04059
G1 X134.986 Y81.141 E77.30439
G1 X134.986 Y105.476 E79.93257
G1 X134.681 Y106.879 E80.08763
G1 X133.891 Y108.174 E80.25146
G1 X132.25 Y109.766 E80.49839
G1 X129.933 Y110.517 E80.76144
G1 X105.607 Y110.517 E83.38865
G1 X104.204 Y110.212 E83.54371
G1 X102.909 Y109.422 E83.70754
G1 X101.317 Y107.781 E83.95447
G1 X100.566 Y105.464 E84.21752
G1 X100.566 Y80.862 E86.87453
G1 X101.258 Y78.827 E87.10667
G0 F7200 X101.606 Y79.047
G1 F1800 X103.501 Y77.206 E87.39201
G1 X105.673 Y76.497 E87.63877
G1 X130.154 Y76.497 E90.28272
G1 X132.036 Y77.137 E90.4974
G1 X133.877 Y79.032 E90.78274
G1 X134.586 Y81.204 E91.0295
G1 X134.586 Y105.432 E93.64612
G1 X134.304 Y106.73 E93.78958
G1 X133.578 Y107.92 E93.94013
G1 X132.038 Y109.414 E94.17185
G1 X129.869 Y110.117 E94.4181
G1 X105.651 Y110.117 E97.03365
G1 X104.353 Y109.835 E97.1771
G1 X103.163 Y109.109 E97.32765
G1 X101.669 Y107.569 E97.55938
G1 X100.966 Y105.4 E97.80563
G1 X100.966 Y80.929 E100.44849
G1 X101.606 Y79.047 E100.66318
G0 F7200 X101.954 Y79.267
G1 F1800 X103.714 Y77.557 E100.9282
G1 X105.736 Y76.897 E101.15792
G1 X130.087 Y76.897 E103.78783
G1 X131.816 Y77.485 E103.98506
G1 X133.526 Y79.245 E104.25008
G1 X134.186 Y81.267 E104.4798
G1 X134.186 Y105.388 E107.08487
G1 X133.927 Y106.581 E107.21671
G1 X133.265 Y107.666 E107.35398
G1 X131.826 Y109.062 E107.57051
G1 X129.805 Y109.717 E107.79995
G1 X105.695 Y109.717 E110.40383
G1 X104.502 Y109.458 E110.53568
G1 X103.417 Y108.796 E110.67295
G1 X102.021 Y107.357 E110.88947
G1 X101.366 Y105.336 E111.11892
G1 X101.366 Y80.996 E113.74764
G1 X101.954 Y79.267 E113.94487
G0 F7200 X102.302 Y79.487
G1 F1800 X103.927 Y77.908 E114.18958
G1 X105.799 Y77.297 E114.40225
G1 X130.02 Y77.297 E117.01812
G1 X131.596 Y77.833 E117.1979
G1 X133.175 Y79.458 E117.44261
G1 X133.786 Y81.33 E117.65528
G1 X133.786 Y105.344 E120.2488
G1 X133.55 Y106.432 E120.36903
G1 X132.952 Y107.412 E120.49302
G1 X131.614 Y108.71 E120.69435
G1 X129.741 Y109.317 E120.90699
G1 X105.739 Y109.317 E123.49921
G1 X104.651 Y109.081 E123.61944
G1 X103.671 Y108.483 E123.74343
G1 X102.373 Y107.145 E123.94476
G1 X101.766 Y105.272 E124.1574
G1 X101.766 Y81.063 E126.77197
G1 X102.302 Y79.487 E126.95176
G0 F7200 X102.65 Y79.707
G1 F1800 X104.14 Y78.259 E127.17615
G1 X105.862 Y77.697 E127.37178
G1 X129.953 Y77.697 E129.9736
G1 X131.376 Y78.181 E130.13593
G1 X132.824 Y79.671 E130.36033
G1 X133.386 Y81.393 E130.55596
G1 X133.386 Y105.3 E133.13791
G1 X133.173 Y106.281 E133.24633
G1 X132.637 Y107.16 E133.35752
G1 X131.401 Y108.359 E133.54349
G1 X129.68 Y108.917 E133.73889
G1 X105.783 Y108.917 E136.31976
G1 X104.802 Y108.704 E136.42818
G1 X103.923 Y108.168 E136.53937
G1 X102.724 Y106.932 E136.72535
G1 X102.166 Y105.211 E136.92074
G1 X102.166 Y81.13 E139.52149
G1 X102.65 Y79.707 E139.68382
G0 F7200 X102.998 Y79.927
G1 F1800 X104.353 Y78.61 E139.88789
G1 X105.925 Y78.097 E140.06648
G1 X129.886 Y78.097 E142.65427
G1 X131.156 Y78.529 E142.79915
G1 X132.473 Y79.884 E143.00322
G1 X132.986 Y81.456 E143.18181
G1 X132.986 Y105.256 E145.75221
G1 X132.796 Y106.13 E145.84881
G1 X132.322 Y106.908 E145.9472
G1 X131.188 Y108.008 E146.11782
G1 X129.619 Y108.517 E146.29597
G1 X105.827 Y108.517 E148.8655
G1 X104.953 Y108.327 E148.9621
G1 X104.175 Y107.853 E149.06049
G1 X103.075 Y106.719 E149.23111
G1 X102.566 Y105.15 E149.40926
G1 X102.566 Y81.197 E151.99618
G1 X102.998 Y79.927 E152.14106
G0 F7200 X103.346 Y80.147
G1 F1800 X104.566 Y78.961 E152.32482
G1 X105.988 Y78.497 E152.48637
G1 X129.819 Y78.497 E155.06011
G1 X130.936 Y78.877 E155.18754
G1 X132.122 Y80.097 E155.3713
G1 X132.586 Y81.519 E155.53284
G1 X132.586 Y105.212 E158.09169
G1 X132.419 Y105.979 E158.17646
G1 X132.005 Y106.659 E158.26244
G1 X130.976 Y107.657 E158.41726
G1 X129.558 Y108.117 E158.57826
G1 X105.871 Y108.117 E161.13646
G1 X105.104 Y107.95 E161.22123
G1 X104.424 Y107.536 E161.30721
G1 X103.426 Y106.507 E161.46203
G1 X102.966 Y105.089 E161.62303
G1 X102.966 Y81.264 E164.19613
G1 X103.346 Y80.147 E164.32355
G0 F7200 X103.694 Y80.367
G1 F1800 X104.779 Y79.312 E164.487
G1 X106.051 Y78.897 E164.6315
G1 X129.752 Y78.897 E167.19121
G1 X130.716 Y79.225 E167.30118
G1 X131.771 Y80.31 E167.46462
G1 X132.186 Y81.582 E167.60913
G1 X132.186 Y105.168 E170.15641
G1 X132.042 Y105.828 E170.22937
G1 X131.688 Y106.41 E170.30294
G1 X130.764 Y107.306 E170.44195
G1 X129.497 Y107.717 E170.5858
G1 X105.915 Y107.717 E173.13266
G1 X105.255 Y107.573 E173.20561
G1 X104.673 Y107.219 E173.27918
G1 X103.777 Y106.295 E173.41819
G1 X103.366 Y105.028 E173.56205
G1 X103.366 Y81.331 E176.12132
G1 X103.694 Y80.367 E176.23129
G0 F7200 X104.042 Y80.587
G1 F1800 X104.992 Y79.663 E176.37442
G1 X106.114 Y79.297 E176.50188
G1 X129.685 Y79.297 E179.04755
G1 X130.496 Y79.573 E179.14007
G1 X131.42 Y80.523 E179.2832
G1 X131.786 Y81.645 E179.41066
G1 X131.786 Y105.124 E181.94639
G1 X131.665 Y105.677 E182.00753
G1 X131.371 Y106.161 E182.06869
G1 X130.552 Y106.955 E182.19188
G1 X129.436 Y107.317 E182.31859
G1 X105.959 Y107.317 E184.85411
G1 X105.406 Y107.196 E184.91525
G1 X104.922 Y106.902 E184.97641
G1 X104.128 Y106.083 E185.0996
G1 X103.766 Y104.967 E185.22631
G1 X103.766 Y81.398 E187.77176
G1 X104.042 Y80.587 E187.86428
G0 F7200 X104.39 Y80.807
G1 F1800 X105.205 Y80.014 E187.98709
G1 X106.177 Y79.697 E188.09751
G1 X129.618 Y79.697 E190.62914
G1 X130.276 Y79.921 E190.70421
G1 X131.069 Y80.736 E190.82702
G1 X131.386 Y81.708 E190.93744
G1 X131.386 Y105.124 E193.46637
G1 X131.276 Y105.584 E193.51745
G1 X131.093 Y105.874 E193.55448
G1 X130.341 Y106.603 E193.66759
G1 X129.374 Y106.917 E193.7774
G1 X105.959 Y106.917 E196.30622
G1 X105.499 Y106.807 E196.3573
G1 X105.209 Y106.624 E196.39433
G1 X104.48 Y105.872 E196.50745
G1 X104.166 Y104.905 E196.61725
G1 X104.166 Y81.465 E199.14877
G1 X104.39 Y80.807 E199.22384
G0 F7200 X104.738 Y81.027
G1 F1800 X105.418 Y80.365 E199.32634
G1 X106.24 Y80.097 E199.41971
G1 X129.551 Y80.097 E201.9373
G1 X130.056 Y80.269 E201.99492
G1 X130.718 Y80.949 E202.09741
G1 X130.986 Y81.771 E202.19078
G1 X130.986 Y105.084 E204.70859
G1 X130.927 Y105.388 E204.74203
G1 X130.815 Y105.587 E204.7667
G1 X130.13 Y106.251 E204.86973
G1 X129.312 Y106.517 E204.96263
G1 X105.999 Y106.517 E207.48043
G1 X105.695 Y106.458 E207.51387
G1 X105.496 Y106.346 E207.53854
G1 X104.832 Y105.661 E207.64157
G1 X104.566 Y104.843 E207.73447
G1 X104.566 Y81.532 E210.25205
G1 X104.738 Y81.027 E210.30967
G0 F7200 X105.017 Y81.314
G1 F1800 X105.631 Y80.716 E210.40224
G1 X106.303 Y80.497 E210.47857
G1 X129.551 Y80.497 E212.98935
G1 X129.769 Y80.548 E213.01353
G1 X130.367 Y81.162 E213.1061
G1 X130.586 Y81.834 E213.18243
G1 X130.586 Y105.084 E215.69343
G1 X130.537 Y105.3 E215.71735
G1 X129.919 Y105.899 E215.8103
G1 X129.249 Y106.117 E215.8864
G1 X105.999 Y106.117 E218.3974
G1 X105.783 Y106.068 E218.42132
G1 X105.184 Y105.45 E218.51427
G1 X104.966 Y104.78 E218.59036
G1 X104.966 Y81.532 E221.10115
G1 X105.017 Y81.314 E221.12533
G0 F7200 X105.366 Y81.532
G1 F1800 X105.844 Y81.067 E221.19735
G1 X106.366 Y80.897 E221.25664
G1 X129.551 Y80.897 E223.76062
G1 X130.016 Y81.375 E223.83264
G1 X130.186 Y81.897 E223.89193
G1 X130.186 Y105.084 E226.39612
G1 X129.708 Y105.547 E226.468
G1 X129.186 Y105.717 E226.52729
G1 X105.999 Y105.717 E229.03148
G1 X105.536 Y105.239 E229.10335
G1 X105.366 Y104.717 E229.16264
G1 X105.366 Y81.532 E231.66662
G0 F7200 X106.166 Y81.798
G1 F1800 X106.366 Y81.697 E231.69082
G1 X129.285 Y81.697 E234.16607
G1 X129.386 Y81.897 E234.19027
G1 X129.386 Y104.816 E236.66552
G1 X129.186 Y104.917 E236.68972
G1 X106.267 Y104.917 E239.16497
G1 X106.166 Y104.717 E239.18917
G1 X106.166 Y81.798 E241.66442
G0 F7200 X105.766 Y81.666
G1 F1800 X105.986 Y81.441 E241.69841
G1 X106.366 Y81.297 E241.7423
G1 X129.417 Y81.297 E244.23181
G1 X129.642 Y81.517 E244.26579
G1 X129.786 Y81.897 E244.30968
G1 X129.786 Y104.949 E246.79929
G1 X129.566 Y105.173 E246.8332
G1 X129.186 Y105.317 E246.87709
G1 X106.134 Y105.317 E249.36671
G1 X105.91 Y105.097 E249.40062
G1 X105.766 Y104.717 E249.4445
G1 X105.766 Y81.666 E251.93401
G10
;MESH:Body5.3mf
G0 F7200 X107.086 Y82.617
G0 X106.566 Y104.517
;TYPE:WALL-OUTER
G11
G1 F1800 X128.986 Y104.517 E254.59751
G1 X128.986 Y82.097 E257.261
G1 X106.566 Y82.097 E259.9245
G1 X106.566 Y104.517 E262.588
G0 F7200 X106.766 Y104.517
G0 X106.966 Y104.117
;TYPE:WALL-INNER
G1 F1800 X128.586 Y104.117 E264.80621
G1 X128.586 Y82.497 E267.02442
G1 X106.966 Y82.497 E269.24263
G1 X106.966 Y104.117 E271.46084
G0 F7200 X107.286 Y103.797
;TYPE:SKIN
G1 F1200 X128.266 Y103.797 E273.50576
G1 X128.266 Y82.817 E275.55068
G1 X107.286 Y82.817 E277.59561
G1 X107.286 Y103.797 E279.64053
G0 F7200 X107.556 Y103.596
G1 F1200 X107.485 Y103.525 E279.65031
G0 F7200 X107.485 Y102.959
G1 F1200 X108.122 Y103.596 E279.73812
G0 F7200 X108.687 Y103.596
G1 F1200 X107.485 Y102.394 E279.90381
G0 F7200 X107.485 Y101.828
G1 F1200 X109.253 Y103.596 E280.14751
G0 F7200 X109.819 Y103.596
G1 F1200 X107.485 Y101.262 E280.46924
G0 F7200 X107.485 Y100.696
G1 F1200 X110.385 Y103.596 E280.86899
G0 F7200 X110.95 Y103.596
G1 F1200 X107.485 Y100.131 E281.34661
G0 F7200 X107.485 Y99.565
G1 F1200 X111.516 Y103.596 E281.90226
G0 F7200 X112.082 Y103.596
G1 F1200 X107.485 Y98.999 E282.53593
G0 F7200 X107.485 Y98.434
G1 F1200 X112.647 Y103.596 E283.24747
G0 F7200 X113.213 Y103.596
G1 F1200 X107.485 Y97.868 E284.03704
G0 F7200 X107.485 Y97.302
G1 F1200 X113.779 Y103.596 E284.90463
G0 F7200 X114.344 Y103.596
G1 F1200 X107.485 Y96.737 E285.8501
G0 F7200 X107.485 Y96.171
G1 F1200 X114.91 Y103.596 E286.87358
G0 F7200 X115.476 Y103.596
G1 F1200 X107.485 Y95.605 E287.97509
G0 F7200 X107.485 Y95.04
G1 F1200 X116.041 Y103.596 E289.15448
G0 F7200 X116.607 Y103.596
G1 F1200 X107.485 Y94.474 E290.41188
G0 F7200 X107.485 Y93.908
G1 F1200 X117.173 Y103.596 E291.74731
G0 F7200 X117.738 Y103.596
G1 F1200 X107.485 Y93.343 E293.16062
G0 F7200 X107.485 Y92.777
G1 F1200 X118.304 Y103.596 E294.65195
G0 F7200 X118.87 Y103.596
G1 F1200 X107.485 Y92.211 E296.22129
G0 F7200 X107.485 Y91.645
G1 F1200 X119.435 Y103.596 E297.86859
G0 F7200 X120.001 Y103.596
G1 F1200 X107.485 Y91.08 E299.59384
G0 F7200 X107.485 Y90.514
G1 F1200 X120.567 Y103.596 E301.39711
G0 F7200 X121.133 Y103.596
G1 F1200 X107.485 Y89.948 E303.27839
G0 F7200 X107.485 Y89.383
G1 F1200 X121.698 Y103.596 E305.23756
G0 F7200 X122.264 Y103.596
G1 F1200 X107.485 Y88.817 E307.27475
G0 F7200 X107.485 Y88.251
G1 F1200 X122.83 Y103.596 E309.38996
G0 F7200 X123.395 Y103.596
G1 F1200 X107.485 Y87.686 E311.58304
G0 F7200 X107.485 Y87.12
G1 F1200 X123.961 Y103.596 E313.85415
G0 F7200 X124.527 Y103.596
G1 F1200 X107.485 Y86.554 E316.20328
G0 F7200 X107.485 Y85.989
G1 F1200 X125.092 Y103.596 E318.63029
G0 F7200 X125.658 Y103.596
G1 F1200 X107.485 Y85.423 E321.13532
G0 F7200 X107.485 Y84.857
G1 F1200 X126.224 Y103.596 E323.71836
G0 F7200 X126.789 Y103.596
G1 F1200 X107.485 Y84.292 E326.37929
G0 F7200 X107.485 Y83.726
G1 F1200 X127.355 Y103.596 E329.11824
G0 F7200 X127.921 Y103.596
G1 F1200 X107.485 Y83.16 E331.93521
G0 F7200 X107.907 Y83.017
G1 F1200 X128.065 Y103.175 E334.71386
G0 F7200 X128.065 Y102.609
G1 F1200 X108.473 Y83.017 E337.41448
G0 F7200 X109.038 Y83.017
G1 F1200 X128.065 Y102.043 E340.03716
G0 F7200 X128.065 Y101.478
G1 F1200 X109.604 Y83.017 E342.58189
G0 F7200 X110.17 Y83.017
G1 F1200 X128.065 Y100.912 E345.0486
G0 F7200 X128.065 Y100.346
G1 F1200 X110.735 Y83.017 E347.43735
G0 F7200 X111.301 Y83.017
G1 F1200 X128.065 Y99.781 E349.74816
G0 F7200 X128.065 Y99.215
G1 F1200 X111.867 Y83.017 E351.98095
G0 F7200 X112.432 Y83.017
G1 F1200 X128.065 Y98.649 E354.13578
G0 F7200 X128.065 Y98.084
G1 F1200 X112.998 Y83.017 E356.21267
G0 F7200 X113.564 Y83.017
G1 F1200 X128.065 Y97.518 E358.21154
G0 F7200 X128.065 Y96.952
G1 F1200 X114.129 Y83.017 E360.13245
G0 F7200 X114.695 Y83.017
G1 F1200 X128.065 Y96.387 E361.97542
G0 F7200 X128.065 Y95.821
G1 F1200 X115.261 Y83.017 E363.74037
G0 F7200 X115.826 Y83.017
G1 F1200 X128.065 Y95.255 E365.42736
G0 F7200 X128.065 Y94.69
G1 F1200 X116.392 Y83.017 E367.03641
G0 F7200 X116.958 Y83.017
G1 F1200 X128.065 Y94.124 E368.56744
G0 F7200 X128.065 Y93.558
G1 F1200 X117.523 Y83.017 E370.02051
G0 F7200 X118.089 Y83.017
G1 F1200 X128.065 Y92.993 E371.39564
G0 F7200 X128.065 Y92.427
G1 F1200 X118.655 Y83.017 E372.69274
G0 F7200 X119.221 Y83.017
G1 F1200 X128.065 Y91.861 E373.91183
G0 F7200 X128.065 Y91.295
G1 F1200 X119.786 Y83.017 E375.05297
G0 F7200 X120.352 Y83.017
G1 F1200 X128.065 Y90.73 E376.11615
G0 F7200 X128.065 Y90.164
G1 F1200 X120.918 Y83.017 E377.10132
G0 F7200 X121.483 Y83.017
G1 F1200 X128.065 Y89.598 E378.00854
