;FLAVOR:UltiGCode
;TIME:4104
;MATERIAL:4130
;MATERIAL2:0
;NOZZLE_DIAMETER:0.4
;MINX:84.152
;MINY:62.575
;MINZ:0.27
;MAXX:121.572
;MAXY:99.995
;MAXZ:30.97
;TARGET_MACHINE.NAME:Ultimaker 2+
;Generated with Cura_SteamEngine 5.6.0
M82 ;absolute extrusion mode
G0 F3000 Y50 ;avoid prime blob
G92 E0
G92 E0
G10
;LAYER_COUNT:308
;LAYER:0
M107
G0 F7200 X85.242 Y66.071 Z0.27
;TYPE:SKIRT
G11
G1 F1800 X87.809 Y63.578 E0.38646
G1 X90.881 Y62.575 E0.73547
G1 X115.142 Y62.575 E3.35566
G1 X117.76 Y63.465 E3.6543
G1 X118.076 Y63.665 E3.69469
G1 X120.569 Y66.232 E4.08115
G1 X121.572 Y69.304 E4.43016
G1 X121.572 Y93.174 E7.00812
G1 X121.152 Y95.102 E7.22123
G1 X120.042 Y96.922 E7.45146
G1 X117.896 Y99.004 E7.77438
G1 X114.839 Y99.995 E8.12145
G1 X90.973 Y99.995 E10.69898
G1 X89.045 Y99.575 E10.91208
G1 X87.225 Y98.465 E11.14232
G1 X85.143 Y96.319 E11.46524
G1 X84.152 Y93.262 E11.81231
G1 X84.152 Y69.005 E14.43206
G1 X85.042 Y66.387 E14.7307
G1 X85.242 Y66.071 E14.77109
G0 F7200 X85.521 Y66.358
G1 F1800 X88.022 Y63.929 E15.14762
G1 X90.944 Y62.975 E15.47959
G1 X115.075 Y62.975 E18.08574
G1 X117.631 Y63.844 E18.3773
G1 X117.789 Y63.944 E18.3975
G1 X120.218 Y66.445 E18.77403
G1 X121.172 Y69.367 E19.106
G1 X121.172 Y93.13 E21.6724
G1 X120.775 Y94.953 E21.8739
G1 X119.729 Y96.668 E22.09085
G1 X117.684 Y98.652 E22.39857
G1 X114.775 Y99.595 E22.72884
G1 X91.017 Y99.595 E25.2947
G1 X89.194 Y99.198 E25.4962
G1 X87.479 Y98.152 E25.71315
G1 X85.495 Y96.107 E26.02087
G1 X84.552 Y93.198 E26.35114
G1 X84.552 Y69.072 E28.95675
G1 X85.421 Y66.516 E29.24832
G1 X85.521 Y66.358 E29.26851
G0 F7200 X85.8 Y66.645
G1 F1800 X88.235 Y64.28 E29.63511
G1 X91.007 Y63.375 E29.95004
G1 X115.008 Y63.375 E32.54215
G1 X117.502 Y64.223 E32.82664
G1 X119.867 Y66.658 E33.19325
G1 X120.772 Y69.43 E33.50817
G1 X120.772 Y93.086 E36.06302
G1 X120.398 Y94.804 E36.25291
G1 X119.416 Y96.414 E36.45658
G1 X117.472 Y98.3 E36.74911
G1 X114.711 Y99.195 E37.06257
G1 X91.061 Y99.195 E39.61677
G1 X89.343 Y98.821 E39.80666
G1 X87.733 Y97.839 E40.01033
G1 X85.847 Y95.895 E40.30285
G1 X84.952 Y93.134 E40.61631
G1 X84.952 Y69.139 E43.20777
G1 X85.8 Y66.645 E43.49227
G0 F7200 X86.148 Y66.865
G1 F1800 X88.448 Y64.631 E43.83856
G1 X91.07 Y63.775 E44.13644
G1 X114.941 Y63.775 E46.71451
G1 X117.282 Y64.571 E46.98155
G1 X119.516 Y66.871 E47.32784
G1 X120.372 Y69.493 E47.62573
G1 X120.372 Y93.042 E50.16902
G1 X120.021 Y94.655 E50.3473
G1 X119.103 Y96.16 E50.53769
G1 X117.26 Y97.948 E50.81501
G1 X114.647 Y98.795 E51.11167
G1 X91.105 Y98.795 E53.65421
G1 X89.492 Y98.444 E53.83249
G1 X87.987 Y97.526 E54.02288
G1 X86.199 Y95.683 E54.3002
G1 X85.352 Y93.07 E54.59686
G1 X85.352 Y69.206 E57.17417
G1 X86.148 Y66.865 E57.44122
G0 F7200 X86.496 Y67.085
G1 F1800 X88.661 Y64.982 E57.76719
G1 X91.133 Y64.175 E58.04803
G1 X114.874 Y64.175 E60.61206
G1 X117.062 Y64.919 E60.86165
G1 X119.165 Y67.084 E61.18762
G1 X119.972 Y69.556 E61.46846
G1 X119.972 Y92.998 E64.0002
G1 X119.644 Y94.506 E64.16687
G1 X118.79 Y95.906 E64.34398
G1 X117.048 Y97.596 E64.60611
G1 X114.583 Y98.395 E64.88596
G1 X91.149 Y98.395 E67.41683
G1 X89.641 Y98.067 E67.58351
G1 X88.241 Y97.213 E67.76062
G1 X86.551 Y95.471 E68.02274
G1 X85.752 Y93.006 E68.3026
G1 X85.752 Y69.273 E70.86576
G1 X86.496 Y67.085 E71.11535
G0 F7200 X86.844 Y67.305
G1 F1800 X88.874 Y65.333 E71.42101
G1 X91.196 Y64.575 E71.68481
G1 X114.807 Y64.575 E74.23479
G1 X116.842 Y65.267 E74.46693
G1 X118.814 Y67.297 E74.77259
G1 X119.572 Y69.619 E75.03639
G1 X119.572 Y92.954 E77.55657
G1 X119.267 Y94.357 E77.71163
G1 X118.477 Y95.652 E77.87546
G1 X116.836 Y97.244 E78.12239
G1 X114.519 Y97.995 E78.38544
G1 X91.193 Y97.995 E80.90465
G1 X89.79 Y97.69 E81.05971
G1 X88.495 Y96.9 E81.22354
G1 X86.903 Y95.259 E81.47047
G1 X86.152 Y92.942 E81.73352
G1 X86.152 Y69.34 E84.28253
G1 X86.844 Y67.305 E84.51467
G0 F7200 X87.192 Y67.525
G1 F1800 X89.087 Y65.684 E84.80001
G1 X91.259 Y64.975 E85.04677
G1 X114.74 Y64.975 E87.58272
G1 X116.622 Y65.615 E87.7974
G1 X118.463 Y67.51 E88.08274
G1 X119.172 Y69.682 E88.3295
G1 X119.172 Y92.91 E90.83812
G1 X118.89 Y94.208 E90.98158
G1 X118.164 Y95.398 E91.13213
G1 X116.624 Y96.892 E91.36385
G1 X114.455 Y97.595 E91.6101
G1 X91.237 Y97.595 E94.11765
G1 X89.939 Y97.313 E94.2611
G1 X88.749 Y96.587 E94.41165
G1 X87.255 Y95.047 E94.64338
G1 X86.552 Y92.878 E94.88963
G1 X86.552 Y69.407 E97.42449
G1 X87.192 Y67.525 E97.63918
G0 F7200 X87.54 Y67.745
G1 F1800 X89.3 Y66.035 E97.9042
G1 X91.322 Y65.375 E98.13392
G1 X114.673 Y65.375 E100.65583
G1 X116.402 Y65.963 E100.85306
G1 X118.112 Y67.723 E101.11808
G1 X118.772 Y69.745 E101.3478
G1 X118.772 Y92.866 E103.84487
G1 X118.513 Y94.059 E103.97671
G1 X117.851 Y95.144 E104.11398
G1 X116.412 Y96.54 E104.33051
G1 X114.391 Y97.195 E104.55995
G1 X91.281 Y97.195 E107.05583
G1 X90.088 Y96.936 E107.18768
G1 X89.003 Y96.274 E107.32495
G1 X87.607 Y94.835 E107.54147
G1 X86.952 Y92.814 E107.77092
G1 X86.952 Y69.474 E110.29164
G1 X87.54 Y67.745 E110.48887
G0 F7200 X87.888 Y67.965
G1 F1800 X89.513 Y66.386 E110.73358
G1 X91.385 Y65.775 E110.94625
G1 X114.606 Y65.775 E113.45412
G1 X116.182 Y66.311 E113.6339
G1 X117.761 Y67.936 E113.87861
G1 X118.372 Y69.808 E114.09128
G1 X118.372 Y92.822 E116.5768
G1 X118.136 Y93.91 E116.69703
G1 X117.538 Y94.89 E116.82102
G1 X116.2 Y96.188 E117.02235
G1 X114.327 Y96.795 E117.23499
G1 X91.325 Y96.795 E119.71921
G1 X90.237 Y96.559 E119.83944
G1 X89.257 Y95.961 E119.96343
G1 X87.959 Y94.623 E120.16476
G1 X87.352 Y92.75 E120.3774
G1 X87.352 Y69.541 E122.88397
G1 X87.888 Y67.965 E123.06376
G0 F7200 X88.236 Y68.185
G1 F1800 X89.726 Y66.737 E123.28815
G1 X91.448 Y66.175 E123.48378
G1 X114.539 Y66.175 E125.9776
G1 X115.962 Y66.659 E126.13993
G1 X117.41 Y68.149 E126.36433
G1 X117.972 Y69.871 E126.55996
G1 X117.972 Y92.778 E129.03391
G1 X117.759 Y93.759 E129.14233
G1 X117.223 Y94.638 E129.25352
G1 X115.987 Y95.837 E129.43949
G1 X114.266 Y96.395 E129.63489
G1 X91.369 Y96.395 E132.10776
G1 X90.388 Y96.182 E132.21618
G1 X89.509 Y95.646 E132.32737
G1 X88.31 Y94.41 E132.51335
G1 X87.752 Y92.689 E132.70874
G1 X87.752 Y69.608 E135.20149
G1 X88.236 Y68.185 E135.36382
G0 F7200 X88.584 Y68.405
G1 F1800 X89.939 Y67.088 E135.56789
G1 X91.511 Y66.575 E135.74648
G1 X114.472 Y66.575 E138.22627
G1 X115.742 Y67.007 E138.37115
G1 X117.059 Y68.362 E138.57522
G1 X117.572 Y69.934 E138.75381
G1 X117.572 Y92.734 E141.21621
G1 X117.382 Y93.608 E141.31281
G1 X116.908 Y94.386 E141.4112
G1 X115.774 Y95.486 E141.58182
G1 X114.205 Y95.995 E141.75997
G1 X91.413 Y95.995 E144.2215
G1 X90.539 Y95.805 E144.3181
G1 X89.761 Y95.331 E144.41649
G1 X88.661 Y94.197 E144.58711
G1 X88.152 Y92.628 E144.76526
G1 X88.152 Y69.675 E147.24418
G1 X88.584 Y68.405 E147.38906
G0 F7200 X88.932 Y68.625
G1 F1800 X90.152 Y67.439 E147.57282
G1 X91.574 Y66.975 E147.73437
G1 X114.405 Y66.975 E150.20011
G1 X115.522 Y67.355 E150.32754
G1 X116.708 Y68.575 E150.5113
G1 X117.172 Y69.997 E150.67284
G1 X117.172 Y92.69 E153.12369
G1 X117.005 Y93.457 E153.20846
G1 X116.591 Y94.137 E153.29444
G1 X115.562 Y95.135 E153.44926
G1 X114.144 Y95.595 E153.61026
G1 X91.457 Y95.595 E156.06046
G1 X90.69 Y95.428 E156.14523
G1 X90.01 Y95.014 E156.23121
G1 X89.012 Y93.985 E156.38603
G1 X88.552 Y92.567 E156.54703
G1 X88.552 Y69.742 E159.01213
G1 X88.932 Y68.625 E159.13955
G0 F7200 X89.28 Y68.845
G1 F1800 X90.365 Y67.79 E159.303
G1 X91.637 Y67.375 E159.4475
G1 X114.338 Y67.375 E161.89921
G1 X115.302 Y67.703 E162.00918
G1 X116.357 Y68.788 E162.17262
G1 X116.772 Y70.06 E162.31713
G1 X116.772 Y92.646 E164.75641
G1 X116.628 Y93.306 E164.82937
G1 X116.274 Y93.888 E164.90294
G1 X115.35 Y94.784 E165.04195
G1 X114.083 Y95.195 E165.1858
G1 X91.501 Y95.195 E167.62466
G1 X90.841 Y95.051 E167.69761
G1 X90.259 Y94.697 E167.77118
G1 X89.363 Y93.773 E167.91019
G1 X88.952 Y92.506 E168.05405
G1 X88.952 Y69.809 E170.50532
G1 X89.28 Y68.845 E170.61529
G0 F7200 X89.628 Y69.065
G1 F1800 X90.578 Y68.141 E170.75842
G1 X91.7 Y67.775 E170.88588
G1 X114.271 Y67.775 E173.32355
G1 X115.082 Y68.051 E173.41607
G1 X116.006 Y69.001 E173.5592
G1 X116.372 Y70.123 E173.68666
G1 X116.372 Y92.602 E176.11439
G1 X116.251 Y93.155 E176.17553
G1 X115.957 Y93.639 E176.23669
G1 X115.138 Y94.433 E176.35988
G1 X114.022 Y94.795 E176.48659
G1 X91.545 Y94.795 E178.91411
G1 X90.992 Y94.674 E178.97525
G1 X90.508 Y94.38 E179.03641
G1 X89.714 Y93.561 E179.1596
G1 X89.352 Y92.445 E179.28631
G1 X89.352 Y69.876 E181.72376
G1 X89.628 Y69.065 E181.81628
G0 F7200 X89.976 Y69.285
G1 F1800 X90.791 Y68.492 E181.93909
G1 X91.763 Y68.175 E182.04951
G1 X114.204 Y68.175 E184.47314
G1 X114.862 Y68.399 E184.54821
G1 X115.655 Y69.214 E184.67102
G1 X115.972 Y70.186 E184.78144
G1 X115.972 Y92.602 E187.20237
G1 X115.862 Y93.062 E187.25345
G1 X115.679 Y93.352 E187.29048
G1 X114.927 Y94.081 E187.40359
G1 X113.96 Y94.395 E187.5134
G1 X91.545 Y94.395 E189.93422
G1 X91.085 Y94.285 E189.9853
G1 X90.795 Y94.102 E190.02233
G1 X90.066 Y93.35 E190.13545
G1 X89.752 Y92.383 E190.24525
G1 X89.752 Y69.943 E192.66877
G1 X89.976 Y69.285 E192.74384
G0 F7200 X90.324 Y69.505
G1 F1800 X91.004 Y68.843 E192.84634
G1 X91.826 Y68.575 E192.93971
G1 X114.137 Y68.575 E195.3493
G1 X114.642 Y68.747 E195.40692
G1 X115.304 Y69.427 E195.50941
G1 X115.572 Y70.249 E195.60278
G1 X115.572 Y92.562 E198.01259
G1 X115.513 Y92.866 E198.04603
G1 X115.401 Y93.065 E198.0707
G1 X114.716 Y93.729 E198.17373
G1 X113.898 Y93.995 E198.26663
G1 X91.585 Y93.995 E200.67643
G1 X91.281 Y93.936 E200.70987
G1 X91.082 Y93.824 E200.73454
G1 X90.418 Y93.139 E200.83757
G1 X90.152 Y92.321 E200.93047
G1 X90.152 Y70.01 E203.34005
G1 X90.324 Y69.505 E203.39767
G0 F7200 X90.603 Y69.792
G1 F1800 X91.217 Y69.194 E203.49024
G1 X91.889 Y68.975 E203.56657
G1 X114.137 Y68.975 E205.96935
G1 X114.355 Y69.026 E205.99353
G1 X114.953 Y69.64 E206.0861
G1 X115.172 Y70.312 E206.16243
G1 X115.172 Y92.562 E208.56543
G1 X115.123 Y92.778 E208.58935
G1 X114.505 Y93.377 E208.6823
G1 X113.835 Y93.595 E208.7584
G1 X91.585 Y93.595 E211.1614
G1 X91.369 Y93.546 E211.18532
G1 X90.77 Y92.928 E211.27827
G1 X90.552 Y92.258 E211.35436
G1 X90.552 Y70.01 E213.75715
G1 X90.603 Y69.792 E213.78133
G0 F7200 X90.952 Y70.01
G1 F1800 X91.43 Y69.545 E213.85335
G1 X91.952 Y69.375 E213.91264
G1 X114.137 Y69.375 E216.30862
G1 X114.602 Y69.853 E216.38064
G1 X114.772 Y70.375 E216.43993
G1 X114.772 Y92.562 E218.83612
G1 X114.294 Y93.025 E218.908
G1 X113.772 Y93.195 E218.96729
G1 X91.585 Y93.195 E221.36348
G1 X91.122 Y92.717 E221.43535
G1 X90.952 Y92.195 E221.49464
G1 X90.952 Y70.01 E223.89062
G0 F7200 X91.752 Y70.276
G1 F1800 X91.952 Y70.175 E223.91482
G1 X113.871 Y70.175 E226.28207
G1 X113.972 Y70.375 E226.30627
G1 X113.972 Y92.294 E228.67352
G1 X113.772 Y92.395 E228.69772
G1 X91.853 Y92.395 E231.06497
G1 X91.752 Y92.195 E231.08917
G1 X91.752 Y70.276 E233.45642
G0 F7200 X91.352 Y70.144
G1 F1800 X91.572 Y69.919 E233.49041
G1 X91.952 Y69.775 E233.5343
G1 X114.003 Y69.775 E235.91581
G1 X114.228 Y69.995 E235.94979
G1 X114.372 Y70.375 E235.99368
G1 X114.372 Y92.427 E238.37529
G1 X114.152 Y92.651 E238.4092
G1 X113.772 Y92.795 E238.45309
G1 X91.72 Y92.795 E240.83471
G1 X91.496 Y92.575 E240.86862
G1 X91.352 Y92.195 E240.9125
G1 X91.352 Y70.144 E243.29401
G10
;MESH:Body1.3mf
G0 F7200 X92.764 Y70.795
G0 X112.897 Y91.579
;TYPE:WALL-OUTER
G11
G1 F1747 X92.821 Y91.58 E245.74463
G1 F1572.2 X92.634 Y91.538 E245.77036
G1 F1564.5 X92.568 Y91.32 E245.80107
G1 F1747 X92.567 Y71.244 E248.25169
G1 F1572.2 X92.609 Y71.057 E248.27742
G1 F1564.5 X92.827 Y70.991 E248.30813
G1 F1747 X112.903 Y70.99 E250.75875
G1 F1572.2 X113.09 Y71.032 E250.78447
G1 F1545.5 X113.157 Y71.218 E250.81143
G1 F1670.5 X113.157 Y76.289 E251.45603
G1 F1632.4 X113.157 Y81.36 E252.11419
G1 F1599.8 X113.157 Y86.431 E252.7844
G1 F1564.5 X113.156 Y91.502 E253.46816
G1 F1636.5 X112.897 Y91.579 E253.50315
G0 F7200 X112.697 Y91.579
G0 X112.932 Y91.989
G1 F1564.5 X113.525 Y91.948 E253.5833
G1 X113.566 Y91.397 E253.6578
G1 F1747 X113.567 Y71.286 E256.11269
G1 F1572.2 X113.525 Y70.622 E256.20201
G1 X112.903 Y70.58 E256.2857
G1 F1747 X92.792 Y70.581 E258.74059
G1 F1564.5 X92.199 Y70.622 E258.82074
G1 F1572.2 X92.157 Y71.244 E258.90443
G1 F1747 X92.158 Y91.355 E261.35932
G1 F1564.5 X92.199 Y91.948 E261.43947
G1 F1572.2 X92.821 Y91.99 E261.52316
G1 F1747 X112.932 Y91.989 E263.97805
G0 F7200 X113.131 Y91.976
;MESH:NONMESH
G0 F600 X113.131 Y91.976 Z0.37
G0 F7200 X112.915 Y91.539
;TIME_ELAPSED:85.273813
;LAYER:1
M106 S255
;TYPE:WALL-OUTER
;MESH:Body1.3mf
G1 F1429.8 X92.852 Y91.54 E264.96515
G1 F1369.9 X92.608 Y91.49 E264.97787
G1 F1322.8 X92.608 Y87.447 E265.19094
G1 F1346 X92.608 Y83.404 E265.40077
G1 F1369.9 X92.608 Y79.361 E265.60737
G1 F1397.7 X92.608 Y75.318 E265.81033
G1 F1423.2 X92.607 Y71.275 E266.01005
G1 F1369.9 X92.657 Y71.031 E266.02278
G1 F1322.8 X96.7 Y71.031 E266.23584
G1 F1346 X100.743 Y71.031 E266.44568
G1 F1369.9 X104.786 Y71.031 E266.65227
G1 F1397.7 X108.829 Y71.031 E266.85523
G1 F1423.2 X112.872 Y71.03 E267.05496
G1 F1436.3 X113.117 Y71.275 E267.07193
G1 F1423.2 X113.117 Y75.317 E267.27161
G1 F1397.7 X113.117 Y79.359 E267.47452
G1 F1369.9 X113.117 Y83.401 E267.68106
G1 F1346 X113.117 Y87.443 E267.89084
G1 F1322.8 X113.117 Y91.485 E268.10386
G1 F1363.9 X112.915 Y91.539 E268.11458
G0 F7200 X112.715 Y91.539
G0 X112.957 Y92.028
G1 F1303.1 X113.565 Y91.988 E268.14712
G1 F1305.9 X113.606 Y91.38 E268.1796
G1 F1433 X113.607 Y71.275 E269.16676
G1 F1599.8 X113.652 Y70.495 E269.20152
G1 X112.872 Y70.54 E269.23629
G1 F1429.8 X92.767 Y70.542 E270.22546
G1 F1303.1 X92.159 Y70.582 E270.258
G1 F1308.7 X92.117 Y71.275 E270.29493
G1 F1429.8 X92.119 Y91.38 E271.2841
G1 F1303.1 X92.159 Y91.988 E271.31663
G1 F1308.7 X92.852 Y92.03 E271.35357
G1 F1429.8 X112.957 Y92.028 E272.34274
G0 F7200 X113.156 Y92.015
G10
G0 X113.156 Y91.775
G0 X113.342 Y70.805
G0 X113.321 Y70.869
;TYPE:WALL-INNER
G11
G1 F2445.2 X113.235 Y70.869 E272.34573
G1 X113.299 Y70.832 E272.3483
G10
;MESH:NONMESH
G0 F600 X113.299 Y70.832 Z0.47
G0 F7200 X113.342 Y70.805
G0 X113.3 Y91.723
G0 X112.915 Y91.539
;TIME_ELAPSED:93.762375
;LAYER:2
;TYPE:WALL-OUTER
;MESH:Body1.3mf
G11
G1 F1429.8 X92.852 Y91.54 E273.3354
G1 F1369.9 X92.608 Y91.49 E273.34813
G1 F1322.8 X92.608 Y87.447 E273.56119
G1 F1346 X92.608 Y83.404 E273.77103
G1 F1369.9 X92.608 Y79.361 E273.97762
G1 F1397.7 X92.608 Y75.318 E274.18058
G1 F1423.2 X92.607 Y71.275 E274.38031
G1 F1369.9 X92.657 Y71.031 E274.39303
G1 F1322.8 X96.7 Y71.031 E274.6061
G1 F1346 X100.743 Y71.031 E274.81593
G1 F1369.9 X104.786 Y71.031 E275.02253
G1 F1397.7 X108.829 Y71.031 E275.22549
G1 F1423.2 X112.872 Y71.03 E275.42521
G1 F1436.3 X113.117 Y71.275 E275.44219
G1 F1423.2 X113.117 Y75.317 E275.64186
G1 F1397.7 X113.117 Y79.359 E275.84477
G1 F1369.9 X113.117 Y83.401 E276.05132
G1 F1346 X113.117 Y87.443 E276.2611
G1 F1322.8 X113.117 Y91.485 E276.47411
G1 F1363.9 X112.915 Y91.539 E276.48484
G0 F7200 X112.715 Y91.539
G0 X112.957 Y92.028
G1 F1303.1 X113.565 Y91.988 E276.51737
G1 F1305.9 X113.606 Y91.38 E276.54985
G1 F1433 X113.607 Y71.275 E277.53701
G1 F1599.8 X113.652 Y70.495 E277.57178
G1 X112.872 Y70.54 E277.60655
G1 F1429.8 X92.767 Y70.542 E278.59571
G1 F1303.1 X92.159 Y70.582 E278.62825
G1 F1308.7 X92.117 Y71.275 E278.66518
G1 F1429.8 X92.119 Y91.38 E279.65435
G1 F1303.1 X92.159 Y91.988 E279.68689
G1 F1308.7 X92.852 Y92.03 E279.72382
G1 F1429.8 X112.957 Y92.028 E280.71299
G0 F7200 X113.156 Y92.015
G10
G0 X113.156 Y91.775
G0 X113.342 Y70.805
G0 X113.321 Y70.869
;TYPE:WALL-INNER
G11
G1 F2794.5 X113.235 Y70.869 E280.71598
G1 X113.299 Y70.832 E280.71855
G10
;MESH:NONMESH
G0 F600 X113.299 Y70.832 Z0.57
G0 F7200 X113.342 Y70.805
G0 X113.3 Y91.723
G0 X112.915 Y91.539
;TIME_ELAPSED:102.250564
;LAYER:3
;TYPE:WALL-OUTER
;MESH:Body1.3mf
G11
G1 F1429.8 X92.852 Y91.54 E281.70565
G1 F1369.9 X92.608 Y91.49 E281.71838
G1 F1322.8 X92.608 Y87.447 E281.93145
G1 F1346 X92.608 Y83.404 E282.14128
G1 F1369.9 X92.608 Y79.361 E282.34788
G1 F1397.7 X92.608 Y75.318 E282.55084
G1 F1423.2 X92.607 Y71.275 E282.75056
G1 F1369.9 X92.657 Y71.031 E282.76329
G1 F1322.8 X96.7 Y71.031 E282.97635
G1 F1346 X100.743 Y71.031 E283.18618
