;FLAVOR:UltiGCode
;TIME:16522
;MATERIAL:34272
;MATERIAL2:0
;NOZZLE_DIAMETER:0.4
;MINX:28.795
;MINY:53.795
;MINZ:0.27
;MAXX:194.205
;MAXY:169.205
;MAXZ:5.07
;TARGET_MACHINE.NAME:Ultimaker 2+
;Generated with Cura_SteamEngine 5.6.0
M82 ;absolute extrusion mode
G0 F3000 Y50 ;avoid prime blob
G92 E0
G92 E0
G10
;LAYER_COUNT:33
;LAYER:0
M107
G0 F9000 X32.452 Y54.798 Z0.27
;TYPE:SKIRT
G11
G1 F1800 X35.524 Y53.795 E0.34901
G1 X187.775 Y53.795 E16.79212
G1 X190.393 Y54.685 E17.09076
G1 X190.709 Y54.885 E17.13114
G1 X193.202 Y57.452 E17.51761
G1 X194.205 Y60.524 E17.86662
G1 X194.205 Y162.384 E28.8675
G1 X193.785 Y164.312 E29.08061
G1 X192.675 Y166.132 E29.31084
G1 X190.529 Y168.214 E29.63376
G1 X187.472 Y169.205 E29.98083
G1 X35.616 Y169.205 E46.38128
G1 X33.688 Y168.785 E46.59438
G1 X31.868 Y167.675 E46.82462
G1 X29.786 Y165.529 E47.14753
G1 X28.795 Y162.472 E47.4946
G1 X28.795 Y60.225 E58.53728
G1 X29.685 Y57.607 E58.83592
G1 X29.885 Y57.291 E58.87631
G1 X32.452 Y54.798 E59.26277
G0 F9000 X32.665 Y55.149
G1 F1800 X35.587 Y54.195 E59.59474
G1 X187.708 Y54.195 E76.0238
G1 X190.264 Y55.064 E76.31537
G1 X190.422 Y55.164 E76.33556
G1 X192.851 Y57.665 E76.7121
G1 X193.805 Y60.587 E77.04407
G1 X193.805 Y162.34 E88.03339
G1 X193.408 Y164.163 E88.23489
G1 X192.362 Y165.878 E88.45184
G1 X190.317 Y167.862 E88.75956
G1 X187.408 Y168.805 E89.08983
G1 X35.66 Y168.805 E105.47861
G1 X33.837 Y168.408 E105.68011
G1 X32.122 Y167.362 E105.89706
G1 X30.138 Y165.317 E106.20478
G1 X29.195 Y162.408 E106.53505
G1 X29.195 Y60.292 E117.56358
G1 X30.064 Y57.736 E117.85514
G1 X30.164 Y57.578 E117.87534
G1 X32.665 Y55.149 E118.25187
G0 F9000 X32.878 Y55.5
G1 F1800 X35.65 Y54.595 E118.5668
G1 X187.641 Y54.595 E134.98183
G1 X190.135 Y55.443 E135.26632
G1 X192.5 Y57.878 E135.63292
G1 X193.405 Y60.65 E135.94785
G1 X193.405 Y162.296 E146.92562
G1 X193.031 Y164.014 E147.11551
G1 X192.049 Y165.624 E147.31918
G1 X190.105 Y167.51 E147.6117
G1 X187.344 Y168.405 E147.92517
G1 X35.704 Y168.405 E164.30229
G1 X33.986 Y168.031 E164.49218
G1 X32.376 Y167.049 E164.69585
G1 X30.49 Y165.105 E164.98837
G1 X29.595 Y162.344 E165.30183
G1 X29.595 Y60.359 E176.31621
G1 X30.443 Y57.865 E176.60071
G1 X32.878 Y55.5 E176.96731
G0 F9000 X33.091 Y55.851
G1 F1800 X35.713 Y54.995 E177.2652
G1 X187.574 Y54.995 E193.66618
G1 X189.915 Y55.791 E193.93323
G1 X192.149 Y58.091 E194.27951
G1 X193.005 Y60.713 E194.5774
G1 X193.005 Y162.252 E205.54361
G1 X192.654 Y163.865 E205.72189
G1 X191.736 Y165.37 E205.91228
G1 X189.893 Y167.158 E206.18961
G1 X187.28 Y168.005 E206.48627
G1 X35.748 Y168.005 E222.85172
G1 X34.135 Y167.654 E223.03
G1 X32.63 Y166.736 E223.22039
G1 X30.842 Y164.893 E223.49772
G1 X29.995 Y162.28 E223.79438
G1 X29.995 Y60.426 E234.79461
G1 X30.791 Y58.085 E235.06165
G1 X33.091 Y55.851 E235.40794
G0 F9000 X33.304 Y56.202
G1 F1800 X35.776 Y55.395 E235.68878
G1 X187.507 Y55.395 E252.07573
G1 X189.695 Y56.139 E252.32532
G1 X191.798 Y58.304 E252.65129
G1 X192.605 Y60.776 E252.93213
G1 X192.605 Y162.208 E263.88679
G1 X192.277 Y163.716 E264.05346
G1 X191.423 Y165.116 E264.23057
G1 X189.681 Y166.806 E264.4927
G1 X187.216 Y167.605 E264.77255
G1 X35.792 Y167.605 E281.12634
G1 X34.284 Y167.277 E281.29302
G1 X32.884 Y166.423 E281.47013
G1 X31.194 Y164.681 E281.73225
G1 X30.395 Y162.216 E282.01211
G1 X30.395 Y60.493 E292.99819
G1 X31.139 Y58.305 E293.24778
G1 X33.304 Y56.202 E293.57375
G0 F9000 X33.517 Y56.553
G1 F1800 X35.839 Y55.795 E293.83755
G1 X187.44 Y55.795 E310.21046
G1 X189.475 Y56.487 E310.4426
G1 X191.447 Y58.517 E310.74825
G1 X192.205 Y60.839 E311.01205
G1 X192.205 Y162.164 E321.95515
G1 X191.9 Y163.567 E322.11022
G1 X191.11 Y164.862 E322.27405
G1 X189.469 Y166.454 E322.52097
G1 X187.152 Y167.205 E322.78402
G1 X35.836 Y167.205 E339.12615
G1 X34.433 Y166.9 E339.28122
G1 X33.138 Y166.11 E339.44505
G1 X31.546 Y164.469 E339.69197
G1 X30.795 Y162.152 E339.95502
G1 X30.795 Y60.56 E350.92696
G1 X31.487 Y58.525 E351.1591
G1 X33.517 Y56.553 E351.46475
G0 F9000 X33.73 Y56.904
G1 F1800 X35.902 Y56.195 E351.71151
G1 X187.373 Y56.195 E368.07038
G1 X189.255 Y56.835 E368.28507
G1 X191.096 Y58.73 E368.5704
G1 X191.805 Y60.902 E368.81716
G1 X191.805 Y162.12 E379.74871
G1 X191.523 Y163.418 E379.89216
G1 X190.797 Y164.608 E380.04271
G1 X189.257 Y166.102 E380.27444
G1 X187.088 Y166.805 E380.52068
G1 X35.88 Y166.805 E396.85115
G1 X34.582 Y166.523 E396.9946
G1 X33.392 Y165.797 E397.14515
G1 X31.898 Y164.257 E397.37688
G1 X31.195 Y162.088 E397.62313
G1 X31.195 Y60.627 E408.58091
G1 X31.835 Y58.745 E408.7956
G1 X33.73 Y56.904 E409.08094
G0 F9000 X33.943 Y57.255
G1 F1800 X35.965 Y56.595 E409.31066
G1 X187.306 Y56.595 E425.65548
G1 X189.035 Y57.183 E425.85272
G1 X190.745 Y58.943 E426.11774
G1 X191.405 Y60.965 E426.34746
G1 X191.405 Y162.076 E437.26744
G1 X191.146 Y163.269 E437.39929
G1 X190.484 Y164.354 E437.53656
G1 X189.045 Y165.75 E437.75309
G1 X187.024 Y166.405 E437.98253
G1 X35.924 Y166.405 E454.30133
G1 X34.731 Y166.146 E454.43318
G1 X33.646 Y165.484 E454.57045
G1 X32.25 Y164.045 E454.78697
G1 X31.595 Y162.024 E455.01642
G1 X31.595 Y60.694 E465.96006
G1 X32.183 Y58.965 E466.15729
G1 X33.943 Y57.255 E466.42231
G0 F9000 X34.156 Y57.606
G1 F1800 X36.028 Y56.995 E466.63499
G1 X187.239 Y56.995 E482.96578
G1 X188.815 Y57.531 E483.14556
G1 X190.394 Y59.156 E483.39026
G1 X191.005 Y61.028 E483.60294
G1 X191.005 Y162.032 E494.51137
G1 X190.769 Y163.12 E494.63161
G1 X190.171 Y164.1 E494.75559
G1 X188.833 Y165.398 E494.95692
G1 X186.96 Y166.005 E495.16956
G1 X35.968 Y166.005 E511.4767
G1 X34.88 Y165.769 E511.59694
G1 X33.9 Y165.171 E511.72093
G1 X32.602 Y163.833 E511.92225
G1 X31.995 Y161.96 E512.13489
G1 X31.995 Y60.761 E523.06439
G1 X32.531 Y59.185 E523.24417
G1 X34.156 Y57.606 E523.48888
G0 F9000 X34.369 Y57.957
G1 F1800 X36.091 Y57.395 E523.68451
G1 X187.172 Y57.395 E540.00125
G1 X188.595 Y57.879 E540.16358
G1 X190.043 Y59.369 E540.38797
G1 X190.605 Y61.091 E540.5836
G1 X190.605 Y161.988 E551.48048
G1 X190.392 Y162.969 E551.5889
G1 X189.856 Y163.848 E551.70009
G1 X188.62 Y165.047 E551.88606
G1 X186.899 Y165.605 E552.08146
G1 X36.012 Y165.605 E568.37725
G1 X35.031 Y165.392 E568.48567
G1 X34.152 Y164.856 E568.59686
G1 X32.953 Y163.62 E568.78284
G1 X32.395 Y161.899 E568.97823
G1 X32.395 Y60.828 E579.8939
G1 X32.879 Y59.405 E580.05623
G1 X34.369 Y57.957 E580.28062
G0 F9000 X34.582 Y58.308
G1 F1800 X36.154 Y57.795 E580.45921
G1 X187.105 Y57.795 E596.76191
G1 X188.375 Y58.227 E596.90679
G1 X189.692 Y59.582 E597.11087
G1 X190.205 Y61.154 E597.28945
G1 X190.205 Y161.944 E608.17477
G1 X190.015 Y162.818 E608.27137
G1 X189.541 Y163.596 E608.36976
G1 X188.407 Y164.696 E608.54039
G1 X186.838 Y165.205 E608.71853
G1 X36.056 Y165.205 E625.00299
G1 X35.182 Y165.015 E625.09958
G1 X34.404 Y164.541 E625.19797
G1 X33.304 Y163.407 E625.3686
G1 X32.795 Y161.838 E625.54675
G1 X32.795 Y60.895 E636.44859
G1 X33.227 Y59.625 E636.59347
G1 X34.582 Y58.308 E636.79754
G0 F9000 X34.795 Y58.659
G1 F1800 X36.217 Y58.195 E636.95909
G1 X187.038 Y58.195 E653.24775
G1 X188.155 Y58.575 E653.37518
G1 X189.341 Y59.795 E653.55894
G1 X189.805 Y61.217 E653.72048
G1 X189.805 Y161.9 E664.59425
G1 X189.638 Y162.667 E664.67903
G1 X189.224 Y163.347 E664.76501
G1 X188.195 Y164.345 E664.91982
G1 X186.777 Y164.805 E665.08082
G1 X36.1 Y164.805 E681.35394
G1 X35.333 Y164.638 E681.43871
G1 X34.653 Y164.224 E681.52469
G1 X33.655 Y163.195 E681.67951
G1 X33.195 Y161.777 E681.84051
G1 X33.195 Y60.962 E692.72853
G1 X33.575 Y59.845 E692.85596
G1 X34.795 Y58.659 E693.03971
G0 F9000 X35.008 Y59.01
G1 F1800 X36.28 Y58.595 E693.18422
G1 X186.971 Y58.595 E709.45884
G1 X187.935 Y58.923 E709.56882
G1 X188.99 Y60.008 E709.73226
G1 X189.405 Y61.28 E709.87676
G1 X189.405 Y161.856 E720.73897
G1 X189.261 Y162.516 E720.81193
G1 X188.907 Y163.098 E720.8855
G1 X187.983 Y163.994 E721.0245
G1 X186.716 Y164.405 E721.16836
G1 X36.144 Y164.405 E737.43013
G1 X35.484 Y164.261 E737.50309
G1 X34.902 Y163.907 E737.57666
G1 X34.006 Y162.983 E737.71567
G1 X33.595 Y161.716 E737.85952
G1 X33.595 Y61.029 E748.73372
G1 X33.923 Y60.065 E748.84369
G1 X35.008 Y59.01 E749.00713
G0 F9000 X35.221 Y59.361
G1 F1800 X36.343 Y58.995 E749.13459
G1 X186.904 Y58.995 E765.39518
G1 X187.715 Y59.271 E765.4877
G1 X188.639 Y60.221 E765.63083
G1 X189.005 Y61.343 E765.75829
G1 X189.005 Y161.812 E776.60894
G1 X188.884 Y162.365 E776.67008
G1 X188.59 Y162.849 E776.73124
G1 X187.771 Y163.643 E776.85444
G1 X186.655 Y164.005 E776.98115
G1 X36.188 Y164.005 E793.23158
G1 X35.635 Y163.884 E793.29272
G1 X35.151 Y163.59 E793.35388
G1 X34.357 Y162.771 E793.47707
G1 X33.995 Y161.655 E793.60378
G1 X33.995 Y61.096 E804.46416
G1 X34.271 Y60.285 E804.55668
G1 X35.221 Y59.361 E804.6998
G0 F9000 X35.434 Y59.712
G1 F1800 X36.406 Y59.395 E804.81022
G1 X186.837 Y59.395 E821.05677
G1 X187.495 Y59.619 E821.13184
G1 X188.288 Y60.434 E821.25465
G1 X188.605 Y61.406 E821.36507
G1 X188.605 Y161.812 E832.20892
G1 X188.495 Y162.272 E832.26
G1 X188.312 Y162.562 E832.29703
G1 X187.56 Y163.291 E832.41014
G1 X186.593 Y163.605 E832.51995
G1 X36.188 Y163.605 E848.76369
G1 X35.728 Y163.495 E848.81477
G1 X35.438 Y163.312 E848.8518
G1 X34.709 Y162.56 E848.96492
G1 X34.395 Y161.593 E849.07472
G1 X34.395 Y61.163 E859.92116
G1 X34.619 Y60.505 E859.99623
G1 X35.434 Y59.712 E860.11904
G0 F9000 X35.647 Y60.063
G1 F1800 X36.469 Y59.795 E860.21242
G1 X186.77 Y59.795 E876.44492
G1 X187.275 Y59.967 E876.50254
G1 X187.937 Y60.647 E876.60504
G1 X188.205 Y61.469 E876.69841
G1 X188.205 Y161.772 E887.53113
G1 X188.146 Y162.076 E887.56458
G1 X188.034 Y162.275 E887.58924
G1 X187.349 Y162.939 E887.69227
G1 X186.531 Y163.205 E887.78517
G1 X36.228 Y163.205 E904.0179
G1 X35.924 Y163.146 E904.05134
G1 X35.725 Y163.034 E904.076
G1 X35.061 Y162.349 E904.17903
G1 X34.795 Y161.531 E904.27193
G1 X34.795 Y61.23 E915.10444
G1 X34.967 Y60.725 E915.16206
G1 X35.647 Y60.063 E915.26455
G0 F9000 X35.86 Y60.414
G1 F1800 X36.532 Y60.195 E915.34088
G1 X186.77 Y60.195 E931.56659
G1 X186.988 Y60.246 E931.59077
G1 X187.586 Y60.86 E931.68333
G1 X187.805 Y61.532 E931.75967
G1 X187.805 Y161.772 E942.58559
G1 X187.756 Y161.988 E942.60951
G1 X187.138 Y162.587 E942.70246
G1 X186.468 Y162.805 E942.77855
G1 X36.228 Y162.805 E959.00447
G1 X36.012 Y162.756 E959.02839
G1 X35.413 Y162.138 E959.12134
G1 X35.195 Y161.468 E959.19744
G1 X35.195 Y61.23 E970.02314
G1 X35.246 Y61.012 E970.04732
G1 X35.86 Y60.414 E970.13989
G0 F9000 X36.073 Y60.765
G1 F1800 X36.595 Y60.595 E970.19918
G1 X186.77 Y60.595 E986.41808
G1 X187.235 Y61.073 E986.4901
G1 X187.405 Y61.595 E986.54939
G1 X187.405 Y161.772 E997.3685
G1 X186.927 Y162.235 E997.44037
G1 X186.405 Y162.405 E997.49966
G1 X36.228 Y162.405 E1013.71878
G1 X35.765 Y161.927 E1013.79065
G1 X35.595 Y161.405 E1013.84994
G1 X35.595 Y61.23 E1024.66884
G1 X36.073 Y60.765 E1024.74086
G0 F9000 X36.395 Y61.496
G1 F1800 X36.595 Y61.395 E1024.76506
G1 X186.504 Y61.395 E1040.95523
G1 X186.605 Y61.595 E1040.97943
G1 X186.605 Y161.504 E1051.7696
G1 X186.405 Y161.605 E1051.7938
G1 X36.496 Y161.605 E1067.98397
G1 X36.395 Y161.405 E1068.00817
G1 X36.395 Y61.496 E1078.79834
G0 F9000 X36.215 Y61.139
G1 F1800 X36.595 Y60.995 E1078.84223
G1 X186.636 Y60.995 E1095.04666
G1 X186.861 Y61.215 E1095.08065
G1 X187.005 Y61.595 E1095.12453
G1 X187.005 Y161.637 E1105.92907
G1 X186.785 Y161.861 E1105.96298
G1 X186.405 Y162.005 E1106.00687
G1 X36.363 Y162.005 E1122.2114
G1 X36.139 Y161.785 E1122.24531
G1 X35.995 Y161.405 E1122.2892
G1 X35.995 Y61.364 E1133.09363
G1 X36.215 Y61.139 E1133.12761
G10
;MESH:Body1.stl
G0 F9000 X41.062 Y82.113
G0 X46.788 Y111.655
;TYPE:WALL-OUTER
G11
G1 F1800 X46.276 Y111.791 E1133.19055
G1 X43.201 Y111.788 E1133.55586
G1 X42.368 Y111.497 E1133.66068
G1 X41.753 Y110.993 E1133.75514
G1 X41.336 Y110.263 E1133.85502
G1 X41.21 Y109.793 E1133.91283
G1 X41.21 Y83.166 E1137.07612
G1 X41.505 Y82.362 E1137.17786
G1 X42.007 Y81.753 E1137.27162
G1 X42.737 Y81.336 E1137.37149
G1 X43.185 Y81.215 E1137.42662
G1 X46.304 Y81.213 E1137.79716
G1 X47.141 Y81.508 E1137.90259
G1 X47.746 Y82.011 E1137.99606
G1 X48.149 Y82.699 E1138.09079
G1 X48.29 Y83.208 E1138.15353
G1 X48.292 Y105.827 E1140.84067
G1 X48.285 Y109.845 E1141.31801
G1 X47.993 Y110.638 E1141.4184
G1 X47.498 Y111.238 E1141.51081
G1 X46.788 Y111.655 E1141.60863
G0 F9000 X46.595 Y111.706
G10
G0 X46.674 Y111.998
G0 X51.076 Y132.471
G0 X53.124 Y139.65
G11
G1 F1800 X52.159 Y139.984 E1141.72994
G1 X51.144 Y140.026 E1141.85063
G1 X50.607 Y139.931 E1141.91541
G1 X49.67 Y139.536 E1142.03622
G1 X48.876 Y138.884 E1142.15827
G1 X48.29 Y138.006 E1142.28367
G1 X48.106 Y137.523 E1142.34508
G1 X47.955 Y136.484 E1142.46981
G1 X47.993 Y135.979 E1142.52997
G1 X48.284 Y135.009 E1142.65028
G1 X48.857 Y134.135 E1142.77444
G1 X49.247 Y133.767 E1142.83814
G1 X50.09 Y133.248 E1142.95575
G1 X51.118 Y132.975 E1143.08211
G1 X52.157 Y133.016 E1143.20563
G1 X53.104 Y133.339 E1143.3245
G1 X53.937 Y133.925 E1143.4455
G1 X54.602 Y134.783 E1143.57446
G1 X54.965 Y135.746 E1143.69672
G1 X55.038 Y136.749 E1143.81619
G1 X54.811 Y137.77 E1143.94045
G1 X54.599 Y138.222 E1143.99976
G1 X53.955 Y139.057 E1144.12503
G1 X53.124 Y139.65 E1144.24631
G0 F9000 X52.935 Y139.715
G10
G0 X53.032 Y140.003
G0 X55.021 Y138.5
G0 X67.865 Y138.271
G0 X73.124 Y139.65
G11
G1 F1800 X72.159 Y139.984 E1144.36763
G1 X71.144 Y140.026 E1144.48831
G1 X70.611 Y139.932 E1144.55261
G1 X69.673 Y139.537 E1144.67352
G1 X68.861 Y138.867 E1144.79859
G1 X68.295 Y138.016 E1144.92001
G1 X68.109 Y137.533 E1144.98149
G1 X67.955 Y136.511 E1145.10428
G1 X67.991 Y135.994 E1145.16585
G1 X68.289 Y134.999 E1145.28924
G1 X68.855 Y134.137 E1145.41175
G1 X69.233 Y133.776 E1145.47384
G1 X70.09 Y133.248 E1145.59343
G1 X71.119 Y132.975 E1145.7199
G1 X72.176 Y133.02 E1145.84559
G1 X73.135 Y133.357 E1145.96635
G1 X73.956 Y133.943 E1146.08618
G1 X74.594 Y134.768 E1146.21008
G1 X74.963 Y135.736 E1146.33315
G1 X75.036 Y136.753 E1146.45428
G1 X74.815 Y137.757 E1146.57641
G1 X74.595 Y138.23 E1146.63838
G1 X73.959 Y139.054 E1146.76204
G1 X73.124 Y139.65 E1146.88391
G0 F9000 X72.935 Y139.715
G10
G0 X73.032 Y140.003
G0 X75.027 Y138.488
G0 X147.842 Y138.241
G0 X149.673 Y139.537
G11
G1 F1800 X148.881 Y138.889 E1147.00548
G1 X148.291 Y138.009 E1147.13135
G1 X148.109 Y137.535 E1147.19167
G1 X147.955 Y136.516 E1147.3141
G1 X147.995 Y135.971 E1147.37902
G1 X148.285 Y135.007 E1147.49862
G1 X148.872 Y134.119 E1147.62508
G1 X149.243 Y133.769 E1147.68567
G1 X150.103 Y133.242 E1147.80549
G1 X151.128 Y132.974 E1147.93136
G1 X152.164 Y133.017 E1148.05454
G1 X153.11 Y133.342 E1148.17337
G1 X153.937 Y133.925 E1148.29358
G1 X154.602 Y134.783 E1148.42254
G1 X154.965 Y135.746 E1148.5448
G1 X155.038 Y136.749 E1148.66427
G1 X154.811 Y137.77 E1148.78853
G1 X154.599 Y138.222 E1148.84784
G1 X153.955 Y139.057 E1148.97311
G1 X153.124 Y139.65 E1149.0944
G1 X152.159 Y139.984 E1149.21571
G1 X151.144 Y140.026 E1149.3364
G1 X150.611 Y139.932 E1149.40069
G1 X149.673 Y139.537 E1149.5216
G0 F9000 X149.519 Y139.411
G10
G0 X149.324 Y139.645
G0 X150.534 Y140.16
G0 X152.202 Y140.222
G0 X153.22 Y139.875
G0 X155.021 Y138.5
G0 X167.865 Y138.271
G0 X169.673 Y139.537
G11
G1 F1800 X168.861 Y138.867 E1149.64667
G1 X168.295 Y138.016 E1149.76809
G1 X168.109 Y137.533 E1149.82958
G1 X167.955 Y136.511 E1149.95236
G1 X167.991 Y135.994 E1150.01393
G1 X168.289 Y134.999 E1150.13732
G1 X168.855 Y134.137 E1150.25983
G1 X169.233 Y133.776 E1150.32193
G1 X170.122 Y133.235 E1150.44556
G1 X171.113 Y132.976 E1150.56724
G1 X172.151 Y133.015 E1150.69064
G1 X173.118 Y133.346 E1150.81207
G1 X173.942 Y133.93 E1150.93205
G1 X174.597 Y134.773 E1151.05888
G1 X174.963 Y135.735 E1151.18115
G1 X175.037 Y136.733 E1151.30004
G1 X174.811 Y137.77 E1151.42613
G1 X174.594 Y138.231 E1151.48666
G1 X173.964 Y139.05 E1151.60941
G1 X173.119 Y139.653 E1151.73274
G1 X172.15 Y139.985 E1151.85443
G1 X171.144 Y140.026 E1151.97404
G1 X170.611 Y139.932 E1152.03833
G1 X169.673 Y139.537 E1152.15925
G0 F9000 X169.519 Y139.41
G10
G0 X169.323 Y139.644
G0 X170.489 Y140.417
G0 X185.685 Y140.417
G0 X186.205 Y161.205
G11
G1 F1800 X186.205 Y61.795 E1163.96915
G1 X36.796 Y61.796 E1181.71894
