;FLAVOR:UltiGCode
;TIME:8453
;MATERIAL:7441
;MATERIAL2:0
;NOZZLE_DIAMETER:0.4
;MINX:100.056
;MINY:78.961
;MINZ:0.27
;MAXX:177.976
;MAXY:139.326
;MAXZ:44.97
;TARGET_MACHINE.NAME:Ultimaker 2+
;Generated with Cura_SteamEngine 5.6.0
M82 ;absolute extrusion mode
G0 F3000 Y50 ;avoid prime blob
G92 E0
G92 E0
G10
;LAYER_COUNT:448
;LAYER:0
M107
G0 F7200 X101.146 Y82.457 Z0.27
;TYPE:SKIRT
G11
G1 F1800 X100.946 Y82.773 E0.04039
G1 X100.056 Y85.391 E0.33902
G1 X100.056 Y132.593 E5.43684
G1 X101.047 Y135.65 E5.78391
G1 X103.129 Y137.796 E6.10683
G1 X104.949 Y138.906 E6.33706
G1 X106.877 Y139.326 E6.55017
G1 X150.743 Y139.326 E11.2877
G1 X153.8 Y138.335 E11.63477
G1 X155.946 Y136.253 E11.95769
G1 X157.056 Y134.433 E12.18792
G1 X157.476 Y132.505 E12.40103
G1 X157.476 Y131.381 E12.52242
G1 X171.243 Y131.381 E14.00926
G1 X174.3 Y130.39 E14.35633
G1 X176.446 Y128.308 E14.67925
G1 X177.556 Y126.488 E14.90948
G1 X177.976 Y124.56 E15.12259
G1 X177.976 Y99.19 E17.86255
G1 X176.973 Y96.118 E18.21156
G1 X174.48 Y93.551 E18.59802
G1 X174.164 Y93.351 E18.63841
G1 X171.546 Y92.461 E18.93704
G1 X157.476 Y92.461 E20.4566
G1 X157.476 Y85.69 E21.18787
G1 X156.473 Y82.618 E21.53688
G1 X153.98 Y80.051 E21.92334
G1 X153.664 Y79.851 E21.96373
G1 X151.046 Y78.961 E22.26237
G1 X106.785 Y78.961 E27.04256
G1 X103.713 Y79.964 E27.39157
G1 X101.146 Y82.457 E27.77803
G0 F7200 X101.425 Y82.744
G1 F1800 X101.325 Y82.902 E27.79822
G1 X100.456 Y85.458 E28.08979
G1 X100.456 Y132.529 E33.17346
G1 X101.399 Y135.438 E33.50373
G1 X103.383 Y137.483 E33.81145
G1 X105.098 Y138.529 E34.0284
G1 X106.921 Y138.926 E34.2299
G1 X150.679 Y138.926 E38.95576
G1 X153.588 Y137.983 E39.28603
G1 X155.633 Y135.999 E39.59375
G1 X156.679 Y134.284 E39.8107
G1 X157.076 Y132.461 E40.0122
G1 X157.076 Y130.981 E40.17204
G1 X171.179 Y130.981 E41.69516
G1 X174.088 Y130.038 E42.02543
G1 X176.133 Y128.054 E42.33315
G1 X177.179 Y126.339 E42.5501
G1 X177.576 Y124.516 E42.7516
G1 X177.576 Y99.253 E45.48
G1 X176.622 Y96.331 E45.81197
G1 X174.193 Y93.83 E46.1885
G1 X174.035 Y93.73 E46.2087
G1 X171.479 Y92.861 E46.50027
G1 X157.076 Y92.861 E48.05579
G1 X157.076 Y85.753 E48.82345
G1 X156.122 Y82.831 E49.15542
G1 X153.693 Y80.33 E49.53196
G1 X153.535 Y80.23 E49.55215
G1 X150.979 Y79.361 E49.84372
G1 X106.848 Y79.361 E54.60986
G1 X103.926 Y80.315 E54.94183
G1 X101.425 Y82.744 E55.31837
G0 F7200 X101.704 Y83.031
G1 F1800 X104.139 Y80.666 E55.68497
G1 X106.911 Y79.761 E55.9999
G1 X150.912 Y79.761 E60.752
G1 X153.406 Y80.609 E61.0365
G1 X155.771 Y83.044 E61.4031
G1 X156.676 Y85.816 E61.71803
G1 X156.676 Y93.261 E62.52209
G1 X171.412 Y93.261 E64.11358
G1 X173.906 Y94.109 E64.39807
G1 X176.271 Y96.544 E64.76468
G1 X177.176 Y99.316 E65.0796
G1 X177.176 Y124.472 E67.79645
G1 X176.802 Y126.19 E67.98634
G1 X175.82 Y127.8 E68.19001
G1 X173.876 Y129.686 E68.48253
G1 X171.115 Y130.581 E68.796
G1 X156.676 Y130.581 E70.35541
G1 X156.676 Y132.417 E70.5537
G1 X156.302 Y134.135 E70.74359
G1 X155.32 Y135.745 E70.94726
G1 X153.376 Y137.631 E71.23978
G1 X150.615 Y138.526 E71.55324
G1 X106.965 Y138.526 E76.26744
G1 X105.247 Y138.152 E76.45733
G1 X103.637 Y137.17 E76.66101
G1 X101.751 Y135.226 E76.95353
G1 X100.856 Y132.465 E77.26699
G1 X100.856 Y85.525 E82.33651
G1 X101.704 Y83.031 E82.62101
G0 F7200 X102.052 Y83.251
G1 F1800 X104.352 Y81.017 E82.96729
G1 X106.974 Y80.161 E83.26518
G1 X150.845 Y80.161 E88.00325
G1 X153.186 Y80.957 E88.27029
G1 X155.42 Y83.257 E88.61658
G1 X156.276 Y85.879 E88.91446
G1 X156.276 Y93.661 E89.75492
G1 X171.345 Y93.661 E91.38237
G1 X173.686 Y94.457 E91.64941
G1 X175.92 Y96.757 E91.9957
G1 X176.776 Y99.379 E92.29359
G1 X176.776 Y124.428 E94.99888
G1 X176.425 Y126.041 E95.17716
G1 X175.507 Y127.546 E95.36755
G1 X173.664 Y129.334 E95.64487
G1 X171.051 Y130.181 E95.94153
G1 X156.276 Y130.181 E97.53723
G1 X156.276 Y132.373 E97.77397
G1 X155.925 Y133.986 E97.95225
G1 X155.007 Y135.491 E98.14264
G1 X153.164 Y137.279 E98.41996
G1 X150.551 Y138.126 E98.71662
G1 X107.009 Y138.126 E103.41916
G1 X105.396 Y137.775 E103.59744
G1 X103.891 Y136.857 E103.78783
G1 X102.103 Y135.014 E104.06515
G1 X101.256 Y132.401 E104.36181
G1 X101.256 Y85.592 E109.41718
G1 X102.052 Y83.251 E109.68423
G0 F7200 X102.4 Y83.471
G1 F1800 X104.565 Y81.368 E110.0102
G1 X107.037 Y80.561 E110.29104
G1 X150.778 Y80.561 E115.01507
G1 X152.966 Y81.305 E115.26466
G1 X155.069 Y83.47 E115.59063
G1 X155.876 Y85.942 E115.87147
G1 X155.876 Y94.061 E116.74833
G1 X171.278 Y94.061 E118.41174
G1 X173.466 Y94.805 E118.66133
G1 X175.569 Y96.97 E118.9873
G1 X176.376 Y99.442 E119.26815
G1 X176.376 Y124.384 E121.96188
G1 X176.048 Y125.892 E122.12855
G1 X175.194 Y127.292 E122.30566
G1 X173.452 Y128.982 E122.56779
G1 X170.987 Y129.781 E122.84764
G1 X155.876 Y129.781 E124.47963
G1 X155.876 Y132.329 E124.75482
G1 X155.548 Y133.837 E124.92149
G1 X154.694 Y135.237 E125.0986
G1 X152.952 Y136.927 E125.36072
G1 X150.487 Y137.726 E125.64058
G1 X107.053 Y137.726 E130.33145
G1 X105.545 Y137.398 E130.49812
G1 X104.145 Y136.544 E130.67523
G1 X102.455 Y134.802 E130.93736
G1 X101.656 Y132.337 E131.21721
G1 X101.656 Y85.659 E136.25844
G1 X102.4 Y83.471 E136.50803
G0 F7200 X102.748 Y83.691
G1 F1800 X104.778 Y81.719 E136.81368
G1 X107.1 Y80.961 E137.07748
G1 X150.711 Y80.961 E141.78747
G1 X152.746 Y81.653 E142.01961
G1 X154.718 Y83.683 E142.32527
G1 X155.476 Y86.005 E142.58907
G1 X155.476 Y94.461 E143.50231
G1 X171.211 Y94.461 E145.20169
G1 X173.246 Y95.153 E145.43383
G1 X175.218 Y97.183 E145.73949
G1 X175.976 Y99.505 E146.00329
G1 X175.976 Y124.34 E148.68547
G1 X175.671 Y125.743 E148.84053
G1 X174.881 Y127.038 E149.00436
G1 X173.24 Y128.63 E149.25129
G1 X170.923 Y129.381 E149.51434
G1 X155.476 Y129.381 E151.18261
G1 X155.476 Y132.285 E151.49625
G1 X155.171 Y133.688 E151.65131
G1 X154.381 Y134.983 E151.81514
G1 X152.74 Y136.575 E152.06206
G1 X150.423 Y137.326 E152.32512
G1 X107.097 Y137.326 E157.00432
G1 X105.694 Y137.021 E157.15939
G1 X104.399 Y136.231 E157.32322
G1 X102.807 Y134.59 E157.57014
G1 X102.056 Y132.273 E157.83319
G1 X102.056 Y85.726 E162.86027
G1 X102.748 Y83.691 E163.09241
G0 F7200 X103.096 Y83.911
G1 F1800 X104.991 Y82.07 E163.37775
G1 X107.163 Y81.361 E163.62451
G1 X150.644 Y81.361 E168.32045
G1 X152.526 Y82.001 E168.53514
G1 X154.367 Y83.896 E168.82048
G1 X155.076 Y86.068 E169.06724
G1 X155.076 Y94.861 E170.01688
G1 X171.144 Y94.861 E171.75223
G1 X173.026 Y95.501 E171.96691
G1 X174.867 Y97.396 E172.25225
G1 X175.576 Y99.568 E172.49901
G1 X175.576 Y124.296 E175.16963
G1 X175.294 Y125.594 E175.31309
G1 X174.568 Y126.784 E175.46364
G1 X173.028 Y128.278 E175.69536
G1 X170.859 Y128.981 E175.94161
G1 X155.076 Y128.981 E177.64617
G1 X155.076 Y132.241 E177.99825
G1 X154.794 Y133.539 E178.14171
G1 X154.068 Y134.729 E178.29226
G1 X152.528 Y136.223 E178.52398
G1 X150.359 Y136.926 E178.77023
G1 X107.141 Y136.926 E183.43778
G1 X105.843 Y136.644 E183.58123
G1 X104.653 Y135.918 E183.73178
G1 X103.159 Y134.378 E183.96351
G1 X102.456 Y132.209 E184.20976
G1 X102.456 Y85.793 E189.22268
G1 X103.096 Y83.911 E189.43737
G0 F7200 X103.444 Y84.131
G1 F1800 X105.204 Y82.421 E189.70239
G1 X107.226 Y81.761 E189.93211
G1 X150.577 Y81.761 E194.61402
G1 X152.306 Y82.349 E194.81125
G1 X154.016 Y84.109 E195.07627
G1 X154.676 Y86.131 E195.30599
G1 X154.676 Y95.261 E196.29203
G1 X171.077 Y95.261 E198.06334
G1 X172.806 Y95.849 E198.26057
G1 X174.516 Y97.609 E198.52559
G1 X175.176 Y99.631 E198.75531
G1 X175.176 Y124.252 E201.41438
G1 X174.917 Y125.445 E201.54622
G1 X174.255 Y126.53 E201.68349
G1 X172.816 Y127.926 E201.90002
G1 X170.795 Y128.581 E202.12946
G1 X154.676 Y128.581 E203.87032
G1 X154.676 Y132.197 E204.26084
G1 X154.417 Y133.39 E204.39269
G1 X153.755 Y134.475 E204.52996
G1 X152.316 Y135.871 E204.74649
G1 X150.295 Y136.526 E204.97593
G1 X107.185 Y136.526 E209.63181
G1 X105.992 Y136.267 E209.76366
G1 X104.907 Y135.605 E209.90093
G1 X103.511 Y134.166 E210.11745
G1 X102.856 Y132.145 E210.3469
G1 X102.856 Y85.86 E215.34568
G1 X103.444 Y84.131 E215.54291
G0 F7200 X103.792 Y84.351
G1 F1800 X105.417 Y82.772 E215.78762
G1 X107.289 Y82.161 E216.00029
G1 X150.51 Y82.161 E220.66816
G1 X152.086 Y82.697 E220.84794
G1 X153.665 Y84.322 E221.09265
G1 X154.276 Y86.194 E221.30532
G1 X154.276 Y95.661 E222.32776
G1 X171.01 Y95.661 E224.13503
G1 X172.586 Y96.197 E224.31481
G1 X174.165 Y97.822 E224.55952
G1 X174.776 Y99.694 E224.77219
G1 X174.776 Y124.208 E227.4197
G1 X174.54 Y125.296 E227.53994
G1 X173.942 Y126.276 E227.66393
G1 X172.604 Y127.574 E227.86526
G1 X170.731 Y128.181 E228.0779
G1 X154.276 Y128.181 E229.85504
G1 X154.276 Y132.153 E230.28401
G1 X154.04 Y133.241 E230.40425
G1 X153.442 Y134.221 E230.52824
G1 X152.104 Y135.519 E230.72957
G1 X150.231 Y136.126 E230.94221
G1 X107.229 Y136.126 E235.58642
G1 X106.141 Y135.89 E235.70666
G1 X105.161 Y135.292 E235.83065
G1 X103.863 Y133.954 E236.03198
G1 X103.256 Y132.081 E236.24462
G1 X103.256 Y85.927 E241.22925
G1 X103.792 Y84.351 E241.40903
G0 F7200 X104.14 Y84.571
G1 F1800 X105.63 Y83.123 E241.63342
G1 X107.352 Y82.561 E241.82905
G1 X150.443 Y82.561 E246.48288
G1 X151.866 Y83.045 E246.64521
G1 X153.314 Y84.535 E246.8696
G1 X153.876 Y86.257 E247.06523
G1 X153.876 Y96.061 E248.12407
G1 X170.943 Y96.061 E249.9673
G1 X172.366 Y96.545 E250.12963
G1 X173.814 Y98.035 E250.35402
G1 X174.376 Y99.757 E250.54965
G1 X174.376 Y124.164 E253.18561
G1 X174.163 Y125.145 E253.29403
G1 X173.627 Y126.024 E253.40521
G1 X172.391 Y127.223 E253.59119
G1 X170.67 Y127.781 E253.78658
G1 X153.876 Y127.781 E255.60034
G1 X153.876 Y132.109 E256.06776
G1 X153.663 Y133.09 E256.17618
G1 X153.127 Y133.969 E256.28737
G1 X151.891 Y135.168 E256.47334
G1 X150.17 Y135.726 E256.66874
G1 X107.273 Y135.726 E261.30161
G1 X106.292 Y135.513 E261.41003
G1 X105.413 Y134.977 E261.52122
G1 X104.214 Y133.741 E261.7072
G1 X103.656 Y132.02 E261.90259
G1 X103.656 Y85.994 E266.8734
G1 X104.14 Y84.571 E267.03573
G0 F7200 X104.488 Y84.791
G1 F1800 X105.843 Y83.474 E267.2398
G1 X107.415 Y82.961 E267.41839
G1 X150.376 Y82.961 E272.05818
G1 X151.646 Y83.393 E272.20306
G1 X152.963 Y84.748 E272.40713
G1 X153.476 Y86.32 E272.58572
G1 X153.476 Y96.461 E273.68095
G1 X170.876 Y96.461 E275.56015
G1 X172.146 Y96.893 E275.70502
G1 X173.463 Y98.248 E275.9091
G1 X173.976 Y99.82 E276.08769
G1 X173.976 Y124.12 E278.71209
G1 X173.786 Y124.994 E278.80868
G1 X173.312 Y125.772 E278.90707
G1 X172.178 Y126.872 E279.0777
G1 X170.609 Y127.381 E279.25584
G1 X153.476 Y127.381 E281.10621
G1 X153.476 Y132.065 E281.61208
G1 X153.286 Y132.939 E281.70868
G1 X152.812 Y133.717 E281.80707
G1 X151.678 Y134.817 E281.97769
G1 X150.109 Y135.326 E282.15584
G1 X107.317 Y135.326 E286.77737
G1 X106.443 Y135.136 E286.87397
G1 X105.665 Y134.662 E286.97236
G1 X104.565 Y133.528 E287.14298
G1 X104.056 Y131.959 E287.32113
G1 X104.056 Y86.061 E292.27811
G1 X104.488 Y84.791 E292.42299
G0 F7200 X104.836 Y85.011
G1 F1800 X106.056 Y83.825 E292.60675
G1 X107.478 Y83.361 E292.7683
G1 X150.309 Y83.361 E297.39404
G1 X151.426 Y83.741 E297.52147
G1 X152.612 Y84.961 E297.70523
G1 X153.076 Y86.383 E297.86677
G1 X153.076 Y96.861 E298.9984
G1 X170.809 Y96.861 E300.91356
G1 X171.926 Y97.241 E301.04099
G1 X173.112 Y98.461 E301.22475
G1 X173.576 Y99.883 E301.38629
G1 X173.576 Y124.076 E303.99914
G1 X173.409 Y124.843 E304.08391
G1 X172.995 Y125.523 E304.16989
G1 X171.966 Y126.521 E304.32471
G1 X170.548 Y126.981 E304.48571
G1 X153.076 Y126.981 E306.37268
G1 X153.076 Y132.021 E306.917
G1 X152.909 Y132.788 E307.00178
G1 X152.495 Y133.468 E307.08776
G1 X151.466 Y134.466 E307.24258
G1 X150.048 Y134.926 E307.40358
G1 X107.361 Y134.926 E312.01377
G1 X106.594 Y134.759 E312.09855
G1 X105.914 Y134.345 E312.18453
G1 X104.916 Y133.316 E312.33934
G1 X104.456 Y131.898 E312.50035
G1 X104.456 Y86.128 E317.44351
G1 X104.836 Y85.011 E317.57093
G0 F7200 X105.184 Y85.231
G1 F1800 X106.269 Y84.176 E317.73437
G1 X107.541 Y83.761 E317.87888
G1 X150.242 Y83.761 E322.49058
G1 X151.206 Y84.089 E322.60056
G1 X152.261 Y85.174 E322.764
G1 X152.676 Y86.446 E322.9085
G1 X152.676 Y97.261 E324.07652
G1 X170.742 Y97.261 E326.02765
G1 X171.706 Y97.589 E326.13762
G1 X172.761 Y98.674 E326.30107
G1 X173.176 Y99.946 E326.44557
G1 X173.176 Y124.032 E329.04686
G1 X173.032 Y124.692 E329.11981
G1 X172.678 Y125.274 E329.19338
G1 X171.754 Y126.17 E329.33239
G1 X170.487 Y126.581 E329.47625
G1 X152.676 Y126.581 E331.39983
G1 X152.676 Y131.977 E331.9826
G1 X152.532 Y132.637 E332.05556
G1 X152.178 Y133.219 E332.12913
G1 X151.254 Y134.115 E332.26813
G1 X149.987 Y134.526 E332.41199
G1 X107.405 Y134.526 E337.01084
G1 X106.745 Y134.382 E337.0838
G1 X106.163 Y134.028 E337.15737
G1 X105.267 Y133.104 E337.29638
G1 X104.856 Y131.837 E337.44023
G1 X104.856 Y86.195 E342.36957
G1 X105.184 Y85.231 E342.47954
G0 F7200 X105.532 Y85.451
G1 F1800 X105.256 Y86.262 E342.57206
G1 X105.256 Y131.776 E347.48758
G1 X105.618 Y132.892 E347.61429
G1 X106.412 Y133.711 E347.73748
G1 X106.896 Y134.005 E347.79864
G1 X107.449 Y134.126 E347.85978
G1 X149.926 Y134.126 E352.44729
G1 X151.042 Y133.764 E352.574
G1 X151.861 Y132.97 E352.6972
G1 X152.155 Y132.486 E352.75836
G1 X152.276 Y131.933 E352.8195
G1 X152.276 Y126.181 E353.44071
G1 X170.426 Y126.181 E355.40091
G1 X171.542 Y125.819 E355.52762
G1 X172.361 Y125.025 E355.65082
G1 X172.655 Y124.541 E355.71198
G1 X172.776 Y123.988 E355.77312
G1 X172.776 Y100.009 E358.36285
G1 X172.41 Y98.887 E358.49031
G1 X171.486 Y97.937 E358.63343
G1 X170.675 Y97.661 E358.72596
G1 X152.276 Y97.661 E360.71305
G1 X152.276 Y86.509 E361.91746
G1 X151.91 Y85.387 E362.04492
G1 X150.986 Y84.437 E362.18805
G1 X150.175 Y84.161 E362.28057
G1 X107.604 Y84.161 E366.87824
G1 X106.482 Y84.527 E367.0057
G1 X105.532 Y85.451 E367.14883
G0 F7200 X105.88 Y85.671
G1 F1800 X106.695 Y84.878 E367.27164
G1 X107.667 Y84.561 E367.38205
G1 X150.108 Y84.561 E371.96568
G1 X150.766 Y84.785 E372.04075
G1 X151.559 Y85.6 E372.16356
G1 X151.876 Y86.572 E372.27398
G1 X151.876 Y98.061 E373.51479
G1 X170.608 Y98.061 E375.53785
G1 X171.266 Y98.285 E375.61292
G1 X172.059 Y99.1 E375.73573
G1 X172.376 Y100.072 E375.84614
G1 X172.376 Y123.988 E378.42907
G1 X172.266 Y124.448 E378.48015
G1 X172.083 Y124.738 E378.51719
G1 X171.331 Y125.467 E378.6303
G1 X170.364 Y125.781 E378.74011
G1 X151.876 Y125.781 E380.73681
G1 X151.876 Y131.933 E381.40123
G1 X151.766 Y132.393 E381.45231
G1 X151.583 Y132.683 E381.48934
G1 X150.831 Y133.412 E381.60246
G1 X149.864 Y133.726 E381.71226
G1 X107.449 Y133.726 E386.29308
G1 X106.989 Y133.616 E386.34416
G1 X106.699 Y133.433 E386.38119
G1 X105.97 Y132.681 E386.49431
G1 X105.656 Y131.714 E386.60411
G1 X105.656 Y86.329 E391.50569
G1 X105.88 Y85.671 E391.58076
G0 F7200 X106.228 Y85.891
G1 F1800 X106.908 Y85.229 E391.68326
G1 X107.73 Y84.961 E391.77663
G1 X150.041 Y84.961 E396.34622
G1 X150.546 Y85.133 E396.40384
G1 X151.208 Y85.813 E396.50633
G1 X151.476 Y86.635 E396.59971
G1 X151.476 Y98.461 E397.87691
G1 X170.541 Y98.461 E399.93593
G1 X171.046 Y98.633 E399.99355
G1 X171.708 Y99.313 E400.09604
G1 X171.976 Y100.135 E400.18942
G1 X171.976 Y123.948 E402.76122
G1 X171.917 Y124.252 E402.79467
G1 X171.805 Y124.451 E402.81933
G1 X171.12 Y125.115 E402.92236
G1 X170.302 Y125.381 E403.01526
G1 X151.476 Y125.381 E405.04847
G1 X151.476 Y131.893 E405.75176
G1 X151.417 Y132.197 E405.78521
G1 X151.305 Y132.396 E405.80987
G1 X150.62 Y133.06 E405.9129
G1 X149.802 Y133.326 E406.0058
G1 X107.489 Y133.326 E410.5756
G1 X107.185 Y133.267 E410.60905
G1 X106.986 Y133.155 E410.63371
G1 X106.322 Y132.47 E410.73674
G1 X106.056 Y131.652 E410.82964
G1 X106.056 Y86.396 E415.71729
G1 X106.228 Y85.891 E415.77491
G0 F7200 X106.507 Y86.178
G1 F1800 X107.121 Y85.58 E415.86747
G1 X107.793 Y85.361 E415.9438
G1 X150.041 Y85.361 E420.50659
G1 X150.259 Y85.412 E420.53077
G1 X150.857 Y86.026 E420.62333
G1 X151.076 Y86.698 E420.69967
G1 X151.076 Y98.861 E422.01327
G1 X170.541 Y98.861 E424.11549
G1 X170.759 Y98.912 E424.13967
G1 X171.357 Y99.526 E424.23224
G1 X171.576 Y100.198 E424.30857
G1 X171.576 Y123.948 E426.87357
G1 X171.527 Y124.164 E426.89749
G1 X170.909 Y124.763 E426.99044
G1 X170.239 Y124.981 E427.06653
G1 X151.076 Y124.981 E429.13614
