;FLAVOR:UltiGCode
;TIME:6739
;MATERIAL:6804
;MATERIAL2:0
;NOZZLE_DIAMETER:0.4
;MINX:72.54
;MINY:81.817
;MINZ:0.27
;MAXX:150.46
;MAXY:141.183
;MAXZ:22.97
;TARGET_MACHINE.NAME:Ultimaker 2+
;Generated with Cura_SteamEngine 5.6.0
M82 ;absolute extrusion mode
G0 F3000 Y50 ;avoid prime blob
G92 E0
G92 E0
G10
;LAYER_COUNT:228
;LAYER:0
M107
G0 F7200 X76.197 Y82.82 Z0.27
;TYPE:SKIRT
G11
G1 F1800 X73.63 Y85.313 E0.38646
G1 X73.43 Y85.629 E0.42685
G1 X72.54 Y88.247 E0.72549
G1 X72.54 Y134.45 E5.71541
G1 X73.531 Y137.507 E6.06248
G1 X75.613 Y139.653 E6.3854
G1 X77.433 Y140.763 E6.61563
G1 X79.361 Y141.183 E6.82874
G1 X123.227 Y141.183 E11.56627
G1 X126.284 Y140.192 E11.91334
G1 X128.43 Y138.11 E12.23626
G1 X129.54 Y136.29 E12.46649
G1 X129.96 Y134.362 E12.6796
G1 X129.96 Y133.237 E12.8011
G1 X143.727 Y133.237 E14.28793
G1 X146.784 Y132.246 E14.635
G1 X148.93 Y130.164 E14.95792
G1 X150.04 Y128.344 E15.18815
G1 X150.46 Y126.416 E15.40126
G1 X150.46 Y101.046 E18.14122
G1 X149.457 Y97.974 E18.49023
G1 X146.964 Y95.407 E18.8767
G1 X146.648 Y95.207 E18.91708
G1 X144.03 Y94.317 E19.21572
G1 X129.96 Y94.317 E20.73528
G1 X129.96 Y88.546 E21.35855
G1 X128.957 Y85.474 E21.70756
G1 X126.464 Y82.907 E22.09402
G1 X126.148 Y82.707 E22.13441
G1 X123.53 Y81.817 E22.43305
G1 X79.269 Y81.817 E27.21323
G1 X76.197 Y82.82 E27.56225
G0 F7200 X76.41 Y83.171
G1 F1800 X73.909 Y85.6 E27.93878
G1 X73.809 Y85.758 E27.95897
G1 X72.94 Y88.314 E28.25054
G1 X72.94 Y134.386 E33.22631
G1 X73.883 Y137.295 E33.55658
G1 X75.867 Y139.34 E33.8643
G1 X77.582 Y140.386 E34.08125
G1 X79.405 Y140.783 E34.28275
G1 X123.163 Y140.783 E39.00862
G1 X126.072 Y139.84 E39.33888
G1 X128.117 Y137.856 E39.6466
G1 X129.163 Y136.141 E39.86356
G1 X129.56 Y134.318 E40.06505
G1 X129.56 Y132.837 E40.225
G1 X143.663 Y132.837 E41.74813
G1 X146.572 Y131.894 E42.07839
G1 X148.617 Y129.91 E42.38611
G1 X149.663 Y128.195 E42.60306
G1 X150.06 Y126.372 E42.80456
G1 X150.06 Y101.109 E45.53297
G1 X149.106 Y98.187 E45.86494
G1 X146.677 Y95.686 E46.24147
G1 X146.519 Y95.586 E46.26166
G1 X143.963 Y94.717 E46.55323
G1 X129.56 Y94.717 E48.10875
G1 X129.56 Y88.609 E48.76842
G1 X128.606 Y85.687 E49.10039
G1 X126.177 Y83.186 E49.47692
G1 X126.019 Y83.086 E49.49711
G1 X123.463 Y82.217 E49.78868
G1 X79.332 Y82.217 E54.55483
G1 X76.41 Y83.171 E54.8868
G0 F7200 X76.623 Y83.522
G1 F1800 X79.395 Y82.617 E55.20172
G1 X123.396 Y82.617 E59.95383
G1 X125.89 Y83.465 E60.23833
G1 X128.255 Y85.9 E60.60493
G1 X129.16 Y88.672 E60.91986
G1 X129.16 Y95.117 E61.61592
G1 X143.896 Y95.117 E63.20741
G1 X146.39 Y95.965 E63.4919
G1 X148.755 Y98.4 E63.85851
G1 X149.66 Y101.172 E64.17343
G1 X149.66 Y126.328 E66.89028
G1 X149.286 Y128.046 E67.08017
G1 X148.304 Y129.656 E67.28384
G1 X146.36 Y131.542 E67.57636
G1 X143.599 Y132.437 E67.88983
G1 X129.16 Y132.437 E69.44924
G1 X129.16 Y134.274 E69.64764
G1 X128.786 Y135.992 E69.83752
G1 X127.804 Y137.602 E70.0412
G1 X125.86 Y139.488 E70.33372
G1 X123.099 Y140.383 E70.64718
G1 X79.449 Y140.383 E75.36138
G1 X77.731 Y140.009 E75.55127
G1 X76.121 Y139.027 E75.75494
G1 X74.235 Y137.083 E76.04746
G1 X73.34 Y134.322 E76.36093
G1 X73.34 Y88.381 E81.32255
G1 X74.188 Y85.887 E81.60705
G1 X76.623 Y83.522 E81.97365
G0 F7200 X76.836 Y83.873
G1 F1800 X79.458 Y83.017 E82.27154
G1 X123.329 Y83.017 E87.00961
G1 X125.67 Y83.813 E87.27665
G1 X127.904 Y86.113 E87.62294
G1 X128.76 Y88.735 E87.92082
G1 X128.76 Y95.517 E88.65328
G1 X143.829 Y95.517 E90.28073
G1 X146.17 Y96.313 E90.54777
G1 X148.404 Y98.613 E90.89406
G1 X149.26 Y101.235 E91.19195
G1 X149.26 Y126.284 E93.89724
G1 X148.909 Y127.897 E94.07552
G1 X147.991 Y129.402 E94.26591
G1 X146.148 Y131.19 E94.54323
G1 X143.535 Y132.037 E94.83989
G1 X128.76 Y132.037 E96.43559
G1 X128.76 Y134.23 E96.67244
G1 X128.409 Y135.843 E96.85072
G1 X127.491 Y137.348 E97.04111
G1 X125.648 Y139.136 E97.31843
G1 X123.035 Y139.983 E97.61509
G1 X79.493 Y139.983 E102.31763
G1 X77.88 Y139.632 E102.49591
G1 X76.375 Y138.714 E102.6863
G1 X74.587 Y136.871 E102.96362
G1 X73.74 Y134.258 E103.26028
G1 X73.74 Y88.448 E108.20776
G1 X74.536 Y86.107 E108.4748
G1 X76.836 Y83.873 E108.82109
G0 F7200 X77.049 Y84.224
G1 F1800 X79.521 Y83.417 E109.10193
G1 X123.262 Y83.417 E113.82596
G1 X125.45 Y84.161 E114.07555
G1 X127.553 Y86.326 E114.40152
G1 X128.36 Y88.798 E114.68237
G1 X128.36 Y95.917 E115.45122
G1 X143.762 Y95.917 E117.11463
G1 X145.95 Y96.661 E117.36423
G1 X148.053 Y98.826 E117.6902
G1 X148.86 Y101.298 E117.97104
G1 X148.86 Y126.24 E120.66478
G1 X148.532 Y127.748 E120.83145
G1 X147.678 Y129.148 E121.00856
G1 X145.936 Y130.838 E121.27068
G1 X143.471 Y131.637 E121.55054
G1 X128.36 Y131.637 E123.18253
G1 X128.36 Y134.186 E123.45782
G1 X128.032 Y135.694 E123.62449
G1 X127.178 Y137.094 E123.8016
G1 X125.436 Y138.784 E124.06372
G1 X122.971 Y139.583 E124.34358
G1 X79.537 Y139.583 E129.03445
G1 X78.029 Y139.255 E129.20112
G1 X76.629 Y138.401 E129.37823
G1 X74.939 Y136.659 E129.64036
G1 X74.14 Y134.194 E129.92021
G1 X74.14 Y88.515 E134.85355
G1 X74.884 Y86.327 E135.10314
G1 X77.049 Y84.224 E135.42911
G0 F7200 X77.262 Y84.575
G1 F1800 X79.584 Y83.817 E135.69291
G1 X123.195 Y83.817 E140.4029
G1 X125.23 Y84.509 E140.63504
G1 X127.202 Y86.539 E140.94069
G1 X127.96 Y88.861 E141.20449
G1 X127.96 Y96.317 E142.00974
G1 X143.695 Y96.317 E143.70912
G1 X145.73 Y97.009 E143.94126
G1 X147.702 Y99.039 E144.24691
G1 X148.46 Y101.361 E144.51071
G1 X148.46 Y126.196 E147.19289
G1 X148.155 Y127.599 E147.34796
G1 X147.365 Y128.894 E147.51179
G1 X145.724 Y130.486 E147.75871
G1 X143.407 Y131.237 E148.02176
G1 X127.96 Y131.237 E149.69004
G1 X127.96 Y134.142 E150.00378
G1 X127.655 Y135.545 E150.15884
G1 X126.865 Y136.84 E150.32267
G1 X125.224 Y138.432 E150.5696
G1 X122.907 Y139.183 E150.83265
G1 X79.581 Y139.183 E155.51186
G1 X78.178 Y138.878 E155.66692
G1 X76.883 Y138.088 E155.83075
G1 X75.291 Y136.447 E156.07767
G1 X74.54 Y134.13 E156.34073
G1 X74.54 Y88.582 E161.25991
G1 X75.232 Y86.547 E161.49205
G1 X77.262 Y84.575 E161.79771
G0 F7200 X77.475 Y84.926
G1 F1800 X79.647 Y84.217 E162.04446
G1 X123.128 Y84.217 E166.74041
G1 X125.01 Y84.857 E166.9551
G1 X126.851 Y86.752 E167.24044
G1 X127.56 Y88.924 E167.48719
G1 X127.56 Y96.717 E168.32884
G1 X143.628 Y96.717 E170.06418
G1 X145.51 Y97.357 E170.27887
G1 X147.351 Y99.252 E170.56421
G1 X148.06 Y101.424 E170.81097
G1 X148.06 Y126.152 E173.48159
G1 X147.778 Y127.45 E173.62504
G1 X147.052 Y128.64 E173.77559
G1 X145.512 Y130.134 E174.00732
G1 X143.343 Y130.837 E174.25357
G1 X127.56 Y130.837 E175.95813
G1 X127.56 Y134.098 E176.31032
G1 X127.278 Y135.396 E176.45377
G1 X126.552 Y136.586 E176.60432
G1 X125.012 Y138.08 E176.83605
G1 X122.843 Y138.783 E177.0823
G1 X79.625 Y138.783 E181.74984
G1 X78.327 Y138.501 E181.8933
G1 X77.137 Y137.775 E182.04385
G1 X75.643 Y136.235 E182.27557
G1 X74.94 Y134.066 E182.52182
G1 X74.94 Y88.649 E187.42686
G1 X75.58 Y86.767 E187.64154
G1 X77.475 Y84.926 E187.92688
G0 F7200 X77.688 Y85.277
G1 F1800 X79.71 Y84.617 E188.1566
G1 X123.061 Y84.617 E192.83851
G1 X124.79 Y85.205 E193.03574
G1 X126.5 Y86.965 E193.30076
G1 X127.16 Y88.987 E193.53048
G1 X127.16 Y97.117 E194.40852
G1 X143.561 Y97.117 E196.17983
G1 X145.29 Y97.705 E196.37706
G1 X147 Y99.465 E196.64208
G1 X147.66 Y101.487 E196.8718
G1 X147.66 Y126.108 E199.53087
G1 X147.401 Y127.301 E199.66271
G1 X146.739 Y128.386 E199.79998
G1 X145.3 Y129.782 E200.01651
G1 X143.279 Y130.437 E200.24595
G1 X127.16 Y130.437 E201.98681
G1 X127.16 Y134.054 E202.37744
G1 X126.901 Y135.247 E202.50929
G1 X126.239 Y136.332 E202.64656
G1 X124.8 Y137.728 E202.86308
G1 X122.779 Y138.383 E203.09253
G1 X79.669 Y138.383 E207.74841
G1 X78.476 Y138.124 E207.88025
G1 X77.391 Y137.462 E208.01752
G1 X75.995 Y136.023 E208.23405
G1 X75.34 Y134.002 E208.46349
G1 X75.34 Y88.716 E213.35438
G1 X75.928 Y86.987 E213.55162
G1 X77.688 Y85.277 E213.81664
G0 F7200 X77.901 Y85.628
G1 F1800 X79.773 Y85.017 E214.02931
G1 X122.994 Y85.017 E218.69718
G1 X124.57 Y85.553 E218.87696
G1 X126.149 Y87.178 E219.12167
G1 X126.76 Y89.05 E219.33434
G1 X126.76 Y97.517 E220.24878
G1 X143.494 Y97.517 E222.05605
G1 X145.07 Y98.053 E222.23583
G1 X146.649 Y99.678 E222.48054
G1 X147.26 Y101.55 E222.69321
G1 X147.26 Y126.064 E225.34072
G1 X147.024 Y127.152 E225.46096
G1 X146.426 Y128.132 E225.58495
G1 X145.088 Y129.43 E225.78628
G1 X143.215 Y130.037 E225.99892
G1 X126.76 Y130.037 E227.77606
G1 X126.76 Y134.01 E228.20514
G1 X126.524 Y135.098 E228.32538
G1 X125.926 Y136.078 E228.44937
G1 X124.588 Y137.376 E228.6507
G1 X122.715 Y137.983 E228.86334
G1 X79.713 Y137.983 E233.50755
G1 X78.625 Y137.747 E233.62779
G1 X77.645 Y137.149 E233.75178
G1 X76.347 Y135.811 E233.95311
G1 X75.74 Y133.938 E234.16575
G1 X75.74 Y88.783 E239.04249
G1 X76.276 Y87.207 E239.22227
G1 X77.901 Y85.628 E239.46698
G0 F7200 X78.114 Y85.979
G1 F1800 X79.836 Y85.417 E239.66261
G1 X122.927 Y85.417 E244.31644
G1 X124.35 Y85.901 E244.47877
G1 X125.798 Y87.391 E244.70316
G1 X126.36 Y89.113 E244.89879
G1 X126.36 Y97.917 E245.84962
G1 X143.427 Y97.917 E247.69285
G1 X144.85 Y98.401 E247.85519
G1 X146.298 Y99.891 E248.07958
G1 X146.86 Y101.613 E248.27521
G1 X146.86 Y126.02 E250.91116
G1 X146.647 Y127.001 E251.01958
G1 X146.111 Y127.88 E251.13077
G1 X144.875 Y129.079 E251.31674
G1 X143.154 Y129.637 E251.51214
G1 X126.36 Y129.637 E253.32589
G1 X126.36 Y133.966 E253.79342
G1 X126.147 Y134.947 E253.90184
G1 X125.611 Y135.826 E254.01303
G1 X124.375 Y137.025 E254.199
G1 X122.654 Y137.583 E254.3944
G1 X79.757 Y137.583 E259.02727
G1 X78.776 Y137.37 E259.13569
G1 X77.897 Y136.834 E259.24688
G1 X76.698 Y135.598 E259.43286
G1 X76.14 Y133.877 E259.62825
G1 X76.14 Y88.85 E264.49117
G1 X76.624 Y87.427 E264.6535
G1 X78.114 Y85.979 E264.87789
G0 F7200 X78.327 Y86.33
G1 F1800 X79.899 Y85.817 E265.05647
G1 X122.86 Y85.817 E269.69626
G1 X124.13 Y86.249 E269.84114
G1 X125.447 Y87.604 E270.04522
G1 X125.96 Y89.176 E270.2238
G1 X125.96 Y98.317 E271.21103
G1 X143.36 Y98.317 E273.09023
G1 X144.63 Y98.749 E273.23511
G1 X145.947 Y100.104 E273.43918
G1 X146.46 Y101.676 E273.61777
G1 X146.46 Y125.976 E276.24217
G1 X146.27 Y126.85 E276.33877
G1 X145.796 Y127.628 E276.43716
G1 X144.662 Y128.728 E276.60778
G1 X143.093 Y129.237 E276.78593
G1 X125.96 Y129.237 E278.63629
G1 X125.96 Y133.922 E279.14227
G1 X125.77 Y134.796 E279.23887
G1 X125.296 Y135.574 E279.33726
G1 X124.162 Y136.674 E279.50788
G1 X122.593 Y137.183 E279.68603
G1 X79.801 Y137.183 E284.30757
G1 X78.927 Y136.993 E284.40416
G1 X78.149 Y136.519 E284.50255
G1 X77.049 Y135.385 E284.67318
G1 X76.54 Y133.816 E284.85132
G1 X76.54 Y88.917 E289.70042
G1 X76.972 Y87.647 E289.84529
G1 X78.327 Y86.33 E290.04937
G0 F7200 X78.54 Y86.681
G1 F1800 X79.962 Y86.217 E290.21091
G1 X122.793 Y86.217 E294.83666
G1 X123.91 Y86.597 E294.96409
G1 X125.096 Y87.817 E295.14785
G1 X125.56 Y89.239 E295.30939
G1 X125.56 Y98.717 E296.33302
G1 X143.293 Y98.717 E298.24818
G1 X144.41 Y99.097 E298.3756
G1 X145.596 Y100.317 E298.55936
G1 X146.06 Y101.739 E298.72091
G1 X146.06 Y125.932 E301.33375
G1 X145.893 Y126.699 E301.41853
G1 X145.479 Y127.379 E301.50451
G1 X144.45 Y128.377 E301.65932
G1 X143.032 Y128.837 E301.82033
G1 X125.56 Y128.837 E303.7073
G1 X125.56 Y133.878 E304.25173
G1 X125.393 Y134.645 E304.33651
G1 X124.979 Y135.325 E304.42249
G1 X123.95 Y136.323 E304.5773
G1 X122.532 Y136.783 E304.7383
G1 X79.845 Y136.783 E309.3485
G1 X79.078 Y136.616 E309.43327
G1 X78.398 Y136.202 E309.51925
G1 X77.4 Y135.173 E309.67407
G1 X76.94 Y133.755 E309.83507
G1 X76.94 Y88.984 E314.67034
G1 X77.32 Y87.867 E314.79776
G1 X78.54 Y86.681 E314.98152
G0 F7200 X78.753 Y87.032
G1 F1800 X80.025 Y86.617 E315.12603
G1 X122.726 Y86.617 E319.73773
G1 X123.69 Y86.945 E319.84771
G1 X124.745 Y88.03 E320.01115
G1 X125.16 Y89.302 E320.15565
G1 X125.16 Y99.117 E321.21567
G1 X143.226 Y99.117 E323.1668
G1 X144.19 Y99.445 E323.27677
G1 X145.245 Y100.53 E323.44022
G1 X145.66 Y101.802 E323.58472
G1 X145.66 Y125.888 E326.18601
G1 X145.516 Y126.548 E326.25896
G1 X145.162 Y127.13 E326.33253
G1 X144.238 Y128.026 E326.47154
G1 X142.971 Y128.437 E326.61539
G1 X125.16 Y128.437 E328.53898
G1 X125.16 Y133.834 E329.12186
G1 X125.016 Y134.494 E329.19482
G1 X124.662 Y135.076 E329.26839
G1 X123.738 Y135.972 E329.40739
G1 X122.471 Y136.383 E329.55125
G1 X79.889 Y136.383 E334.1501
G1 X79.229 Y136.239 E334.22306
G1 X78.647 Y135.885 E334.29663
G1 X77.751 Y134.961 E334.43563
G1 X77.34 Y133.694 E334.57949
G1 X77.34 Y89.051 E339.40093
G1 X77.668 Y88.087 E339.51091
G1 X78.753 Y87.032 E339.67435
G0 F7200 X78.966 Y87.383
G1 F1800 X78.016 Y88.307 E339.81748
G1 X77.74 Y89.118 E339.91
G1 X77.74 Y133.633 E344.71762
G1 X78.102 Y134.749 E344.84433
G1 X78.896 Y135.568 E344.96752
G1 X79.38 Y135.862 E345.02868
G1 X79.933 Y135.983 E345.08982
G1 X122.41 Y135.983 E349.67734
G1 X123.526 Y135.621 E349.80405
G1 X124.345 Y134.827 E349.92724
G1 X124.639 Y134.343 E349.9884
G1 X124.76 Y133.79 E350.04954
G1 X124.76 Y128.037 E350.67086
G1 X142.91 Y128.037 E352.63106
G1 X144.026 Y127.675 E352.75777
G1 X144.845 Y126.881 E352.88097
G1 X145.139 Y126.397 E352.94213
G1 X145.26 Y125.844 E353.00327
G1 X145.26 Y101.865 E355.593
G1 X144.894 Y100.743 E355.72046
G1 X143.97 Y99.793 E355.86359
G1 X143.159 Y99.517 E355.95611
G1 X124.76 Y99.517 E357.9432
G1 X124.76 Y89.365 E359.03961
G1 X124.394 Y88.243 E359.16707
G1 X123.47 Y87.293 E359.3102
G1 X122.659 Y87.017 E359.40272
G1 X80.088 Y87.017 E364.00039
G1 X78.966 Y87.383 E364.12785
G0 F7200 X79.179 Y87.734
G1 F1800 X80.151 Y87.417 E364.23827
G1 X122.592 Y87.417 E368.8219
G1 X123.25 Y87.641 E368.89697
G1 X124.043 Y88.456 E369.01978
G1 X124.36 Y89.428 E369.13019
G1 X124.36 Y99.917 E370.26301
G1 X143.092 Y99.917 E372.28606
G1 X143.75 Y100.141 E372.36113
G1 X144.543 Y100.956 E372.48394
G1 X144.86 Y101.928 E372.59436
G1 X144.86 Y125.844 E375.17729
G1 X144.75 Y126.304 E375.22837
G1 X144.567 Y126.594 E375.2654
G1 X143.815 Y127.323 E375.37852
G1 X142.848 Y127.637 E375.48832
G1 X124.36 Y127.637 E377.48502
G1 X124.36 Y133.79 E378.14955
G1 X124.25 Y134.25 E378.20063
G1 X124.067 Y134.54 E378.23766
G1 X123.315 Y135.269 E378.35078
G1 X122.348 Y135.583 E378.46058
G1 X79.933 Y135.583 E383.0414
G1 X79.473 Y135.473 E383.09248
G1 X79.183 Y135.29 E383.12952
G1 X78.454 Y134.538 E383.24263
G1 X78.14 Y133.571 E383.35243
G1 X78.14 Y89.185 E388.14612
G1 X78.364 Y88.527 E388.22119
G1 X79.179 Y87.734 E388.344
G0 F7200 X79.392 Y88.085
G1 F1800 X80.214 Y87.817 E388.43738
G1 X122.525 Y87.817 E393.00696
G1 X123.03 Y87.989 E393.06458
G1 X123.692 Y88.669 E393.16708
G1 X123.96 Y89.491 E393.26045
G1 X123.96 Y100.317 E394.42966
G1 X143.025 Y100.317 E396.48868
G1 X143.53 Y100.489 E396.5463
G1 X144.192 Y101.169 E396.64879
G1 X144.46 Y101.991 E396.74217
G1 X144.46 Y125.804 E399.31397
G1 X144.401 Y126.108 E399.34741
G1 X144.289 Y126.307 E399.37208
G1 X143.604 Y126.971 E399.47511
G1 X142.786 Y127.237 E399.56801
G1 X123.96 Y127.237 E401.60121
G1 X123.96 Y133.75 E402.30462
G1 X123.901 Y134.054 E402.33806
G1 X123.789 Y134.253 E402.36272
G1 X123.104 Y134.917 E402.46576
G1 X122.286 Y135.183 E402.55865
G1 X79.973 Y135.183 E407.12846
G1 X79.669 Y135.124 E407.1619
G1 X79.47 Y135.012 E407.18657
G1 X78.806 Y134.327 E407.2896
G1 X78.54 Y133.509 E407.38249
G1 X78.54 Y89.252 E412.16225
G1 X78.712 Y88.747 E412.21987
G1 X79.392 Y88.085 E412.32236
G0 F7200 X79.605 Y88.436
G1 F1800 X80.277 Y88.217 E412.39869
G1 X122.525 Y88.217 E416.96148
G1 X122.743 Y88.268 E416.98566
G1 X123.341 Y88.882 E417.07822
G1 X123.56 Y89.554 E417.15456
G1 X123.56 Y100.717 E418.36016
G1 X143.025 Y100.717 E420.46238
G1 X143.243 Y100.768 E420.48656
G1 X143.841 Y101.382 E420.57913
G1 X144.06 Y102.054 E420.65546
G1 X144.06 Y125.804 E423.22046
G1 X144.011 Y126.02 E423.24438
G1 X143.393 Y126.619 E423.33733
G1 X142.723 Y126.837 E423.41342
G1 X123.56 Y126.837 E425.48303
G1 X123.56 Y133.75 E426.22963
G1 X123.511 Y133.966 E426.25355
G1 X122.893 Y134.565 E426.3465
G1 X122.223 Y134.783 E426.4226
G1 X79.973 Y134.783 E430.9856
G1 X79.757 Y134.734 E431.00952
G1 X79.158 Y134.116 E431.10247
G1 X78.94 Y133.446 E431.17856
G1 X78.94 Y89.252 E435.95151
G1 X78.991 Y89.034 E435.97569
G1 X79.605 Y88.436 E436.06826
