;FLAVOR:UltiGCode
;TIME:3102
;MATERIAL:3203
;MATERIAL2:0
;NOZZLE_DIAMETER:0.4
;MINX:86.04
;MINY:92.04
;MINZ:0.27
;MAXX:136.96
;MAXY:130.96
;MAXZ:22.97
;TARGET_MACHINE.NAME:Ultimaker 2+
;Generated with Cura_SteamEngine 5.6.0
M82 ;absolute extrusion mode
G0 F3000 Y50 ;avoid prime blob
G92 E0
G92 E0
G10
;LAYER_COUNT:228
;LAYER:0
M107
G0 F7200 X89.697 Y93.043 Z0.27
;TYPE:SKIRT
G11
G1 F1800 X92.769 Y92.04 E0.34901
G1 X130.53 Y92.04 E4.4272
G1 X133.148 Y92.93 E4.72584
G1 X133.464 Y93.13 E4.76622
G1 X135.957 Y95.697 E5.15269
G1 X136.96 Y98.769 E5.5017
G1 X136.96 Y124.139 E8.24166
G1 X136.54 Y126.067 E8.45477
G1 X135.43 Y127.887 E8.685
G1 X133.284 Y129.969 E9.00792
G1 X130.227 Y130.96 E9.35499
G1 X107.861 Y130.96 E11.77052
G1 X105.933 Y130.54 E11.98362
G1 X104.113 Y129.43 E12.21386
G1 X102.031 Y127.284 E12.53677
G1 X101.04 Y124.227 E12.88384
G1 X101.04 Y111.46 E14.26268
G1 X92.861 Y111.46 E15.14601
G1 X90.933 Y111.04 E15.35912
G1 X89.113 Y109.93 E15.58935
G1 X87.031 Y107.784 E15.91227
G1 X86.04 Y104.727 E16.25934
G1 X86.04 Y98.47 E16.9351
G1 X86.93 Y95.852 E17.23373
G1 X87.13 Y95.536 E17.27412
G1 X89.697 Y93.043 E17.66058
G0 F7200 X89.91 Y93.394
G1 F1800 X92.832 Y92.44 E17.99255
G1 X130.463 Y92.44 E22.0567
G1 X133.019 Y93.309 E22.34827
G1 X133.177 Y93.409 E22.36846
G1 X135.606 Y95.91 E22.74499
G1 X136.56 Y98.832 E23.07696
G1 X136.56 Y124.095 E25.80537
G1 X136.163 Y125.918 E26.00687
G1 X135.117 Y127.633 E26.22382
G1 X133.072 Y129.617 E26.53154
G1 X130.163 Y130.56 E26.86181
G1 X107.905 Y130.56 E29.26567
G1 X106.082 Y130.163 E29.46717
G1 X104.367 Y129.117 E29.68412
G1 X102.383 Y127.072 E29.99184
G1 X101.44 Y124.163 E30.32211
G1 X101.44 Y111.06 E31.73723
G1 X92.905 Y111.06 E32.65901
G1 X91.082 Y110.663 E32.86051
G1 X89.367 Y109.617 E33.07746
G1 X87.383 Y107.572 E33.38518
G1 X86.44 Y104.663 E33.71545
G1 X86.44 Y98.537 E34.37706
G1 X87.309 Y95.981 E34.66862
G1 X87.409 Y95.823 E34.68882
G1 X89.91 Y93.394 E35.06535
G0 F7200 X90.123 Y93.745
G1 F1800 X92.895 Y92.84 E35.38028
G1 X130.396 Y92.84 E39.43038
G1 X132.89 Y93.688 E39.71488
G1 X135.255 Y96.123 E40.08148
G1 X136.16 Y98.895 E40.39641
G1 X136.16 Y124.051 E43.11326
G1 X135.786 Y125.769 E43.30315
G1 X134.804 Y127.379 E43.50682
G1 X132.86 Y129.265 E43.79934
G1 X130.099 Y130.16 E44.1128
G1 X107.949 Y130.16 E46.505
G1 X106.231 Y129.786 E46.69489
G1 X104.621 Y128.804 E46.89857
G1 X102.735 Y126.86 E47.19109
G1 X101.84 Y124.099 E47.50455
G1 X101.84 Y110.66 E48.95596
G1 X92.949 Y110.66 E49.91619
G1 X91.231 Y110.286 E50.10608
G1 X89.621 Y109.304 E50.30975
G1 X87.735 Y107.36 E50.60227
G1 X86.84 Y104.599 E50.91574
G1 X86.84 Y98.604 E51.5632
G1 X87.688 Y96.11 E51.84769
G1 X90.123 Y93.745 E52.2143
G0 F7200 X90.336 Y94.096
G1 F1800 X92.958 Y93.24 E52.51218
G1 X130.329 Y93.24 E56.54825
G1 X132.67 Y94.036 E56.81529
G1 X134.904 Y96.336 E57.16158
G1 X135.76 Y98.958 E57.45946
G1 X135.76 Y124.007 E60.16476
G1 X135.409 Y125.62 E60.34304
G1 X134.491 Y127.125 E60.53343
G1 X132.648 Y128.913 E60.81075
G1 X130.035 Y129.76 E61.10741
G1 X107.993 Y129.76 E63.48795
G1 X106.38 Y129.409 E63.66623
G1 X104.875 Y128.491 E63.85662
G1 X103.087 Y126.648 E64.13394
G1 X102.24 Y124.035 E64.4306
G1 X102.24 Y110.26 E65.9183
G1 X92.993 Y110.26 E66.91698
G1 X91.38 Y109.909 E67.09526
G1 X89.875 Y108.991 E67.28565
G1 X88.087 Y107.148 E67.56297
G1 X87.24 Y104.535 E67.85963
G1 X87.24 Y98.671 E68.49294
G1 X88.036 Y96.33 E68.75999
G1 X90.336 Y94.096 E69.10627
G0 F7200 X90.549 Y94.447
G1 F1800 X93.021 Y93.64 E69.38712
G1 X130.262 Y93.64 E73.40914
G1 X132.45 Y94.384 E73.65873
G1 X134.553 Y96.549 E73.98471
G1 X135.36 Y99.021 E74.26555
G1 X135.36 Y123.963 E76.95928
G1 X135.032 Y125.471 E77.12596
G1 X134.178 Y126.871 E77.30307
G1 X132.436 Y128.561 E77.56519
G1 X129.971 Y129.36 E77.84505
G1 X108.037 Y129.36 E80.21392
G1 X106.529 Y129.032 E80.38059
G1 X105.129 Y128.178 E80.5577
G1 X103.439 Y126.436 E80.81982
G1 X102.64 Y123.971 E81.09968
G1 X102.64 Y109.86 E82.62367
G1 X93.037 Y109.86 E83.66079
G1 X91.529 Y109.532 E83.82746
G1 X90.129 Y108.678 E84.00457
G1 X88.439 Y106.936 E84.2667
G1 X87.64 Y104.471 E84.54655
G1 X87.64 Y98.738 E85.16572
G1 X88.384 Y96.55 E85.41531
G1 X90.549 Y94.447 E85.74128
G0 F7200 X90.762 Y94.798
G1 F1800 X93.084 Y94.04 E86.00508
G1 X130.195 Y94.04 E90.01307
G1 X132.23 Y94.732 E90.24521
G1 X134.202 Y96.762 E90.55086
G1 X134.96 Y99.084 E90.81466
G1 X134.96 Y123.919 E93.49684
G1 X134.655 Y125.322 E93.65191
G1 X133.865 Y126.617 E93.81574
G1 X132.224 Y128.209 E94.06266
G1 X129.907 Y128.96 E94.32571
G1 X108.081 Y128.96 E96.68292
G1 X106.678 Y128.655 E96.83798
G1 X105.383 Y127.865 E97.00181
G1 X103.791 Y126.224 E97.24874
G1 X103.04 Y123.907 E97.51179
G1 X103.04 Y109.46 E99.07207
G1 X93.081 Y109.46 E100.14764
G1 X91.678 Y109.155 E100.3027
G1 X90.383 Y108.365 E100.46653
G1 X88.791 Y106.724 E100.71346
G1 X88.04 Y104.407 E100.97651
G1 X88.04 Y98.805 E101.58153
G1 X88.732 Y96.77 E101.81367
G1 X90.762 Y94.798 E102.11932
G0 F7200 X90.975 Y95.149
G1 F1800 X93.147 Y94.44 E102.36608
G1 X130.128 Y94.44 E106.36003
G1 X132.01 Y95.08 E106.57471
G1 X133.851 Y96.975 E106.86005
G1 X134.56 Y99.147 E107.10681
G1 X134.56 Y123.875 E109.77743
G1 X134.278 Y125.173 E109.92089
G1 X133.552 Y126.363 E110.07144
G1 X132.012 Y127.857 E110.30316
G1 X129.843 Y128.56 E110.54941
G1 X108.125 Y128.56 E112.89496
G1 X106.827 Y128.278 E113.03841
G1 X105.637 Y127.552 E113.18896
G1 X104.143 Y126.012 E113.42068
G1 X103.44 Y123.843 E113.66693
G1 X103.44 Y109.06 E115.2635
G1 X93.125 Y109.06 E116.37752
G1 X91.827 Y108.778 E116.52097
G1 X90.637 Y108.052 E116.67152
G1 X89.143 Y106.512 E116.90325
G1 X88.44 Y104.343 E117.1495
G1 X88.44 Y98.872 E117.74036
G1 X89.08 Y96.99 E117.95505
G1 X90.975 Y95.149 E118.24039
G0 F7200 X91.188 Y95.5
G1 F1800 X93.21 Y94.84 E118.47011
G1 X130.061 Y94.84 E122.45001
G1 X131.79 Y95.428 E122.64725
G1 X133.5 Y97.188 E122.91227
G1 X134.16 Y99.21 E123.14199
G1 X134.16 Y123.831 E125.80105
G1 X133.901 Y125.024 E125.9329
G1 X133.239 Y126.109 E126.07017
G1 X131.8 Y127.505 E126.2867
G1 X129.779 Y128.16 E126.51614
G1 X108.169 Y128.16 E128.85002
G1 X106.976 Y127.901 E128.98187
G1 X105.891 Y127.239 E129.11913
G1 X104.495 Y125.8 E129.33566
G1 X103.84 Y123.779 E129.56511
G1 X103.84 Y108.66 E131.19796
G1 X93.169 Y108.66 E132.35043
G1 X91.976 Y108.401 E132.48227
G1 X90.891 Y107.739 E132.61954
G1 X89.495 Y106.3 E132.83607
G1 X88.84 Y104.279 E133.06551
G1 X88.84 Y98.939 E133.64223
G1 X89.428 Y97.21 E133.83947
G1 X91.188 Y95.5 E134.10449
G0 F7200 X91.401 Y95.851
G1 F1800 X93.273 Y95.24 E134.31716
G1 X129.994 Y95.24 E138.28303
G1 X131.57 Y95.776 E138.46281
G1 X133.149 Y97.401 E138.70752
G1 X133.76 Y99.273 E138.92019
G1 X133.76 Y123.787 E141.56771
G1 X133.524 Y124.875 E141.68794
G1 X132.926 Y125.855 E141.81193
G1 X131.588 Y127.153 E142.01326
G1 X129.715 Y127.76 E142.2259
G1 X108.213 Y127.76 E144.54812
G1 X107.125 Y127.524 E144.66835
G1 X106.145 Y126.926 E144.79234
G1 X104.847 Y125.588 E144.99367
G1 X104.24 Y123.715 E145.20631
G1 X104.24 Y108.26 E146.87545
G1 X93.213 Y108.26 E148.06637
G1 X92.125 Y108.024 E148.1866
G1 X91.145 Y107.426 E148.31059
G1 X89.847 Y106.088 E148.51192
G1 X89.24 Y104.215 E148.72456
G1 X89.24 Y99.006 E149.28713
G1 X89.776 Y97.43 E149.46692
G1 X91.401 Y95.851 E149.71162
G0 F7200 X91.614 Y96.202
G1 F1800 X93.336 Y95.64 E149.90725
G1 X129.927 Y95.64 E153.85908
G1 X131.35 Y96.124 E154.02141
G1 X132.798 Y97.614 E154.2458
G1 X133.36 Y99.336 E154.44143
G1 X133.36 Y123.743 E157.07739
G1 X133.147 Y124.724 E157.1858
G1 X132.611 Y125.603 E157.29699
G1 X131.375 Y126.802 E157.48297
G1 X129.654 Y127.36 E157.67836
G1 X108.257 Y127.36 E159.98924
G1 X107.276 Y127.147 E160.09766
G1 X106.397 Y126.611 E160.20885
G1 X105.198 Y125.375 E160.39482
G1 X104.64 Y123.654 E160.59022
G1 X104.64 Y107.86 E162.29597
G1 X93.257 Y107.86 E163.52533
G1 X92.276 Y107.647 E163.63375
G1 X91.397 Y107.111 E163.74494
G1 X90.198 Y105.875 E163.93091
G1 X89.64 Y104.154 E164.12631
G1 X89.64 Y99.073 E164.67506
G1 X90.124 Y97.65 E164.83739
G1 X91.614 Y96.202 E165.06178
G0 F7200 X91.827 Y96.553
G1 F1800 X93.399 Y96.04 E165.24036
G1 X129.86 Y96.04 E169.17815
G1 X131.13 Y96.472 E169.32303
G1 X132.447 Y97.827 E169.52711
G1 X132.96 Y99.399 E169.70569
G1 X132.96 Y123.699 E172.33009
G1 X132.77 Y124.573 E172.42669
G1 X132.296 Y125.351 E172.52508
G1 X131.162 Y126.451 E172.6957
G1 X129.593 Y126.96 E172.87385
G1 X108.301 Y126.96 E175.17339
G1 X107.427 Y126.77 E175.26998
G1 X106.649 Y126.296 E175.36837
G1 X105.549 Y125.162 E175.539
G1 X105.04 Y123.593 E175.71714
G1 X105.04 Y107.46 E177.45951
G1 X93.301 Y107.46 E178.72732
G1 X92.427 Y107.27 E178.82392
G1 X91.649 Y106.796 E178.92231
G1 X90.549 Y105.662 E179.09293
G1 X90.04 Y104.093 E179.27108
G1 X90.04 Y99.14 E179.806
G1 X90.472 Y97.87 E179.95088
G1 X91.827 Y96.553 E180.15495
G0 F7200 X92.04 Y96.904
G1 F1800 X93.462 Y96.44 E180.3165
G1 X129.793 Y96.44 E184.24025
G1 X130.91 Y96.82 E184.36767
G1 X132.096 Y98.04 E184.55143
G1 X132.56 Y99.462 E184.71298
G1 X132.56 Y123.655 E187.32582
G1 X132.393 Y124.422 E187.4106
G1 X131.979 Y125.102 E187.49658
G1 X130.95 Y126.1 E187.65139
G1 X129.532 Y126.56 E187.81239
G1 X108.345 Y126.56 E190.10059
G1 X107.578 Y126.393 E190.18537
G1 X106.898 Y125.979 E190.27135
G1 X105.9 Y124.95 E190.42616
G1 X105.44 Y123.532 E190.58716
G1 X105.44 Y107.06 E192.36614
G1 X93.345 Y107.06 E193.6724
G1 X92.578 Y106.893 E193.75717
G1 X91.898 Y106.479 E193.84316
G1 X90.9 Y105.45 E193.99797
G1 X90.44 Y104.032 E194.15897
G1 X90.44 Y99.207 E194.68007
G1 X90.82 Y98.09 E194.8075
G1 X92.04 Y96.904 E194.99126
G0 F7200 X92.253 Y97.255
G1 F1800 X93.525 Y96.84 E195.13576
G1 X129.726 Y96.84 E199.04547
G1 X130.69 Y97.168 E199.15544
G1 X131.745 Y98.253 E199.31888
G1 X132.16 Y99.525 E199.46338
G1 X132.16 Y123.611 E202.06467
G1 X132.016 Y124.271 E202.13763
G1 X131.662 Y124.853 E202.2112
G1 X130.738 Y125.749 E202.3502
G1 X129.471 Y126.16 E202.49406
G1 X108.389 Y126.16 E204.77092
G1 X107.729 Y126.016 E204.84387
G1 X107.147 Y125.662 E204.91744
G1 X106.251 Y124.738 E205.05645
G1 X105.84 Y123.471 E205.2003
G1 X105.84 Y106.66 E207.01589
G1 X93.389 Y106.66 E208.3606
G1 X92.729 Y106.516 E208.43356
G1 X92.147 Y106.162 E208.50713
G1 X91.251 Y105.238 E208.64613
G1 X90.84 Y103.971 E208.78999
G1 X90.84 Y99.274 E209.29726
G1 X91.168 Y98.31 E209.40724
G1 X92.253 Y97.255 E209.57068
G0 F7200 X92.466 Y97.606
G1 F1800 X93.588 Y97.24 E209.69814
G1 X129.659 Y97.24 E213.59381
G1 X130.47 Y97.516 E213.68633
G1 X131.394 Y98.466 E213.82946
G1 X131.76 Y99.588 E213.95692
G1 X131.76 Y123.567 E216.54665
G1 X131.639 Y124.12 E216.60778
G1 X131.345 Y124.604 E216.66894
G1 X130.526 Y125.398 E216.79214
G1 X129.41 Y125.76 E216.91885
G1 X108.433 Y125.76 E219.18437
G1 X107.88 Y125.639 E219.2455
G1 X107.396 Y125.345 E219.30666
G1 X106.602 Y124.526 E219.42986
G1 X106.24 Y123.41 E219.55657
G1 X106.24 Y106.26 E221.40877
G1 X93.433 Y106.26 E222.79193
G1 X92.88 Y106.139 E222.85306
G1 X92.396 Y105.845 E222.91422
G1 X91.602 Y105.026 E223.03742
G1 X91.24 Y103.91 E223.16413
G1 X91.24 Y99.341 E223.65758
G1 X91.516 Y98.53 E223.7501
G1 X92.466 Y97.606 E223.89323
G0 F7200 X92.679 Y97.957
G1 F1800 X93.651 Y97.64 E224.00365
G1 X129.592 Y97.64 E227.88527
G1 X130.25 Y97.864 E227.96034
G1 X131.043 Y98.679 E228.08315
G1 X131.36 Y99.651 E228.19357
G1 X131.36 Y123.567 E230.7765
G1 X131.25 Y124.027 E230.82758
G1 X131.067 Y124.317 E230.86461
G1 X130.315 Y125.046 E230.97773
G1 X129.348 Y125.36 E231.08753
G1 X108.433 Y125.36 E233.34635
G1 X107.973 Y125.25 E233.39743
G1 X107.683 Y125.067 E233.43447
G1 X106.954 Y124.315 E233.54758
G1 X106.64 Y123.348 E233.65739
G1 X106.64 Y105.86 E235.54609
G1 X93.433 Y105.86 E236.97245
G1 X92.973 Y105.75 E237.02353
G1 X92.683 Y105.567 E237.06056
G1 X91.954 Y104.815 E237.17367
G1 X91.64 Y103.848 E237.28348
G1 X91.64 Y99.408 E237.763
G1 X91.864 Y98.75 E237.83807
G1 X92.679 Y97.957 E237.96088
G0 F7200 X92.892 Y98.308
G1 F1800 X93.714 Y98.04 E238.05425
G1 X129.525 Y98.04 E241.92184
G1 X130.03 Y98.212 E241.97946
G1 X130.692 Y98.892 E242.08195
G1 X130.96 Y99.714 E242.17533
G1 X130.96 Y123.527 E244.74713
G1 X130.901 Y123.831 E244.78058
G1 X130.789 Y124.03 E244.80524
G1 X130.104 Y124.694 E244.90827
G1 X129.286 Y124.96 E245.00117
G1 X108.473 Y124.96 E247.24897
G1 X108.169 Y124.901 E247.28242
G1 X107.97 Y124.789 E247.30708
G1 X107.306 Y124.104 E247.41011
G1 X107.04 Y123.286 E247.50301
G1 X107.04 Y105.46 E249.42822
G1 X93.473 Y105.46 E250.89345
G1 X93.169 Y105.401 E250.9269
G1 X92.97 Y105.289 E250.95156
G1 X92.306 Y104.604 E251.05459
G1 X92.04 Y103.786 E251.14749
G1 X92.04 Y99.475 E251.61308
G1 X92.212 Y98.97 E251.67069
G1 X92.892 Y98.308 E251.77319
G0 F7200 X93.105 Y98.659
G1 F1800 X93.777 Y98.44 E251.84952
G1 X129.525 Y98.44 E255.71031
G1 X129.743 Y98.491 E255.73448
G1 X130.341 Y99.105 E255.82705
G1 X130.56 Y99.777 E255.90338
G1 X130.56 Y123.527 E258.46838
G1 X130.511 Y123.743 E258.4923
G1 X129.893 Y124.342 E258.58525
G1 X129.223 Y124.56 E258.66135
G1 X108.473 Y124.56 E260.90235
G1 X108.257 Y124.511 E260.92627
G1 X107.658 Y123.893 E261.01922
G1 X107.44 Y123.223 E261.09531
G1 X107.44 Y105.06 E263.05692
G1 X93.473 Y105.06 E264.56535
G1 X93.257 Y105.011 E264.58927
G1 X92.658 Y104.393 E264.68222
G1 X92.44 Y103.723 E264.75832
G1 X92.44 Y99.475 E265.2171
G1 X92.491 Y99.257 E265.24128
G1 X93.105 Y98.659 E265.33385
G0 F7200 X93.318 Y99.01
G1 F1800 X93.84 Y98.84 E265.39314
G1 X129.525 Y98.84 E269.24712
G1 X129.99 Y99.318 E269.31914
G1 X130.16 Y99.84 E269.37843
G1 X130.16 Y123.527 E271.93663
G1 X129.682 Y123.99 E272.0085
G1 X129.16 Y124.16 E272.06779
G1 X108.473 Y124.16 E274.30198
G1 X108.01 Y123.682 E274.37385
G1 X107.84 Y123.16 E274.43314
G1 X107.84 Y104.66 E276.43114
G1 X93.473 Y104.66 E277.98278
G1 X93.01 Y104.182 E278.05465
G1 X92.84 Y103.66 E278.11394
G1 X92.84 Y99.475 E278.56592
G1 X93.318 Y99.01 E278.63794
G0 F7200 X93.64 Y99.741
G1 F1800 X93.84 Y99.64 E278.66214
G1 X129.259 Y99.64 E282.48739
G1 X129.36 Y99.84 E282.51159
G1 X129.36 Y123.259 E285.04084
G1 X129.16 Y123.36 E285.06504
G1 X108.741 Y123.36 E287.27029
G1 X108.64 Y123.16 E287.29449
G1 X108.64 Y103.86 E289.37889
G1 X93.741 Y103.86 E290.98798
G1 X93.64 Y103.66 E291.01218
G1 X93.64 Y99.741 E291.43543
G0 F7200 X93.46 Y99.384
G1 F1800 X93.84 Y99.24 E291.47932
G1 X129.391 Y99.24 E295.31883
G1 X129.616 Y99.46 E295.35282
G1 X129.76 Y99.84 E295.3967
G1 X129.76 Y123.392 E297.94032
G1 X129.54 Y123.616 E297.97423
G1 X129.16 Y123.76 E298.01812
G1 X108.608 Y123.76 E300.23773
G1 X108.384 Y123.54 E300.27164
G1 X108.24 Y123.16 E300.31553
G1 X108.24 Y104.26 E302.35673
G1 X93.608 Y104.26 E303.93698
G1 X93.384 Y104.04 E303.97089
G1 X93.24 Y103.66 E304.01478
G1 X93.24 Y99.609 E304.45229
G1 X93.46 Y99.384 E304.48627
G10
;MESH:Body1.stl
G0 F7200 X94.56 Y100.56
G0 X109.04 Y122.96
;TYPE:WALL-OUTER
G11
G1 F1800 X128.96 Y122.96 E306.85277
G1 X128.96 Y100.04 E309.57567
G1 X94.04 Y100.04 E313.72416
G1 X94.04 Y103.46 E314.13046
G1 X108.845 Y103.46 E315.88929
G1 X109.036 Y103.706 E315.92629
G1 X109.04 Y122.96 E318.21367
G0 F7200 X109.24 Y122.96
G0 X109.44 Y122.56
;TYPE:WALL-INNER
G1 F1800 X128.56 Y122.56 E320.17538
G1 X128.56 Y100.44 E322.44489
G1 X94.44 Y100.44 E325.9456
G1 X94.44 Y103.06 E326.21441
G1 X108.791 Y103.06 E327.68683
G1 X109.021 Y103.105 E327.71087
G1 X109.204 Y103.224 E327.73327
G1 X109.44 Y103.65 E327.78324
G1 X109.44 Y122.56 E329.7234
G0 F7200 X109.76 Y122.24
;TYPE:SKIN
G1 F1200 X128.24 Y122.24 E331.52465
G1 X128.24 Y100.76 E333.6183
G1 X94.76 Y100.76 E336.8816
G1 X94.76 Y102.74 E337.07459
G1 X108.82 Y102.743 E338.44502
G1 X109.175 Y102.826 E338.48055
G1 X109.459 Y103.038 E338.5151
G1 X109.755 Y103.575 E338.57486
G1 X109.76 Y122.24 E340.39414
G0 F7200 X110.159 Y122.038
G1 F1200 X109.959 Y121.838 E340.42171
G0 F7200 X109.959 Y121.273
G1 F1200 X110.725 Y122.038 E340.52723
G0 F7200 X111.29 Y122.038
G1 F1200 X109.959 Y120.707 E340.7107
G0 F7200 X109.959 Y120.141
G1 F1200 X111.856 Y122.038 E340.97219
G0 F7200 X112.422 Y122.038
G1 F1200 X109.959 Y119.575 E341.31169
G0 F7200 X109.959 Y119.01
G1 F1200 X112.987 Y122.038 E341.72908
G0 F7200 X113.553 Y122.038
G1 F1200 X109.959 Y118.444 E342.22449
G0 F7200 X109.959 Y117.878
