;FLAVOR:UltiGCode
;TIME:1646
;MATERIAL:3025
;MATERIAL2:0
;NOZZLE_DIAMETER:0.4
;MINX:86.045
;MINY:92.045
;MINZ:0.27
;MAXX:136.955
;MAXY:130.955
;MAXZ:23.07
;TARGET_MACHINE.NAME:Ultimaker 2+
;Generated with Cura_SteamEngine 5.6.0
M82 ;absolute extrusion mode
G0 F3000 Y50 ;avoid prime blob
G92 E0
G92 E0
G10
;LAYER_COUNT:153
;LAYER:0
M107
G0 F9000 X89.702 Y93.048 Z0.27
;TYPE:SKIRT
G11
G1 F1800 X92.774 Y92.045 E0.34901
G1 X130.525 Y92.045 E4.42612
G1 X133.143 Y92.935 E4.72476
G1 X133.459 Y93.135 E4.76514
G1 X135.952 Y95.702 E5.15161
G1 X136.955 Y98.774 E5.50062
G1 X136.955 Y124.134 E8.2395
G1 X136.535 Y126.062 E8.45261
G1 X135.425 Y127.882 E8.68284
G1 X133.279 Y129.964 E9.00576
G1 X130.222 Y130.955 E9.35283
G1 X107.866 Y130.955 E11.76728
G1 X105.938 Y130.535 E11.98038
G1 X104.118 Y129.425 E12.21062
G1 X102.036 Y127.279 E12.53353
G1 X101.045 Y124.222 E12.8806
G1 X101.045 Y111.455 E14.25944
G1 X92.866 Y111.455 E15.14277
G1 X90.938 Y111.035 E15.35588
G1 X89.118 Y109.925 E15.58611
G1 X87.036 Y107.779 E15.90903
G1 X86.045 Y104.722 E16.2561
G1 X86.045 Y98.475 E16.93078
G1 X86.935 Y95.857 E17.22941
G1 X87.135 Y95.541 E17.2698
G1 X89.702 Y93.048 E17.65626
G0 F9000 X89.915 Y93.399
G1 F1800 X92.837 Y92.445 E17.98823
G1 X130.458 Y92.445 E22.0513
G1 X133.014 Y93.314 E22.34287
G1 X133.172 Y93.414 E22.36306
G1 X135.601 Y95.915 E22.73959
G1 X136.555 Y98.837 E23.07156
G1 X136.555 Y124.09 E25.79889
G1 X136.158 Y125.913 E26.00039
G1 X135.112 Y127.628 E26.21734
G1 X133.067 Y129.612 E26.52506
G1 X130.158 Y130.555 E26.85533
G1 X107.91 Y130.555 E29.25811
G1 X106.087 Y130.158 E29.45961
G1 X104.372 Y129.112 E29.67656
G1 X102.388 Y127.067 E29.98428
G1 X101.445 Y124.158 E30.31455
G1 X101.445 Y111.055 E31.72967
G1 X92.91 Y111.055 E32.65145
G1 X91.087 Y110.658 E32.85295
G1 X89.372 Y109.612 E33.0699
G1 X87.388 Y107.567 E33.37762
G1 X86.445 Y104.658 E33.70789
G1 X86.445 Y98.542 E34.36842
G1 X87.314 Y95.986 E34.65998
G1 X87.414 Y95.828 E34.68018
G1 X89.915 Y93.399 E35.05671
G0 F9000 X90.128 Y93.75
G1 F1800 X92.9 Y92.845 E35.37164
G1 X130.391 Y92.845 E39.42066
G1 X132.885 Y93.693 E39.70516
G1 X135.25 Y96.128 E40.07176
G1 X136.155 Y98.9 E40.38669
G1 X136.155 Y124.046 E43.10246
G1 X135.781 Y125.764 E43.29235
G1 X134.799 Y127.374 E43.49602
G1 X132.855 Y129.26 E43.78854
G1 X130.094 Y130.155 E44.102
G1 X107.954 Y130.155 E46.49312
G1 X106.236 Y129.781 E46.68301
G1 X104.626 Y128.799 E46.88669
G1 X102.74 Y126.855 E47.17921
G1 X101.845 Y124.094 E47.49267
G1 X101.845 Y110.655 E48.94408
G1 X92.954 Y110.655 E49.90431
G1 X91.236 Y110.281 E50.0942
G1 X89.626 Y109.299 E50.29787
G1 X87.74 Y107.355 E50.59039
G1 X86.845 Y104.594 E50.90386
G1 X86.845 Y98.609 E51.55024
G1 X87.693 Y96.115 E51.83473
G1 X90.128 Y93.75 E52.20134
G0 F9000 X90.341 Y94.101
G1 F1800 X92.963 Y93.245 E52.49922
G1 X130.324 Y93.245 E56.53421
G1 X132.665 Y94.041 E56.80125
G1 X134.899 Y96.341 E57.14754
G1 X135.755 Y98.963 E57.44542
G1 X135.755 Y124.002 E60.14964
G1 X135.404 Y125.615 E60.32792
G1 X134.486 Y127.12 E60.51831
G1 X132.643 Y128.908 E60.79563
G1 X130.03 Y129.755 E61.09229
G1 X107.998 Y129.755 E63.47175
G1 X106.385 Y129.404 E63.65003
G1 X104.88 Y128.486 E63.84042
G1 X103.092 Y126.643 E64.11774
G1 X102.245 Y124.03 E64.4144
G1 X102.245 Y110.255 E65.9021
G1 X92.998 Y110.255 E66.90078
G1 X91.385 Y109.904 E67.07906
G1 X89.88 Y108.986 E67.26945
G1 X88.092 Y107.143 E67.54677
G1 X87.245 Y104.53 E67.84343
G1 X87.245 Y98.676 E68.47566
G1 X88.041 Y96.335 E68.74271
G1 X90.341 Y94.101 E69.08899
G0 F9000 X90.554 Y94.452
G1 F1800 X93.026 Y93.645 E69.36984
G1 X130.257 Y93.645 E73.39078
G1 X132.445 Y94.389 E73.64037
G1 X134.548 Y96.554 E73.96635
G1 X135.355 Y99.026 E74.24719
G1 X135.355 Y123.958 E76.93984
G1 X135.027 Y125.466 E77.10652
G1 X134.173 Y126.866 E77.28363
G1 X132.431 Y128.556 E77.54575
G1 X129.966 Y129.355 E77.82561
G1 X108.042 Y129.355 E80.1934
G1 X106.534 Y129.027 E80.36007
G1 X105.134 Y128.173 E80.53718
G1 X103.444 Y126.431 E80.7993
G1 X102.645 Y123.966 E81.07916
G1 X102.645 Y109.855 E82.60315
G1 X93.042 Y109.855 E83.64027
G1 X91.534 Y109.527 E83.80694
G1 X90.134 Y108.673 E83.98405
G1 X88.444 Y106.931 E84.24618
G1 X87.645 Y104.466 E84.52603
G1 X87.645 Y98.743 E85.14412
G1 X88.389 Y96.555 E85.39371
G1 X90.554 Y94.452 E85.71968
G0 F9000 X90.767 Y94.803
G1 F1800 X93.089 Y94.045 E85.98348
G1 X130.19 Y94.045 E89.99039
G1 X132.225 Y94.737 E90.22253
G1 X134.197 Y96.767 E90.52818
G1 X134.955 Y99.089 E90.79198
G1 X134.955 Y123.914 E93.47308
G1 X134.65 Y125.317 E93.62815
G1 X133.86 Y126.612 E93.79198
G1 X132.219 Y128.204 E94.0389
G1 X129.902 Y128.955 E94.30195
G1 X108.086 Y128.955 E96.65808
G1 X106.683 Y128.65 E96.81314
G1 X105.388 Y127.86 E96.97697
G1 X103.796 Y126.219 E97.2239
G1 X103.045 Y123.902 E97.48695
G1 X103.045 Y109.455 E99.04723
G1 X93.086 Y109.455 E100.1228
G1 X91.683 Y109.15 E100.27786
G1 X90.388 Y108.36 E100.44169
G1 X88.796 Y106.719 E100.68862
G1 X88.045 Y104.402 E100.95167
G1 X88.045 Y98.81 E101.55561
G1 X88.737 Y96.775 E101.78775
G1 X90.767 Y94.803 E102.0934
G0 F9000 X90.98 Y95.154
G1 F1800 X93.152 Y94.445 E102.34016
G1 X130.123 Y94.445 E106.33303
G1 X132.005 Y95.085 E106.54771
G1 X133.846 Y96.98 E106.83305
G1 X134.555 Y99.152 E107.07981
G1 X134.555 Y123.87 E109.74935
G1 X134.273 Y125.168 E109.89281
G1 X133.547 Y126.358 E110.04336
G1 X132.007 Y127.852 E110.27508
G1 X129.838 Y128.555 E110.52133
G1 X108.13 Y128.555 E112.8658
G1 X106.832 Y128.273 E113.00925
G1 X105.642 Y127.547 E113.1598
G1 X104.148 Y126.007 E113.39152
G1 X103.445 Y123.838 E113.63777
G1 X103.445 Y109.055 E115.23434
G1 X93.13 Y109.055 E116.34836
G1 X91.832 Y108.773 E116.49181
G1 X90.642 Y108.047 E116.64236
G1 X89.148 Y106.507 E116.87409
G1 X88.445 Y104.338 E117.12034
G1 X88.445 Y98.877 E117.71012
G1 X89.085 Y96.995 E117.92481
G1 X90.98 Y95.154 E118.21015
G0 F9000 X91.193 Y95.505
G1 F1800 X93.215 Y94.845 E118.43987
G1 X130.056 Y94.845 E122.41869
G1 X131.785 Y95.433 E122.61593
G1 X133.495 Y97.193 E122.88095
G1 X134.155 Y99.215 E123.11067
G1 X134.155 Y123.826 E125.76865
G1 X133.896 Y125.019 E125.9005
G1 X133.234 Y126.104 E126.03777
G1 X131.795 Y127.5 E126.2543
G1 X129.774 Y128.155 E126.48374
G1 X108.174 Y128.155 E128.81654
G1 X106.981 Y127.896 E128.94839
G1 X105.896 Y127.234 E129.08565
G1 X104.5 Y125.795 E129.30218
G1 X103.845 Y123.774 E129.53163
G1 X103.845 Y108.655 E131.16448
G1 X93.174 Y108.655 E132.31695
G1 X91.981 Y108.396 E132.44879
G1 X90.896 Y107.734 E132.58606
G1 X89.5 Y106.295 E132.80259
G1 X88.845 Y104.274 E133.03203
G1 X88.845 Y98.944 E133.60767
G1 X89.433 Y97.215 E133.80491
G1 X91.193 Y95.505 E134.06993
G0 F9000 X91.406 Y95.856
G1 F1800 X93.278 Y95.245 E134.2826
G1 X129.989 Y95.245 E138.24739
G1 X131.565 Y95.781 E138.42717
G1 X133.144 Y97.406 E138.67188
G1 X133.755 Y99.278 E138.88455
G1 X133.755 Y123.782 E141.53099
G1 X133.519 Y124.87 E141.65122
G1 X132.921 Y125.85 E141.77521
G1 X131.583 Y127.148 E141.97654
G1 X129.71 Y127.755 E142.18918
G1 X108.218 Y127.755 E144.51032
G1 X107.13 Y127.519 E144.63055
G1 X106.15 Y126.921 E144.75454
G1 X104.852 Y125.583 E144.95587
G1 X104.245 Y123.71 E145.16851
G1 X104.245 Y108.255 E146.83765
G1 X93.218 Y108.255 E148.02857
G1 X92.13 Y108.019 E148.1488
G1 X91.15 Y107.421 E148.27279
G1 X89.852 Y106.083 E148.47412
G1 X89.245 Y104.21 E148.68676
G1 X89.245 Y99.011 E149.24825
G1 X89.781 Y97.435 E149.42804
G1 X91.406 Y95.856 E149.67274
G0 F9000 X91.619 Y96.207
G1 F1800 X93.341 Y95.645 E149.86837
G1 X129.922 Y95.645 E153.81912
G1 X131.345 Y96.129 E153.98145
G1 X132.793 Y97.619 E154.20584
G1 X133.355 Y99.341 E154.40147
G1 X133.355 Y123.738 E157.03635
G1 X133.142 Y124.719 E157.14476
G1 X132.606 Y125.598 E157.25595
G1 X131.37 Y126.797 E157.44193
G1 X129.649 Y127.355 E157.63732
G1 X108.262 Y127.355 E159.94712
G1 X107.281 Y127.142 E160.05554
G1 X106.402 Y126.606 E160.16673
G1 X105.203 Y125.37 E160.3527
G1 X104.645 Y123.649 E160.5481
G1 X104.645 Y107.855 E162.25385
G1 X93.262 Y107.855 E163.48321
G1 X92.281 Y107.642 E163.59163
G1 X91.402 Y107.106 E163.70282
G1 X90.203 Y105.87 E163.88879
G1 X89.645 Y104.149 E164.08419
G1 X89.645 Y99.078 E164.63186
G1 X90.129 Y97.655 E164.79419
G1 X91.619 Y96.207 E165.01858
G0 F9000 X91.832 Y96.558
G1 F1800 X93.404 Y96.045 E165.19716
G1 X129.855 Y96.045 E169.13387
G1 X131.125 Y96.477 E169.27875
G1 X132.442 Y97.832 E169.48283
G1 X132.955 Y99.404 E169.66141
G1 X132.955 Y123.694 E172.28473
G1 X132.765 Y124.568 E172.38133
G1 X132.291 Y125.346 E172.47972
G1 X131.157 Y126.446 E172.65034
G1 X129.588 Y126.955 E172.82849
G1 X108.306 Y126.955 E175.12695
G1 X107.432 Y126.765 E175.22354
G1 X106.654 Y126.291 E175.32193
G1 X105.554 Y125.157 E175.49256
G1 X105.045 Y123.588 E175.6707
G1 X105.045 Y107.455 E177.41307
G1 X93.306 Y107.455 E178.68088
G1 X92.432 Y107.265 E178.77748
G1 X91.654 Y106.791 E178.87587
G1 X90.554 Y105.657 E179.04649
G1 X90.045 Y104.088 E179.22464
G1 X90.045 Y99.145 E179.75848
G1 X90.477 Y97.875 E179.90336
G1 X91.832 Y96.558 E180.10743
G0 F9000 X92.045 Y96.909
G1 F1800 X93.467 Y96.445 E180.26898
G1 X129.788 Y96.445 E184.19165
G1 X130.905 Y96.825 E184.31907
G1 X132.091 Y98.045 E184.50283
G1 X132.555 Y99.467 E184.66438
G1 X132.555 Y123.65 E187.27614
G1 X132.388 Y124.417 E187.36092
G1 X131.974 Y125.097 E187.4469
G1 X130.945 Y126.095 E187.60171
G1 X129.527 Y126.555 E187.76271
G1 X108.35 Y126.555 E190.04983
G1 X107.583 Y126.388 E190.13461
G1 X106.903 Y125.974 E190.22059
G1 X105.905 Y124.945 E190.3754
G1 X105.445 Y123.527 E190.5364
G1 X105.445 Y107.055 E192.31538
G1 X93.35 Y107.055 E193.62164
G1 X92.583 Y106.888 E193.70641
G1 X91.903 Y106.474 E193.7924
G1 X90.905 Y105.445 E193.94721
G1 X90.445 Y104.027 E194.10821
G1 X90.445 Y99.212 E194.62823
G1 X90.825 Y98.095 E194.75566
G1 X92.045 Y96.909 E194.93942
G0 F9000 X92.258 Y97.26
G1 F1800 X93.53 Y96.845 E195.08392
G1 X129.721 Y96.845 E198.99255
G1 X130.685 Y97.173 E199.10252
G1 X131.74 Y98.258 E199.26596
G1 X132.155 Y99.53 E199.41046
G1 X132.155 Y123.606 E202.01067
G1 X132.011 Y124.266 E202.08363
G1 X131.657 Y124.848 E202.1572
G1 X130.733 Y125.744 E202.2962
G1 X129.466 Y126.155 E202.44006
G1 X108.394 Y126.155 E204.71584
G1 X107.734 Y126.011 E204.78879
G1 X107.152 Y125.657 E204.86236
G1 X106.256 Y124.733 E205.00137
G1 X105.845 Y123.466 E205.14522
G1 X105.845 Y106.655 E206.96081
G1 X93.394 Y106.655 E208.30552
G1 X92.734 Y106.511 E208.37848
G1 X92.152 Y106.157 E208.45205
G1 X91.256 Y105.233 E208.59105
G1 X90.845 Y103.966 E208.73491
G1 X90.845 Y99.279 E209.2411
G1 X91.173 Y98.315 E209.35108
G1 X92.258 Y97.26 E209.51452
G0 F9000 X92.471 Y97.611
G1 F1800 X93.593 Y97.245 E209.64198
G1 X129.654 Y97.245 E213.53657
G1 X130.465 Y97.521 E213.62909
G1 X131.389 Y98.471 E213.77222
G1 X131.755 Y99.593 E213.89968
G1 X131.755 Y123.562 E216.48833
G1 X131.634 Y124.115 E216.54946
G1 X131.34 Y124.599 E216.61062
G1 X130.521 Y125.393 E216.73382
G1 X129.405 Y125.755 E216.86053
G1 X108.438 Y125.755 E219.12497
G1 X107.885 Y125.634 E219.1861
G1 X107.401 Y125.34 E219.24726
G1 X106.607 Y124.521 E219.37046
G1 X106.245 Y123.405 E219.49717
G1 X106.245 Y106.255 E221.34937
G1 X93.438 Y106.255 E222.73253
G1 X92.885 Y106.134 E222.79366
G1 X92.401 Y105.84 E222.85482
G1 X91.607 Y105.021 E222.97802
G1 X91.245 Y103.905 E223.10473
G1 X91.245 Y99.346 E223.5971
G1 X91.521 Y98.535 E223.68962
G1 X92.471 Y97.611 E223.83275
G0 F9000 X92.684 Y97.962
G1 F1800 X93.656 Y97.645 E223.94317
G1 X129.587 Y97.645 E227.82371
G1 X130.245 Y97.869 E227.89878
G1 X131.038 Y98.684 E228.02159
G1 X131.355 Y99.656 E228.13201
G1 X131.355 Y123.562 E230.71386
G1 X131.245 Y124.022 E230.76494
G1 X131.062 Y124.312 E230.80197
G1 X130.31 Y125.041 E230.91509
G1 X129.343 Y125.355 E231.02489
G1 X108.438 Y125.355 E233.28263
G1 X107.978 Y125.245 E233.33371
G1 X107.688 Y125.062 E233.37075
G1 X106.959 Y124.31 E233.48386
G1 X106.645 Y123.343 E233.59367
G1 X106.645 Y105.855 E235.48237
G1 X93.438 Y105.855 E236.90873
G1 X92.978 Y105.745 E236.95981
G1 X92.688 Y105.562 E236.99684
G1 X91.959 Y104.81 E237.10995
G1 X91.645 Y103.843 E237.21976
G1 X91.645 Y99.413 E237.6982
G1 X91.869 Y98.755 E237.77327
G1 X92.684 Y97.962 E237.89608
G0 F9000 X92.897 Y98.313
G1 F1800 X93.719 Y98.045 E237.98945
G1 X129.52 Y98.045 E241.85596
G1 X130.025 Y98.217 E241.91358
G1 X130.687 Y98.897 E242.01607
G1 X130.955 Y99.719 E242.10945
G1 X130.955 Y123.522 E244.68017
G1 X130.896 Y123.826 E244.71362
G1 X130.784 Y124.025 E244.73828
G1 X130.099 Y124.689 E244.84131
G1 X129.281 Y124.955 E244.93421
G1 X108.478 Y124.955 E247.18093
G1 X108.174 Y124.896 E247.21438
G1 X107.975 Y124.784 E247.23904
G1 X107.311 Y124.099 E247.34207
G1 X107.045 Y123.281 E247.43497
G1 X107.045 Y105.455 E249.36018
G1 X93.478 Y105.455 E250.82541
G1 X93.174 Y105.396 E250.85886
G1 X92.975 Y105.284 E250.88352
G1 X92.311 Y104.599 E250.98655
G1 X92.045 Y103.781 E251.07945
G1 X92.045 Y99.48 E251.54396
G1 X92.217 Y98.975 E251.60157
G1 X92.897 Y98.313 E251.70407
G0 F9000 X93.11 Y98.664
G1 F1800 X93.782 Y98.445 E251.7804
G1 X129.52 Y98.445 E255.64011
G1 X129.738 Y98.496 E255.66428
G1 X130.336 Y99.11 E255.75685
G1 X130.555 Y99.782 E255.83318
G1 X130.555 Y123.522 E258.3971
G1 X130.506 Y123.738 E258.42102
G1 X129.888 Y124.337 E258.51397
G1 X129.218 Y124.555 E258.59007
G1 X108.478 Y124.555 E260.82999
G1 X108.262 Y124.506 E260.85391
G1 X107.663 Y123.888 E260.94686
G1 X107.445 Y123.218 E261.02295
G1 X107.445 Y105.055 E262.98456
G1 X93.478 Y105.055 E264.49299
G1 X93.262 Y105.006 E264.51691
G1 X92.663 Y104.388 E264.60986
G1 X92.445 Y103.718 E264.68596
G1 X92.445 Y99.48 E265.14366
G1 X92.496 Y99.262 E265.16784
G1 X93.11 Y98.664 E265.26041
G0 F9000 X93.323 Y99.015
G1 F1800 X93.845 Y98.845 E265.3197
G1 X129.52 Y98.845 E269.1726
G1 X129.985 Y99.323 E269.24462
G1 X130.155 Y99.845 E269.30391
G1 X130.155 Y123.522 E271.86103
G1 X129.677 Y123.985 E271.9329
G1 X129.155 Y124.155 E271.99219
G1 X108.478 Y124.155 E274.2253
G1 X108.015 Y123.677 E274.29717
G1 X107.845 Y123.155 E274.35646
G1 X107.845 Y104.655 E276.35446
G1 X93.478 Y104.655 E277.9061
G1 X93.015 Y104.177 E277.97797
G1 X92.845 Y103.655 E278.03726
G1 X92.845 Y99.48 E278.48816
G1 X93.323 Y99.015 E278.56018
G0 F9000 X93.645 Y99.746
G1 F1800 X93.845 Y99.645 E278.58438
G1 X129.254 Y99.645 E282.40855
G1 X129.355 Y99.845 E282.43275
G1 X129.355 Y123.254 E284.96092
G1 X129.155 Y123.355 E284.98512
G1 X108.746 Y123.355 E287.18929
G1 X108.645 Y123.155 E287.21349
G1 X108.645 Y103.855 E289.29789
G1 X93.746 Y103.855 E290.90698
G1 X93.645 Y103.655 E290.93118
G1 X93.645 Y99.746 E291.35335
G0 F9000 X93.465 Y99.389
G1 F1800 X93.845 Y99.245 E291.39724
G1 X129.386 Y99.245 E295.23567
G1 X129.611 Y99.465 E295.26966
G1 X129.755 Y99.845 E295.31354
G1 X129.755 Y123.387 E297.85608
G1 X129.535 Y123.611 E297.88999
G1 X129.155 Y123.755 E297.93388
G1 X108.613 Y123.755 E300.15241
G1 X108.389 Y123.535 E300.18632
G1 X108.245 Y123.155 E300.23021
G1 X108.245 Y104.255 E302.27141
G1 X93.613 Y104.255 E303.85166
G1 X93.389 Y104.035 E303.88557
G1 X93.245 Y103.655 E303.92946
G1 X93.245 Y99.614 E304.36589
G1 X93.465 Y99.389 E304.39987
G10
;MESH:EndWithWheelv2 v2.stl
G0 F9000 X94.565 Y100.565
G0 X109.045 Y122.955
;TYPE:WALL-OUTER
G11
G1 F1800 X128.955 Y122.955 E306.76518
G1 X128.955 Y100.045 E309.48689
G1 X94.045 Y100.045 E313.6342
G1 X94.045 Y103.455 E314.03931
G1 X108.855 Y103.455 E315.79873
G1 X109.041 Y103.707 E315.83594
G1 X109.045 Y122.955 E318.12261
G0 F9000 X109.245 Y122.955
G0 X109.445 Y122.555
;TYPE:WALL-INNER
G1 F1800 X128.555 Y122.555 E320.08329
G1 X128.555 Y100.445 E322.35178
G1 X94.445 Y100.445 E325.85146
G1 X94.445 Y103.055 E326.11925
G1 X108.799 Y103.055 E327.59197
G1 X109.039 Y103.104 E327.6171
G1 X109.225 Y103.231 E327.64021
G1 X109.445 Y103.655 E327.68922
G1 X109.445 Y122.555 E329.62836
G0 F9000 X109.765 Y122.235
;TYPE:SKIN
G1 F1800 X128.235 Y122.235 E331.42863
G1 X128.235 Y100.765 E333.52131
G1 X94.765 Y100.765 E336.78363
G1 X94.765 Y102.735 E336.97565
G1 X108.836 Y102.739 E338.34715
G1 X109.199 Y102.83 E338.38363
G1 X109.484 Y103.052 E338.41884
G1 X109.761 Y103.604 E338.47904
G1 X109.765 Y122.235 E340.295
G0 F9000 X110.154 Y122.033
G1 F1800 X109.964 Y121.843 E340.32119
G0 F9000 X109.964 Y121.278
G1 F1800 X110.72 Y122.033 E340.42533
