;FLAVOR:UltiGCode
;TIME:3505
;MATERIAL:6593
;MATERIAL2:0
;NOZZLE_DIAMETER:0.4
;MINX:72.545
;MINY:81.822
;MINZ:0.27
;MAXX:150.455
;MAXY:141.178
;MAXZ:23.07
;TARGET_MACHINE.NAME:Ultimaker 2+
;Generated with Cura_SteamEngine 5.6.0
M82 ;absolute extrusion mode
G0 F3000 Y50 ;avoid prime blob
G92 E0
G92 E0
G10
;LAYER_COUNT:153
;LAYER:0
M107
G0 F9000 X76.202 Y82.825 Z0.27
;TYPE:SKIRT
G11
G1 F1800 X73.635 Y85.318 E0.38646
G1 X73.435 Y85.634 E0.42685
G1 X72.545 Y88.252 E0.72549
G1 X72.545 Y134.445 E5.71433
G1 X73.536 Y137.502 E6.0614
G1 X75.618 Y139.648 E6.38432
G1 X77.438 Y140.758 E6.61455
G1 X79.366 Y141.178 E6.82766
G1 X123.222 Y141.178 E11.56411
G1 X126.279 Y140.187 E11.91118
G1 X128.425 Y138.105 E12.2341
G1 X129.535 Y136.285 E12.46433
G1 X129.955 Y134.357 E12.67744
G1 X129.955 Y133.232 E12.79894
G1 X143.722 Y133.232 E14.28577
G1 X146.779 Y132.241 E14.63284
G1 X148.925 Y130.159 E14.95576
G1 X150.035 Y128.339 E15.18599
G1 X150.455 Y126.411 E15.3991
G1 X150.455 Y101.051 E18.13798
G1 X149.452 Y97.979 E18.48699
G1 X146.959 Y95.412 E18.87346
G1 X146.643 Y95.212 E18.91384
G1 X144.025 Y94.322 E19.21248
G1 X129.955 Y94.322 E20.73204
G1 X129.955 Y88.551 E21.35531
G1 X128.952 Y85.479 E21.70432
G1 X126.459 Y82.912 E22.09078
G1 X126.143 Y82.712 E22.13117
G1 X123.525 Y81.822 E22.42981
G1 X79.274 Y81.822 E27.20891
G1 X76.202 Y82.825 E27.55793
G0 F9000 X76.415 Y83.176
G1 F1800 X73.914 Y85.605 E27.93446
G1 X73.814 Y85.763 E27.95465
G1 X72.945 Y88.319 E28.24622
G1 X72.945 Y134.381 E33.22091
G1 X73.888 Y137.29 E33.55118
G1 X75.872 Y139.335 E33.8589
G1 X77.587 Y140.381 E34.07585
G1 X79.41 Y140.778 E34.27735
G1 X123.158 Y140.778 E39.00214
G1 X126.067 Y139.835 E39.3324
G1 X128.112 Y137.851 E39.64012
G1 X129.158 Y136.136 E39.85708
G1 X129.555 Y134.313 E40.05857
G1 X129.555 Y132.832 E40.21852
G1 X143.658 Y132.832 E41.74165
G1 X146.567 Y131.889 E42.07191
G1 X148.612 Y129.905 E42.37963
G1 X149.658 Y128.19 E42.59658
G1 X150.055 Y126.367 E42.79808
G1 X150.055 Y101.114 E45.52541
G1 X149.101 Y98.192 E45.85738
G1 X146.672 Y95.691 E46.23391
G1 X146.514 Y95.591 E46.2541
G1 X143.958 Y94.722 E46.54567
G1 X129.555 Y94.722 E48.10119
G1 X129.555 Y88.614 E48.76086
G1 X128.601 Y85.692 E49.09283
G1 X126.172 Y83.191 E49.46936
G1 X126.014 Y83.091 E49.48955
G1 X123.458 Y82.222 E49.78112
G1 X79.337 Y82.222 E54.54619
G1 X76.415 Y83.176 E54.87816
G0 F9000 X76.628 Y83.527
G1 F1800 X79.4 Y82.622 E55.19308
G1 X123.391 Y82.622 E59.94411
G1 X125.885 Y83.47 E60.22861
G1 X128.25 Y85.905 E60.59521
G1 X129.155 Y88.677 E60.91014
G1 X129.155 Y95.122 E61.6062
G1 X143.891 Y95.122 E63.19769
G1 X146.385 Y95.97 E63.48218
G1 X148.75 Y98.405 E63.84879
G1 X149.655 Y101.177 E64.16371
G1 X149.655 Y126.323 E66.87948
G1 X149.281 Y128.041 E67.06937
G1 X148.299 Y129.651 E67.27304
G1 X146.355 Y131.537 E67.56556
G1 X143.594 Y132.432 E67.87903
G1 X129.155 Y132.432 E69.43844
G1 X129.155 Y134.269 E69.63684
G1 X128.781 Y135.987 E69.82672
G1 X127.799 Y137.597 E70.0304
G1 X125.855 Y139.483 E70.32292
G1 X123.094 Y140.378 E70.63638
G1 X79.454 Y140.378 E75.3495
G1 X77.736 Y140.004 E75.53939
G1 X76.126 Y139.022 E75.74306
G1 X74.24 Y137.078 E76.03558
G1 X73.345 Y134.317 E76.34905
G1 X73.345 Y88.386 E81.30959
G1 X74.193 Y85.892 E81.59409
G1 X76.628 Y83.527 E81.96069
G0 F9000 X76.841 Y83.878
G1 F1800 X79.463 Y83.022 E82.25858
G1 X123.324 Y83.022 E86.99557
G1 X125.665 Y83.818 E87.26261
G1 X127.899 Y86.118 E87.6089
G1 X128.755 Y88.74 E87.90678
G1 X128.755 Y95.522 E88.63924
G1 X143.824 Y95.522 E90.26669
G1 X146.165 Y96.318 E90.53373
G1 X148.399 Y98.618 E90.88002
G1 X149.255 Y101.24 E91.17791
G1 X149.255 Y126.279 E93.88212
G1 X148.904 Y127.892 E94.0604
G1 X147.986 Y129.397 E94.25079
G1 X146.143 Y131.185 E94.52811
G1 X143.53 Y132.032 E94.82477
G1 X128.755 Y132.032 E96.42047
G1 X128.755 Y134.225 E96.65732
G1 X128.404 Y135.838 E96.8356
G1 X127.486 Y137.343 E97.02599
G1 X125.643 Y139.131 E97.30331
G1 X123.03 Y139.978 E97.59997
G1 X79.498 Y139.978 E102.30143
G1 X77.885 Y139.627 E102.47971
G1 X76.38 Y138.709 E102.6701
G1 X74.592 Y136.866 E102.94742
G1 X73.745 Y134.253 E103.24408
G1 X73.745 Y88.453 E108.19048
G1 X74.541 Y86.112 E108.45752
G1 X76.841 Y83.878 E108.80381
G0 F9000 X77.054 Y84.229
G1 F1800 X79.526 Y83.422 E109.08465
G1 X123.257 Y83.422 E113.8076
G1 X125.445 Y84.166 E114.05719
G1 X127.548 Y86.331 E114.38316
G1 X128.355 Y88.803 E114.66401
G1 X128.355 Y95.922 E115.43286
G1 X143.757 Y95.922 E117.09627
G1 X145.945 Y96.666 E117.34587
G1 X148.048 Y98.831 E117.67184
G1 X148.855 Y101.303 E117.95268
G1 X148.855 Y126.235 E120.64534
G1 X148.527 Y127.743 E120.81201
G1 X147.673 Y129.143 E120.98912
G1 X145.931 Y130.833 E121.25124
G1 X143.466 Y131.632 E121.5311
G1 X128.355 Y131.632 E123.16309
G1 X128.355 Y134.181 E123.43838
G1 X128.027 Y135.689 E123.60505
G1 X127.173 Y137.089 E123.78216
G1 X125.431 Y138.779 E124.04428
G1 X122.966 Y139.578 E124.32414
G1 X79.542 Y139.578 E129.01393
G1 X78.034 Y139.25 E129.1806
G1 X76.634 Y138.396 E129.35771
G1 X74.944 Y136.654 E129.61984
G1 X74.145 Y134.189 E129.89969
G1 X74.145 Y88.52 E134.83195
G1 X74.889 Y86.332 E135.08154
G1 X77.054 Y84.229 E135.40751
G0 F9000 X77.267 Y84.58
G1 F1800 X79.589 Y83.822 E135.67131
G1 X123.19 Y83.822 E140.38022
G1 X125.225 Y84.514 E140.61236
G1 X127.197 Y86.544 E140.91801
G1 X127.955 Y88.866 E141.18181
G1 X127.955 Y96.322 E141.98706
G1 X143.69 Y96.322 E143.68644
G1 X145.725 Y97.014 E143.91858
G1 X147.697 Y99.044 E144.22423
G1 X148.455 Y101.366 E144.48803
G1 X148.455 Y126.191 E147.16913
G1 X148.15 Y127.594 E147.3242
G1 X147.36 Y128.889 E147.48803
G1 X145.719 Y130.481 E147.73495
G1 X143.402 Y131.232 E147.998
G1 X127.955 Y131.232 E149.66628
G1 X127.955 Y134.137 E149.98002
G1 X127.65 Y135.54 E150.13508
G1 X126.86 Y136.835 E150.29891
G1 X125.219 Y138.427 E150.54584
G1 X122.902 Y139.178 E150.80889
G1 X79.586 Y139.178 E155.48702
G1 X78.183 Y138.873 E155.64208
G1 X76.888 Y138.083 E155.80591
G1 X75.296 Y136.442 E156.05283
G1 X74.545 Y134.125 E156.31589
G1 X74.545 Y88.587 E161.23399
G1 X75.237 Y86.552 E161.46613
G1 X77.267 Y84.58 E161.77179
G0 F9000 X77.48 Y84.931
G1 F1800 X79.652 Y84.222 E162.01854
G1 X123.123 Y84.222 E166.71341
G1 X125.005 Y84.862 E166.9281
G1 X126.846 Y86.757 E167.21344
G1 X127.555 Y88.929 E167.46019
G1 X127.555 Y96.722 E168.30184
G1 X143.623 Y96.722 E170.03718
G1 X145.505 Y97.362 E170.25187
G1 X147.346 Y99.257 E170.53721
G1 X148.055 Y101.429 E170.78397
G1 X148.055 Y126.147 E173.45351
G1 X147.773 Y127.445 E173.59696
G1 X147.047 Y128.635 E173.74751
G1 X145.507 Y130.129 E173.97924
G1 X143.338 Y130.832 E174.22549
G1 X127.555 Y130.832 E175.93005
G1 X127.555 Y134.093 E176.28224
G1 X127.273 Y135.391 E176.42569
G1 X126.547 Y136.581 E176.57624
G1 X125.007 Y138.075 E176.80797
G1 X122.838 Y138.778 E177.05422
G1 X79.63 Y138.778 E181.72068
G1 X78.332 Y138.496 E181.86414
G1 X77.142 Y137.77 E182.01469
G1 X75.648 Y136.23 E182.24641
G1 X74.945 Y134.061 E182.49266
G1 X74.945 Y88.654 E187.39662
G1 X75.585 Y86.772 E187.6113
G1 X77.48 Y84.931 E187.89664
G0 F9000 X77.693 Y85.282
G1 F1800 X79.715 Y84.622 E188.12636
G1 X123.056 Y84.622 E192.80719
G1 X124.785 Y85.21 E193.00442
G1 X126.495 Y86.97 E193.26944
G1 X127.155 Y88.992 E193.49916
G1 X127.155 Y97.122 E194.3772
G1 X143.556 Y97.122 E196.14851
G1 X145.285 Y97.71 E196.34574
G1 X146.995 Y99.47 E196.61076
G1 X147.655 Y101.492 E196.84048
G1 X147.655 Y126.103 E199.49847
G1 X147.396 Y127.296 E199.63031
G1 X146.734 Y128.381 E199.76758
G1 X145.295 Y129.777 E199.98411
G1 X143.274 Y130.432 E200.21355
G1 X127.155 Y130.432 E201.95441
G1 X127.155 Y134.049 E202.34504
G1 X126.896 Y135.242 E202.47689
G1 X126.234 Y136.327 E202.61416
G1 X124.795 Y137.723 E202.83068
G1 X122.774 Y138.378 E203.06013
G1 X79.674 Y138.378 E207.71493
G1 X78.481 Y138.119 E207.84677
G1 X77.396 Y137.457 E207.98404
G1 X76 Y136.018 E208.20057
G1 X75.345 Y133.997 E208.43001
G1 X75.345 Y88.721 E213.31982
G1 X75.933 Y86.992 E213.51706
G1 X77.693 Y85.282 E213.78208
G0 F9000 X77.906 Y85.633
G1 F1800 X79.778 Y85.022 E213.99475
G1 X122.989 Y85.022 E218.66154
G1 X124.565 Y85.558 E218.84132
G1 X126.144 Y87.183 E219.08603
G1 X126.755 Y89.055 E219.2987
G1 X126.755 Y97.522 E220.21314
G1 X143.489 Y97.522 E222.02041
G1 X145.065 Y98.058 E222.20019
G1 X146.644 Y99.683 E222.4449
G1 X147.255 Y101.555 E222.65757
G1 X147.255 Y126.059 E225.304
G1 X147.019 Y127.147 E225.42424
G1 X146.421 Y128.127 E225.54823
G1 X145.083 Y129.425 E225.74956
G1 X143.21 Y130.032 E225.9622
G1 X126.755 Y130.032 E227.73934
G1 X126.755 Y134.005 E228.16842
G1 X126.519 Y135.093 E228.28866
G1 X125.921 Y136.073 E228.41265
G1 X124.583 Y137.371 E228.61398
G1 X122.71 Y137.978 E228.82662
G1 X79.718 Y137.978 E233.46975
G1 X78.63 Y137.742 E233.58999
G1 X77.65 Y137.144 E233.71398
G1 X76.352 Y135.806 E233.91531
G1 X75.745 Y133.933 E234.12795
G1 X75.745 Y88.788 E239.00361
G1 X76.281 Y87.212 E239.18339
G1 X77.906 Y85.633 E239.4281
G0 F9000 X78.119 Y85.984
G1 F1800 X79.841 Y85.422 E239.62373
G1 X122.922 Y85.422 E244.27648
G1 X124.345 Y85.906 E244.43881
G1 X125.793 Y87.396 E244.6632
G1 X126.355 Y89.118 E244.85883
G1 X126.355 Y97.922 E245.80966
G1 X143.422 Y97.922 E247.65289
G1 X144.845 Y98.406 E247.81523
G1 X146.293 Y99.896 E248.03962
G1 X146.855 Y101.618 E248.23525
G1 X146.855 Y126.015 E250.87012
G1 X146.642 Y126.996 E250.97854
G1 X146.106 Y127.875 E251.08973
G1 X144.87 Y129.074 E251.2757
G1 X143.149 Y129.632 E251.4711
G1 X126.355 Y129.632 E253.28485
G1 X126.355 Y133.961 E253.75238
G1 X126.142 Y134.942 E253.8608
G1 X125.606 Y135.821 E253.97199
G1 X124.37 Y137.02 E254.15796
G1 X122.649 Y137.578 E254.35336
G1 X79.762 Y137.578 E258.98515
G1 X78.781 Y137.365 E259.09357
G1 X77.902 Y136.829 E259.20476
G1 X76.703 Y135.593 E259.39074
G1 X76.145 Y133.872 E259.58613
G1 X76.145 Y88.855 E264.44797
G1 X76.629 Y87.432 E264.6103
G1 X78.119 Y85.984 E264.83469
G0 F9000 X78.332 Y86.335
G1 F1800 X79.904 Y85.822 E265.01327
G1 X122.855 Y85.822 E269.65198
G1 X124.125 Y86.254 E269.79686
G1 X125.442 Y87.609 E270.00094
G1 X125.955 Y89.181 E270.17952
G1 X125.955 Y98.322 E271.16675
G1 X143.355 Y98.322 E273.04595
G1 X144.625 Y98.754 E273.19083
G1 X145.942 Y100.109 E273.3949
G1 X146.455 Y101.681 E273.57349
G1 X146.455 Y125.971 E276.19681
G1 X146.265 Y126.845 E276.29341
G1 X145.791 Y127.623 E276.3918
G1 X144.657 Y128.723 E276.56242
G1 X143.088 Y129.232 E276.74057
G1 X125.955 Y129.232 E278.59093
G1 X125.955 Y133.917 E279.09691
G1 X125.765 Y134.791 E279.19351
G1 X125.291 Y135.569 E279.2919
G1 X124.157 Y136.669 E279.46252
G1 X122.588 Y137.178 E279.64067
G1 X79.806 Y137.178 E284.26113
G1 X78.932 Y136.988 E284.35772
G1 X78.154 Y136.514 E284.45611
G1 X77.054 Y135.38 E284.62674
G1 X76.545 Y133.811 E284.80488
G1 X76.545 Y88.922 E289.6529
G1 X76.977 Y87.652 E289.79777
G1 X78.332 Y86.335 E290.00185
G0 F9000 X78.545 Y86.686
G1 F1800 X79.967 Y86.222 E290.16339
G1 X122.788 Y86.222 E294.78806
G1 X123.905 Y86.602 E294.91549
G1 X125.091 Y87.822 E295.09925
G1 X125.555 Y89.244 E295.26079
G1 X125.555 Y98.722 E296.28442
G1 X143.288 Y98.722 E298.19958
G1 X144.405 Y99.102 E298.327
G1 X145.591 Y100.322 E298.51076
G1 X146.055 Y101.744 E298.67231
G1 X146.055 Y125.927 E301.28407
G1 X145.888 Y126.694 E301.36885
G1 X145.474 Y127.374 E301.45483
G1 X144.445 Y128.372 E301.60964
G1 X143.027 Y128.832 E301.77065
G1 X125.555 Y128.832 E303.65762
G1 X125.555 Y133.873 E304.20205
G1 X125.388 Y134.64 E304.28683
G1 X124.974 Y135.32 E304.37281
G1 X123.945 Y136.318 E304.52762
G1 X122.527 Y136.778 E304.68862
G1 X79.85 Y136.778 E309.29774
G1 X79.083 Y136.611 E309.38251
G1 X78.403 Y136.197 E309.46849
G1 X77.405 Y135.168 E309.62331
G1 X76.945 Y133.75 E309.78431
G1 X76.945 Y88.989 E314.6185
G1 X77.325 Y87.872 E314.74592
G1 X78.545 Y86.686 E314.92968
G0 F9000 X78.758 Y87.037
G1 F1800 X80.03 Y86.622 E315.07419
G1 X122.721 Y86.622 E319.68481
G1 X123.685 Y86.95 E319.79479
G1 X124.74 Y88.035 E319.95823
G1 X125.155 Y89.307 E320.10273
G1 X125.155 Y99.122 E321.16275
G1 X143.221 Y99.122 E323.11388
G1 X144.185 Y99.45 E323.22385
G1 X145.24 Y100.535 E323.3873
G1 X145.655 Y101.807 E323.5318
G1 X145.655 Y125.883 E326.13201
G1 X145.511 Y126.543 E326.20496
G1 X145.157 Y127.125 E326.27853
G1 X144.233 Y128.021 E326.41754
G1 X142.966 Y128.432 E326.56139
G1 X125.155 Y128.432 E328.48498
G1 X125.155 Y133.829 E329.06786
G1 X125.011 Y134.489 E329.14082
G1 X124.657 Y135.071 E329.21439
G1 X123.733 Y135.967 E329.35339
G1 X122.466 Y136.378 E329.49725
G1 X79.894 Y136.378 E334.09502
G1 X79.234 Y136.234 E334.16798
G1 X78.652 Y135.88 E334.24155
G1 X77.756 Y134.956 E334.38055
G1 X77.345 Y133.689 E334.52441
G1 X77.345 Y89.056 E339.34477
G1 X77.673 Y88.092 E339.45475
G1 X78.758 Y87.037 E339.61819
G0 F9000 X78.971 Y87.388
G1 F1800 X78.021 Y88.312 E339.76132
G1 X77.745 Y89.123 E339.85384
G1 X77.745 Y133.628 E344.66038
G1 X78.107 Y134.744 E344.78709
G1 X78.901 Y135.563 E344.91028
G1 X79.385 Y135.857 E344.97144
G1 X79.938 Y135.978 E345.03258
G1 X122.405 Y135.978 E349.61902
G1 X123.521 Y135.616 E349.74573
G1 X124.34 Y134.822 E349.86892
G1 X124.634 Y134.338 E349.93008
G1 X124.755 Y133.785 E349.99122
G1 X124.755 Y128.032 E350.61254
G1 X142.905 Y128.032 E352.57274
G1 X144.021 Y127.67 E352.69945
G1 X144.84 Y126.876 E352.82265
G1 X145.134 Y126.392 E352.88381
G1 X145.255 Y125.839 E352.94495
G1 X145.255 Y101.87 E355.5336
G1 X144.889 Y100.748 E355.66106
G1 X143.965 Y99.798 E355.80419
G1 X143.154 Y99.522 E355.89671
G1 X124.755 Y99.522 E357.8838
G1 X124.755 Y89.37 E358.98021
G1 X124.389 Y88.248 E359.10767
G1 X123.465 Y87.298 E359.2508
G1 X122.654 Y87.022 E359.34332
G1 X80.093 Y87.022 E363.93991
G1 X78.971 Y87.388 E364.06737
G0 F9000 X79.184 Y87.739
G1 F1800 X80.156 Y87.422 E364.17779
G1 X122.587 Y87.422 E368.76034
G1 X123.245 Y87.646 E368.83541
G1 X124.038 Y88.461 E368.95822
G1 X124.355 Y89.433 E369.06863
G1 X124.355 Y99.922 E370.20145
G1 X143.087 Y99.922 E372.2245
G1 X143.745 Y100.146 E372.29957
G1 X144.538 Y100.961 E372.42238
G1 X144.855 Y101.933 E372.5328
G1 X144.855 Y125.839 E375.11465
G1 X144.745 Y126.299 E375.16573
G1 X144.562 Y126.589 E375.20276
G1 X143.81 Y127.318 E375.31588
G1 X142.843 Y127.632 E375.42568
G1 X124.355 Y127.632 E377.42238
G1 X124.355 Y133.785 E378.08691
G1 X124.245 Y134.245 E378.13799
G1 X124.062 Y134.535 E378.17502
G1 X123.31 Y135.264 E378.28814
G1 X122.343 Y135.578 E378.39794
G1 X79.938 Y135.578 E382.97768
G1 X79.478 Y135.468 E383.02876
G1 X79.188 Y135.285 E383.0658
G1 X78.459 Y134.533 E383.17891
G1 X78.145 Y133.566 E383.28871
G1 X78.145 Y89.19 E388.08132
G1 X78.369 Y88.532 E388.15639
G1 X79.184 Y87.739 E388.2792
G0 F9000 X79.397 Y88.09
G1 F1800 X80.219 Y87.822 E388.37258
G1 X122.52 Y87.822 E392.94108
G1 X123.025 Y87.994 E392.9987
G1 X123.687 Y88.674 E393.1012
G1 X123.955 Y89.496 E393.19457
G1 X123.955 Y100.322 E394.36378
G1 X143.02 Y100.322 E396.4228
G1 X143.525 Y100.494 E396.48042
G1 X144.187 Y101.174 E396.58291
G1 X144.455 Y101.996 E396.67629
G1 X144.455 Y125.799 E399.24701
G1 X144.396 Y126.103 E399.28045
G1 X144.284 Y126.302 E399.30512
G1 X143.599 Y126.966 E399.40815
G1 X142.781 Y127.232 E399.50105
G1 X123.955 Y127.232 E401.53425
G1 X123.955 Y133.745 E402.23766
G1 X123.896 Y134.049 E402.2711
G1 X123.784 Y134.248 E402.29576
G1 X123.099 Y134.912 E402.3988
G1 X122.281 Y135.178 E402.49169
G1 X79.978 Y135.178 E407.06042
G1 X79.674 Y135.119 E407.09386
G1 X79.475 Y135.007 E407.11853
G1 X78.811 Y134.322 E407.22156
G1 X78.545 Y133.504 E407.31445
G1 X78.545 Y89.257 E412.09313
G1 X78.717 Y88.752 E412.15075
G1 X79.397 Y88.09 E412.25324
G0 F9000 X79.61 Y88.441
G1 F1800 X80.282 Y88.222 E412.32957
G1 X122.52 Y88.222 E416.89128
G1 X122.738 Y88.273 E416.91546
G1 X123.336 Y88.887 E417.00802
G1 X123.555 Y89.559 E417.08436
G1 X123.555 Y100.722 E418.28996
G1 X143.02 Y100.722 E420.39218
G1 X143.238 Y100.773 E420.41636
G1 X143.836 Y101.387 E420.50893
G1 X144.055 Y102.059 E420.58526
G1 X144.055 Y125.799 E423.14918
G1 X144.006 Y126.015 E423.1731
G1 X143.388 Y126.614 E423.26605
G1 X142.718 Y126.832 E423.34214
G1 X123.555 Y126.832 E425.41175
G1 X123.555 Y133.745 E426.15835
G1 X123.506 Y133.961 E426.18227
G1 X122.888 Y134.56 E426.27522
G1 X122.218 Y134.778 E426.35132
G1 X79.978 Y134.778 E430.91324
