;FLAVOR:UltiGCode
;TIME:5605
;MATERIAL:4880
;MATERIAL2:0
;NOZZLE_DIAMETER:0.4
;MINX:104.393
;MINY:73.658
;MINZ:0.27
;MAXX:143.313
;MAXY:131.578
;MAXZ:34.97
;TARGET_MACHINE.NAME:Ultimaker 2+
;Generated with Cura_SteamEngine 5.6.0
M82 ;absolute extrusion mode
G0 F3000 Y50 ;avoid prime blob
G92 E0
G92 E0
G10
;LAYER_COUNT:348
;LAYER:0
M107
G0 F7200 X105.483 Y77.154 Z0.27
;TYPE:SKIRT
G11
G1 F1800 X108.05 Y74.661 E0.38646
G1 X111.122 Y73.658 E0.73547
G1 X133.883 Y73.658 E3.19366
G1 X136.501 Y74.548 E3.4923
G1 X136.817 Y74.748 E3.53269
G1 X139.31 Y77.315 E3.91915
G1 X140.313 Y80.387 E4.26816
G1 X140.313 Y92.258 E5.55023
G1 X142.31 Y94.315 E5.85985
G1 X143.313 Y97.387 E6.20887
G1 X143.313 Y124.757 E9.16483
G1 X142.893 Y126.685 E9.37793
G1 X141.783 Y128.505 E9.60817
G1 X139.637 Y130.587 E9.93109
G1 X136.58 Y131.578 E10.27816
G1 X111.214 Y131.578 E13.01768
G1 X109.286 Y131.158 E13.23079
G1 X107.466 Y130.048 E13.46102
G1 X105.384 Y127.902 E13.78394
G1 X104.393 Y124.845 E14.13101
G1 X104.393 Y80.088 E18.96477
G1 X105.283 Y77.47 E19.26341
G1 X105.483 Y77.154 E19.30379
G0 F7200 X105.762 Y77.441
G1 F1800 X108.263 Y75.012 E19.68033
G1 X111.185 Y74.058 E20.0123
G1 X133.816 Y74.058 E22.45644
G1 X136.372 Y74.927 E22.74801
G1 X136.53 Y75.027 E22.7682
G1 X138.959 Y77.528 E23.14474
G1 X139.913 Y80.45 E23.47671
G1 X139.913 Y92.421 E24.76957
G1 X141.959 Y94.528 E25.08676
G1 X142.913 Y97.45 E25.41873
G1 X142.913 Y124.713 E28.36314
G1 X142.516 Y126.536 E28.56463
G1 X141.47 Y128.251 E28.78159
G1 X139.425 Y130.235 E29.08931
G1 X136.516 Y131.178 E29.41957
G1 X111.258 Y131.178 E32.14744
G1 X109.435 Y130.781 E32.34894
G1 X107.72 Y129.735 E32.56589
G1 X105.736 Y127.69 E32.87361
G1 X104.793 Y124.781 E33.20388
G1 X104.793 Y80.155 E38.02348
G1 X105.662 Y77.599 E38.31505
G1 X105.762 Y77.441 E38.33524
G0 F7200 X106.041 Y77.728
G1 F1800 X105.193 Y80.222 E38.61974
G1 X105.193 Y124.717 E43.4252
G1 X106.088 Y127.478 E43.73866
G1 X107.974 Y129.422 E44.03118
G1 X109.584 Y130.404 E44.23486
G1 X111.302 Y130.778 E44.42475
G1 X136.452 Y130.778 E47.14095
G1 X139.213 Y129.883 E47.45441
G1 X141.157 Y127.997 E47.74693
G1 X142.139 Y126.387 E47.9506
G1 X142.513 Y124.669 E48.14049
G1 X142.513 Y97.513 E51.07334
G1 X141.608 Y94.741 E51.38827
G1 X139.513 Y92.584 E51.71302
G1 X139.513 Y80.513 E53.01668
G1 X138.608 Y77.741 E53.33161
G1 X136.243 Y75.306 E53.69821
G1 X133.749 Y74.458 E53.98271
G1 X111.248 Y74.458 E56.41282
G1 X108.476 Y75.363 E56.72775
G1 X106.041 Y77.728 E57.09435
G0 F7200 X106.389 Y77.948
G1 F1800 X108.689 Y75.714 E57.44064
G1 X111.311 Y74.858 E57.73852
G1 X133.682 Y74.858 E60.15459
G1 X136.023 Y75.654 E60.42163
G1 X138.257 Y77.954 E60.76792
G1 X139.113 Y80.576 E61.0658
G1 X139.113 Y92.809 E62.38697
G1 X139.291 Y92.93 E62.41021
G1 X141.257 Y94.954 E62.71495
G1 X142.113 Y97.576 E63.01284
G1 X142.113 Y124.625 E65.93413
G1 X141.762 Y126.238 E66.11241
G1 X140.844 Y127.743 E66.3028
G1 X139.001 Y129.531 E66.58012
G1 X136.388 Y130.378 E66.87678
G1 X111.346 Y130.378 E69.58132
G1 X109.733 Y130.027 E69.7596
G1 X108.228 Y129.109 E69.94999
G1 X106.44 Y127.266 E70.22731
G1 X105.593 Y124.653 E70.52397
G1 X105.593 Y80.289 E75.31529
G1 X106.389 Y77.948 E75.58233
G0 F7200 X106.737 Y78.168
G1 F1800 X108.902 Y76.065 E75.9083
G1 X111.374 Y75.258 E76.18914
G1 X133.615 Y75.258 E78.59117
G1 X135.803 Y76.002 E78.84076
G1 X137.906 Y78.167 E79.16673
G1 X138.713 Y80.639 E79.44758
G1 X138.713 Y93.037 E80.78656
G1 X139.004 Y93.209 E80.82307
G1 X140.906 Y95.167 E81.11788
G1 X141.713 Y97.639 E81.39872
G1 X141.713 Y124.581 E84.30845
G1 X141.385 Y126.089 E84.47513
G1 X140.531 Y127.489 E84.65224
G1 X138.789 Y129.179 E84.91436
G1 X136.324 Y129.978 E85.19422
G1 X111.39 Y129.978 E87.88709
G1 X109.882 Y129.65 E88.05376
G1 X108.482 Y128.796 E88.23087
G1 X106.792 Y127.054 E88.49299
G1 X105.993 Y124.589 E88.77285
G1 X105.993 Y80.356 E93.55001
G1 X106.737 Y78.168 E93.79961
G0 F7200 X107.085 Y78.388
G1 F1800 X109.115 Y76.416 E94.10526
G1 X111.437 Y75.658 E94.36906
G1 X133.548 Y75.658 E96.75705
G1 X135.583 Y76.35 E96.98919
G1 X137.555 Y78.38 E97.29484
G1 X138.313 Y80.702 E97.55864
G1 X138.313 Y93.281 E98.91718
G1 X138.717 Y93.488 E98.9662
G1 X140.555 Y95.38 E99.25108
G1 X141.313 Y97.702 E99.51488
G1 X141.313 Y124.537 E102.41306
G1 X141.008 Y125.94 E102.56812
G1 X140.218 Y127.235 E102.73195
G1 X138.577 Y128.827 E102.97888
G1 X136.26 Y129.578 E103.24193
G1 X111.434 Y129.578 E105.92314
G1 X110.031 Y129.273 E106.0782
G1 X108.736 Y128.483 E106.24203
G1 X107.144 Y126.842 E106.48896
G1 X106.393 Y124.525 E106.75201
G1 X106.393 Y80.423 E111.51503
G1 X107.085 Y78.388 E111.74717
G0 F7200 X107.433 Y78.608
G1 F1800 X109.328 Y76.767 E112.0325
G1 X111.5 Y76.058 E112.27926
G1 X133.481 Y76.058 E114.65321
G1 X135.363 Y76.698 E114.8679
G1 X137.204 Y78.593 E115.15324
G1 X137.913 Y80.765 E115.39999
G1 X137.913 Y93.544 E116.78013
G1 X138.43 Y93.767 E116.84093
G1 X140.204 Y95.593 E117.11589
G1 X140.913 Y97.765 E117.36264
G1 X140.913 Y124.493 E120.24927
G1 X140.631 Y125.791 E120.39272
G1 X139.905 Y126.981 E120.54327
G1 X138.365 Y128.475 E120.775
G1 X136.196 Y129.178 E121.02125
G1 X111.478 Y129.178 E123.69079
G1 X110.18 Y128.896 E123.83424
G1 X108.99 Y128.17 E123.98479
G1 X107.496 Y126.63 E124.21652
G1 X106.793 Y124.461 E124.46277
G1 X106.793 Y80.49 E129.21164
G1 X107.433 Y78.608 E129.42632
G0 F7200 X107.781 Y78.828
G1 F1800 X109.541 Y77.118 E129.69135
G1 X111.563 Y76.458 E129.92106
G1 X133.414 Y76.458 E132.28097
G1 X135.143 Y77.046 E132.4782
G1 X136.853 Y78.806 E132.74323
G1 X137.513 Y80.828 E132.97294
G1 X137.513 Y93.831 E134.37727
G1 X138.143 Y94.046 E134.44916
G1 X139.853 Y95.806 E134.71418
G1 X140.513 Y97.828 E134.9439
G1 X140.513 Y124.449 E137.81896
G1 X140.254 Y125.642 E137.95081
G1 X139.592 Y126.727 E138.08808
G1 X138.153 Y128.123 E138.30461
G1 X136.132 Y128.778 E138.53405
G1 X111.522 Y128.778 E141.19193
G1 X110.329 Y128.519 E141.32378
G1 X109.244 Y127.857 E141.46105
G1 X107.848 Y126.418 E141.67757
G1 X107.193 Y124.397 E141.90702
G1 X107.193 Y80.557 E146.64174
G1 X107.781 Y78.828 E146.83897
G0 F7200 X108.129 Y79.048
G1 F1800 X109.754 Y77.469 E147.08368
G1 X111.626 Y76.858 E147.29635
G1 X133.347 Y76.858 E149.64222
G1 X134.923 Y77.394 E149.822
G1 X136.502 Y79.019 E150.06671
G1 X137.113 Y80.891 E150.27938
G1 X137.113 Y94.118 E151.7079
G1 X137.923 Y94.394 E151.80032
G1 X139.502 Y96.019 E152.04502
G1 X140.113 Y97.891 E152.2577
G1 X140.113 Y124.405 E155.12121
G1 X139.877 Y125.493 E155.24144
G1 X139.279 Y126.473 E155.36543
G1 X137.941 Y127.771 E155.56676
G1 X136.068 Y128.378 E155.7794
G1 X111.566 Y128.378 E158.42562
G1 X110.478 Y128.142 E158.54585
G1 X109.498 Y127.544 E158.66984
G1 X108.2 Y126.206 E158.87117
G1 X107.593 Y124.333 E159.08381
G1 X107.593 Y80.624 E163.80438
G1 X108.129 Y79.048 E163.98417
G0 F7200 X108.477 Y79.268
G1 F1800 X109.967 Y77.82 E164.20856
G1 X111.689 Y77.258 E164.40419
G1 X133.28 Y77.258 E166.73602
G1 X134.703 Y77.742 E166.89835
G1 X136.151 Y79.232 E167.12274
G1 X136.713 Y80.954 E167.31837
G1 X136.713 Y94.405 E168.77108
G1 X137.703 Y94.742 E168.88402
G1 X139.151 Y96.232 E169.10841
G1 X139.713 Y97.954 E169.30404
G1 X139.713 Y124.361 E172.156
G1 X139.5 Y125.342 E172.26441
G1 X138.964 Y126.221 E172.3756
G1 X137.728 Y127.42 E172.56158
G1 X136.007 Y127.978 E172.75697
G1 X111.61 Y127.978 E175.39185
G1 X110.629 Y127.765 E175.50027
G1 X109.75 Y127.229 E175.61145
G1 X108.551 Y125.993 E175.79743
G1 X107.993 Y124.272 E175.99282
G1 X107.993 Y80.691 E180.69957
G1 X108.477 Y79.268 E180.8619
G0 F7200 X108.825 Y79.488
G1 F1800 X110.18 Y78.171 E181.06598
G1 X111.752 Y77.658 E181.24457
G1 X133.213 Y77.658 E183.56235
G1 X134.483 Y78.09 E183.70723
G1 X135.8 Y79.445 E183.91131
G1 X136.313 Y81.017 E184.08989
G1 X136.313 Y94.692 E185.56679
G1 X137.483 Y95.09 E185.70026
G1 X138.8 Y96.445 E185.90434
G1 X139.313 Y98.017 E186.08293
G1 X139.313 Y124.317 E188.92333
G1 X139.123 Y125.191 E189.01992
G1 X138.649 Y125.969 E189.11831
G1 X137.515 Y127.069 E189.28894
G1 X135.946 Y127.578 E189.46708
G1 X111.654 Y127.578 E192.09062
G1 X110.78 Y127.388 E192.18722
G1 X110.002 Y126.914 E192.28561
G1 X108.902 Y125.78 E192.45623
G1 X108.393 Y124.211 E192.63438
G1 X108.393 Y80.758 E197.3273
G1 X108.825 Y79.488 E197.47218
G0 F7200 X109.173 Y79.708
G1 F1800 X108.793 Y80.825 E197.59961
G1 X108.793 Y124.15 E202.27871
G1 X109.253 Y125.568 E202.43971
G1 X110.251 Y126.597 E202.59452
G1 X110.931 Y127.011 E202.6805
G1 X111.698 Y127.178 E202.76528
G1 X135.885 Y127.178 E205.37747
G1 X137.303 Y126.718 E205.53847
G1 X138.332 Y125.72 E205.69329
G1 X138.746 Y125.04 E205.77927
G1 X138.913 Y124.273 E205.86405
G1 X138.913 Y98.08 E208.69289
G1 X138.449 Y96.658 E208.85444
G1 X137.263 Y95.438 E209.03819
G1 X136.27 Y95.1 E209.15148
G1 X135.913 Y95.071 E209.19016
G1 X135.913 Y81.08 E210.70119
G1 X135.449 Y79.658 E210.86274
G1 X134.263 Y78.438 E211.0465
G1 X133.146 Y78.058 E211.17392
G1 X111.815 Y78.058 E213.47767
G1 X110.393 Y78.522 E213.63921
G1 X109.173 Y79.708 E213.82297
G0 F7200 X109.521 Y79.928
G1 F1800 X109.193 Y80.892 E213.93295
G1 X109.193 Y124.089 E218.59822
G1 X109.604 Y125.356 E218.74208
G1 X110.5 Y126.28 E218.88108
G1 X111.082 Y126.634 E218.95465
G1 X111.742 Y126.778 E219.02761
G1 X135.824 Y126.778 E221.62847
G1 X137.091 Y126.367 E221.77232
G1 X138.015 Y125.471 E221.91133
G1 X138.369 Y124.889 E221.9849
G1 X138.513 Y124.229 E222.05785
G1 X138.513 Y98.143 E224.87514
G1 X138.098 Y96.871 E225.01964
G1 X137.043 Y95.786 E225.18309
G1 X136.141 Y95.479 E225.28599
G1 X135.513 Y95.458 E225.35385
G1 X135.513 Y81.143 E226.89987
G1 X135.098 Y79.871 E227.04438
G1 X134.043 Y78.786 E227.20782
G1 X133.079 Y78.458 E227.31779
G1 X111.878 Y78.458 E229.6075
G1 X110.606 Y78.873 E229.752
G1 X109.521 Y79.928 E229.91544
G0 F7200 X109.869 Y80.148
G1 F1800 X109.593 Y80.959 E230.00797
G1 X109.593 Y124.028 E234.65942
G1 X109.955 Y125.144 E234.78613
G1 X110.749 Y125.963 E234.90932
G1 X111.233 Y126.257 E234.97048
G1 X111.786 Y126.378 E235.03162
G1 X135.763 Y126.378 E237.62114
G1 X136.879 Y126.016 E237.74785
G1 X137.698 Y125.222 E237.87104
G1 X137.992 Y124.738 E237.9322
G1 X138.113 Y124.185 E237.99334
G1 X138.113 Y98.206 E240.79907
G1 X137.747 Y97.084 E240.92653
G1 X136.823 Y96.134 E241.06966
G1 X136.012 Y95.858 E241.16218
G1 X135.113 Y95.858 E241.25927
G1 X135.113 Y81.206 E242.84169
G1 X134.747 Y80.084 E242.96915
G1 X133.823 Y79.134 E243.11227
G1 X133.012 Y78.858 E243.2048
G1 X111.941 Y78.858 E245.48046
G1 X110.819 Y79.224 E245.60792
G1 X109.869 Y80.148 E245.75105
G0 F7200 X110.217 Y80.368
G1 F1800 X109.993 Y81.026 E245.82612
G1 X109.993 Y123.966 E250.46364
G1 X110.307 Y124.933 E250.57344
G1 X111.036 Y125.685 E250.68656
G1 X111.326 Y125.868 E250.72359
G1 X111.786 Y125.978 E250.77467
G1 X135.701 Y125.978 E253.35749
G1 X136.668 Y125.664 E253.4673
G1 X137.42 Y124.935 E253.58041
G1 X137.603 Y124.645 E253.61744
G1 X137.713 Y124.185 E253.66853
G1 X137.713 Y98.269 E256.46745
G1 X137.396 Y97.297 E256.57787
G1 X136.603 Y96.482 E256.70068
G1 X135.945 Y96.258 E256.77575
G1 X134.713 Y96.258 E256.90881
G1 X134.713 Y81.269 E258.52762
G1 X134.396 Y80.297 E258.63804
G1 X133.603 Y79.482 E258.76085
G1 X132.945 Y79.258 E258.83592
G1 X112.004 Y79.258 E261.09754
G1 X111.032 Y79.575 E261.20796
G1 X110.217 Y80.368 E261.33077
G0 F7200 X110.565 Y80.588
G1 F1800 X111.245 Y79.926 E261.43327
G1 X112.067 Y79.658 E261.52664
G1 X132.878 Y79.658 E263.77423
G1 X133.383 Y79.83 E263.83185
G1 X134.045 Y80.51 E263.93434
G1 X134.313 Y81.332 E264.02772
G1 X134.313 Y96.658 E265.68292
G1 X135.878 Y96.658 E265.85194
G1 X136.383 Y96.83 E265.90956
G1 X137.045 Y97.51 E266.01205
G1 X137.313 Y98.332 E266.10543
G1 X137.313 Y124.145 E268.89323
G1 X137.254 Y124.449 E268.92668
G1 X137.142 Y124.648 E268.95134
G1 X136.457 Y125.312 E269.05437
G1 X135.639 Y125.578 E269.14727
G1 X111.826 Y125.578 E271.71907
G1 X111.522 Y125.519 E271.75252
G1 X111.323 Y125.407 E271.77718
G1 X110.659 Y124.722 E271.88021
G1 X110.393 Y123.904 E271.97311
G1 X110.393 Y81.093 E276.5967
G1 X110.565 Y80.588 E276.65432
G0 F7200 X110.844 Y80.875
G1 F1800 X111.458 Y80.277 E276.74688
G1 X112.13 Y80.058 E276.82321
G1 X132.878 Y80.058 E279.064
G1 X133.096 Y80.109 E279.08818
G1 X133.694 Y80.723 E279.18074
G1 X133.913 Y81.395 E279.25708
G1 X133.913 Y97.058 E280.94868
G1 X135.878 Y97.058 E281.1609
G1 X136.096 Y97.109 E281.18508
G1 X136.694 Y97.723 E281.27765
G1 X136.913 Y98.395 E281.35398
G1 X136.913 Y124.145 E284.13498
G1 X136.864 Y124.361 E284.1589
G1 X136.246 Y124.96 E284.25185
G1 X135.576 Y125.178 E284.32794
G1 X111.826 Y125.178 E286.89294
G1 X111.61 Y125.129 E286.91686
G1 X111.011 Y124.511 E287.00981
G1 X110.793 Y123.841 E287.08591
G1 X110.793 Y81.093 E291.70269
G1 X110.844 Y80.875 E291.72687
G0 F7200 X111.193 Y81.093
G1 F1800 X111.671 Y80.628 E291.79889
G1 X112.193 Y80.458 E291.85818
G1 X132.878 Y80.458 E294.09216
G1 X133.343 Y80.936 E294.16419
G1 X133.513 Y81.458 E294.22348
G1 X133.513 Y97.458 E295.95148
G1 X135.878 Y97.458 E296.2069
G1 X136.343 Y97.936 E296.27892
G1 X136.513 Y98.458 E296.33821
G1 X136.513 Y124.145 E299.1124
G1 X136.035 Y124.608 E299.18427
G1 X135.513 Y124.778 E299.24357
G1 X111.826 Y124.778 E301.80176
G1 X111.363 Y124.3 E301.87363
G1 X111.193 Y123.778 E301.93292
G1 X111.193 Y81.093 E306.5429
G0 F7200 X111.993 Y81.359
G1 F1800 X112.193 Y81.258 E306.5671
G1 X132.612 Y81.258 E308.77235
G1 X132.713 Y81.458 E308.79655
G1 X132.713 Y98.258 E310.61095
G1 X135.612 Y98.258 E310.92404
G1 X135.713 Y98.458 E310.94824
G1 X135.713 Y123.877 E313.69349
G1 X135.513 Y123.978 E313.71769
G1 X112.094 Y123.978 E316.24694
G1 X111.993 Y123.778 E316.27114
G1 X111.993 Y81.359 E320.85239
G0 F7200 X111.593 Y81.227
G1 F1800 X111.813 Y81.002 E320.88638
G1 X112.193 Y80.858 E320.93027
G1 X132.744 Y80.858 E323.14977
G1 X132.969 Y81.078 E323.18376
G1 X133.113 Y81.458 E323.22765
G1 X133.113 Y97.858 E324.99885
G1 X135.744 Y97.858 E325.283
G1 X135.969 Y98.078 E325.31698
G1 X136.113 Y98.458 E325.36087
G1 X136.113 Y124.01 E328.12049
G1 X135.893 Y124.234 E328.15439
G1 X135.513 Y124.378 E328.19828
G1 X111.961 Y124.378 E330.7419
G1 X111.737 Y124.158 E330.77581
G1 X111.593 Y123.778 E330.81969
G1 X111.593 Y81.227 E335.4152
G10
;MESH:Body1.3mf
G0 F7200 X112.613 Y81.878
G0 X112.393 Y123.578
;TYPE:WALL-OUTER
G11
G1 F1800 X135.313 Y123.578 E338.1381
G1 X135.313 Y98.658 E341.09859
G1 X132.514 Y98.653 E341.43112
G1 X132.313 Y98.414 E341.46822
G1 X132.313 Y81.658 E343.45883
G1 X112.393 Y81.658 E345.82532
G1 X112.393 Y123.578 E350.80542
G0 F7200 X112.593 Y123.578
G0 X112.793 Y123.178
;TYPE:WALL-INNER
G1 F1800 X134.913 Y123.178 E353.07493
G1 X134.913 Y99.058 E355.54964
G1 X132.562 Y99.058 E355.79086
G1 X132.317 Y99.006 E355.81655
G1 X132.057 Y98.784 E355.85163
G1 X131.915 Y98.418 E355.89191
G1 X131.913 Y82.058 E357.57045
G1 X112.793 Y82.058 E359.53216
G1 X112.793 Y123.178 E363.75107
G0 F7200 X113.113 Y122.858
;TYPE:SKIN
G1 F1200 X134.593 Y122.858 E365.84473
G1 X134.593 Y99.378 E368.13332
G1 X132.397 Y99.378 E368.34737
G1 X132.054 Y99.223 E368.38405
G1 X131.775 Y98.935 E368.42314
G1 X131.595 Y98.439 E368.47457
G1 X131.593 Y82.378 E370.04003
G1 X113.113 Y82.378 E371.84128
G1 X113.113 Y122.858 E375.78686
G0 F7200 X113.605 Y122.656
G1 F1200 X113.312 Y122.363 E375.82725
G0 F7200 X113.312 Y121.797
G1 F1200 X114.171 Y122.656 E375.94566
G0 F7200 X114.737 Y122.656
G1 F1200 X113.312 Y121.232 E376.14202
G0 F7200 X113.312 Y120.666
G1 F1200 X115.302 Y122.656 E376.41632
G0 F7200 X115.868 Y122.656
G1 F1200 X113.312 Y120.1 E376.76865
G0 F7200 X113.312 Y119.534
G1 F1200 X116.434 Y122.656 E377.199
G0 F7200 X117 Y122.656
G1 F1200 X113.312 Y118.969 E377.7073
G0 F7200 X113.312 Y118.403
G1 F1200 X117.565 Y122.656 E378.29355
G0 F7200 X118.131 Y122.656
G1 F1200 X113.312 Y117.837 E378.95781
G0 F7200 X113.312 Y117.272
G1 F1200 X118.697 Y122.656 E379.70003
G0 F7200 X119.262 Y122.656
G1 F1200 X113.312 Y116.706 E380.5202
G0 F7200 X113.312 Y116.14
G1 F1200 X119.828 Y122.656 E381.41839
G0 F7200 X120.394 Y122.656
G1 F1200 X113.312 Y115.575 E382.39452
G0 F7200 X113.312 Y115.009
G1 F1200 X120.959 Y122.656 E383.44861
G0 F7200 X121.525 Y122.656
G1 F1200 X113.312 Y114.443 E384.58072
G0 F7200 X113.312 Y113.878
