;FLAVOR:UltiGCode
;TIME:1316
;MATERIAL:1337
;MATERIAL2:0
;NOZZLE_DIAMETER:0.4
;MINX:98.79
;MINY:91.081
;MINZ:0.27
;MAXX:140.572
;MAXY:131.719
;MAXZ:2.97
;TARGET_MACHINE.NAME:Ultimaker 2+
;Generated with Cura_SteamEngine 5.6.0
M82 ;absolute extrusion mode
G0 F3000 Y50 ;avoid prime blob
G92 E0
G92 E0
G10
;LAYER_COUNT:28
;LAYER:0
M107
G0 F7200 X102.121 Y94.095 Z0.27
;TYPE:SKIRT
G11
G1 F1800 X104.268 Y92.605 E0.28224
G1 X106.312 Y91.732 E0.52229
G1 X108.544 Y91.281 E0.76822
G1 X114.974 Y91.406 E1.46279
G1 X116.484 Y91.679 E1.62851
G1 X118.903 Y92.648 E1.90994
G1 X119.514 Y93.128 E1.99386
G1 X120.936 Y92.203 E2.17707
G1 X123.084 Y91.351 E2.42663
G1 X125.141 Y91.081 E2.6507
G1 X131.328 Y91.159 E3.31895
G1 X132.852 Y91.431 E3.48614
G1 X135.262 Y92.4 E3.76667
G1 X137.748 Y94.357 E4.10837
G1 X139.256 Y96.527 E4.39376
G1 X140.133 Y98.592 E4.63606
G1 X140.572 Y100.73 E4.87178
G1 X140.456 Y122.205 E7.19112
G1 X140.182 Y123.783 E7.36409
G1 X139.441 Y125.647 E7.58072
G1 X138.072 Y127.705 E7.84767
G1 X136.283 Y129.378 E8.11221
G1 X133.685 Y130.894 E8.43707
G1 X130.775 Y131.471 E8.75746
G1 X124.393 Y131.347 E9.44685
G1 X122.751 Y131.053 E9.62701
G1 X120.978 Y130.27 E9.83633
G1 X119.861 Y129.611 E9.9764
G1 X118.733 Y130.395 E10.12476
G1 X116.688 Y131.268 E10.3649
G1 X114.456 Y131.719 E10.61083
G1 X108.026 Y131.594 E11.3054
G1 X106.515 Y131.321 E11.47123
G1 X104.1 Y130.353 E11.75222
G1 X101.617 Y128.398 E12.09353
G1 X100.088 Y126.182 E12.3843
G1 X99.232 Y124.173 E12.62015
G1 X98.79 Y122.031 E12.85636
G1 X98.906 Y100.535 E15.17796
G1 X99.178 Y99.011 E15.34515
G1 X100.155 Y96.575 E15.62861
G1 X102.121 Y94.095 E15.9704
G0 F7200 X102.395 Y94.392
G1 F1800 X104.463 Y92.957 E16.24225
G1 X106.432 Y92.116 E16.47349
G1 X108.579 Y91.682 E16.71005
G1 X114.903 Y91.8 E17.39316
G1 X116.376 Y92.066 E17.55482
G1 X118.702 Y92.998 E17.82544
G1 X119.492 Y93.619 E17.93397
G1 X121.118 Y92.562 E18.14342
G1 X123.185 Y91.742 E18.38358
G1 X125.193 Y91.478 E18.60231
G1 X131.258 Y91.553 E19.25738
G1 X132.743 Y91.818 E19.42029
G1 X135.061 Y92.75 E19.69012
G1 X137.454 Y94.634 E20.01904
G1 X138.904 Y96.72 E20.29341
G1 X139.749 Y98.71 E20.52691
G1 X140.172 Y100.77 E20.75403
G1 X140.062 Y122.136 E23.06159
G1 X139.795 Y123.672 E23.22996
G1 X139.083 Y125.463 E23.43812
G1 X137.765 Y127.445 E23.69518
G1 X136.043 Y129.055 E23.94978
G1 X133.541 Y130.515 E24.26264
G1 X130.741 Y131.07 E24.57092
G1 X124.464 Y130.953 E25.24895
G1 X122.868 Y130.667 E25.42407
G1 X121.14 Y129.904 E25.62807
G1 X119.844 Y129.136 E25.79077
G1 X118.537 Y130.043 E25.96259
G1 X116.568 Y130.884 E26.19382
G1 X114.421 Y131.318 E26.43039
G1 X108.097 Y131.2 E27.1135
G1 X106.624 Y130.934 E27.27516
G1 X104.301 Y130.003 E27.54544
G1 X101.912 Y128.122 E27.87383
G1 X100.441 Y125.99 E28.15357
G1 X99.616 Y124.054 E28.38086
G1 X99.19 Y121.99 E28.60847
G1 X99.3 Y100.605 E30.91808
G1 X99.565 Y99.12 E31.08099
G1 X100.505 Y96.776 E31.35374
G1 X102.395 Y94.392 E31.68231
G0 F7200 X102.671 Y94.687
G1 F1800 X104.658 Y93.309 E31.94346
G1 X106.552 Y92.5 E32.16589
G1 X108.614 Y92.083 E32.39309
G1 X114.832 Y92.194 E33.06474
G1 X116.268 Y92.453 E33.22233
G1 X118.498 Y93.347 E33.48181
G1 X119.502 Y94.136 E33.61972
G1 X119.693 Y93.965 E33.6474
G1 X121.301 Y92.92 E33.85452
G1 X123.285 Y92.133 E34.08503
G1 X125.245 Y91.875 E34.29854
G1 X131.188 Y91.947 E34.94043
G1 X132.634 Y92.205 E35.09906
G1 X134.86 Y93.1 E35.35818
G1 X137.158 Y94.909 E35.67403
G1 X138.553 Y96.917 E35.93809
G1 X139.365 Y98.828 E36.16234
G1 X139.772 Y100.81 E36.38086
G1 X139.668 Y122.067 E38.67665
G1 X139.408 Y123.561 E38.84042
G1 X138.725 Y125.279 E39.04009
G1 X137.458 Y127.185 E39.28727
G1 X135.803 Y128.732 E39.53194
G1 X133.397 Y130.136 E39.83279
G1 X130.707 Y130.669 E40.12896
G1 X124.534 Y130.559 E40.79575
G1 X122.986 Y130.282 E40.96559
G1 X121.302 Y129.538 E41.16442
G1 X119.827 Y128.661 E41.34975
G1 X118.342 Y129.691 E41.54494
G1 X116.448 Y130.5 E41.76737
G1 X114.386 Y130.917 E41.99457
G1 X108.168 Y130.806 E42.66622
G1 X106.732 Y130.547 E42.82381
G1 X104.502 Y129.653 E43.08328
G1 X102.207 Y127.846 E43.39875
G1 X100.794 Y125.798 E43.66747
G1 X100 Y123.935 E43.88619
G1 X99.59 Y121.949 E44.1052
G1 X99.694 Y100.675 E46.40282
G1 X99.952 Y99.229 E46.56145
G1 X100.854 Y96.98 E46.82315
G1 X102.671 Y94.687 E47.13912
G0 F7200 X102.945 Y94.984
G1 F1800 X104.853 Y93.661 E47.38988
G1 X106.672 Y92.884 E47.6035
G1 X108.65 Y92.484 E47.82145
G1 X114.761 Y92.588 E48.48153
G1 X116.16 Y92.84 E48.63506
G1 X118.297 Y93.697 E48.88372
G1 X119.526 Y94.663 E49.05254
G1 X119.911 Y94.3 E49.10969
G1 X121.484 Y93.278 E49.31228
G1 X123.385 Y92.524 E49.53315
G1 X125.297 Y92.272 E49.74143
G1 X131.118 Y92.341 E50.37015
G1 X132.525 Y92.592 E50.5245
G1 X134.659 Y93.45 E50.7729
G1 X136.864 Y95.186 E51.07599
G1 X138.201 Y97.11 E51.32903
G1 X138.981 Y98.946 E51.54447
G1 X139.372 Y100.85 E51.75439
G1 X139.274 Y121.999 E54.03851
G1 X139.022 Y123.449 E54.19746
G1 X138.368 Y125.093 E54.38854
G1 X137.149 Y126.926 E54.62629
G1 X135.563 Y128.409 E54.86079
G1 X133.253 Y129.757 E55.14964
G1 X130.673 Y130.268 E55.43369
G1 X124.605 Y130.165 E56.08913
G1 X123.103 Y129.896 E56.25393
G1 X121.464 Y129.172 E56.44744
G1 X120.072 Y128.347 E56.6222
G1 X119.859 Y128.152 E56.65339
G1 X118.147 Y129.339 E56.87838
G1 X116.328 Y130.116 E57.092
G1 X114.35 Y130.516 E57.30995
G1 X108.239 Y130.412 E57.97003
G1 X106.84 Y130.16 E58.12356
G1 X104.703 Y129.303 E58.37222
G1 X102.502 Y127.57 E58.67477
G1 X101.147 Y125.606 E58.93246
G1 X100.384 Y123.816 E59.14261
G1 X99.99 Y121.908 E59.35302
G1 X100.088 Y100.745 E61.63865
G1 X100.339 Y99.338 E61.79301
G1 X101.204 Y97.181 E62.044
G1 X102.945 Y94.984 E62.34674
G0 F7200 X103.219 Y95.281
G1 F1800 X105.048 Y94.013 E62.5871
G1 X106.792 Y93.268 E62.79192
G1 X108.686 Y92.885 E63.00061
G1 X114.69 Y92.982 E63.64913
G1 X116.052 Y93.227 E63.79859
G1 X118.096 Y94.047 E64.03644
G1 X119.555 Y95.194 E64.23687
G1 X120.129 Y94.635 E64.32341
G1 X121.667 Y93.636 E64.52147
G1 X123.485 Y92.915 E64.7327
G1 X125.349 Y92.669 E64.93575
G1 X131.048 Y92.735 E65.55129
G1 X132.416 Y92.979 E65.70136
G1 X134.458 Y93.8 E65.93906
G1 X136.57 Y95.463 E66.22938
G1 X137.849 Y97.303 E66.47139
G1 X138.597 Y99.064 E66.67802
G1 X138.972 Y100.89 E66.87935
G1 X138.88 Y121.93 E69.15169
G1 X138.635 Y123.338 E69.30604
G1 X138.01 Y124.909 E69.48864
G1 X136.842 Y126.666 E69.7165
G1 X135.323 Y128.086 E69.94107
G1 X133.109 Y129.378 E70.21792
G1 X130.639 Y129.867 E70.48985
G1 X124.675 Y129.771 E71.13405
G1 X123.221 Y129.511 E71.29357
G1 X121.626 Y128.806 E71.48191
G1 X120.276 Y128.003 E71.65155
G1 X119.866 Y127.593 E71.71417
G1 X119.687 Y127.784 E71.74244
G1 X117.952 Y128.987 E71.97046
G1 X116.208 Y129.732 E72.17528
G1 X114.314 Y130.115 E72.38397
G1 X108.31 Y130.018 E73.03249
G1 X106.948 Y129.773 E73.18194
G1 X104.904 Y128.953 E73.4198
G1 X102.797 Y127.294 E73.70943
G1 X101.5 Y125.414 E73.9561
G1 X100.768 Y123.697 E74.15768
G1 X100.39 Y121.867 E74.35949
G1 X100.482 Y100.815 E76.63313
G1 X100.726 Y99.447 E76.78321
G1 X101.554 Y97.382 E77.02349
G1 X103.219 Y95.281 E77.31301
G0 F7200 X103.493 Y95.578
G1 F1800 X105.243 Y94.365 E77.54297
G1 X106.912 Y93.652 E77.73898
G1 X108.722 Y93.286 E77.93842
G1 X114.619 Y93.376 E78.57537
G1 X115.944 Y93.614 E78.72076
G1 X117.895 Y94.397 E78.9478
G1 X119.583 Y95.725 E79.17976
G1 X120.379 Y94.949 E79.29982
G1 X121.85 Y93.994 E79.48923
G1 X123.585 Y93.306 E79.69081
G1 X125.401 Y93.066 E79.88864
G1 X130.978 Y93.129 E80.491
G1 X132.307 Y93.366 E80.63679
G1 X134.257 Y94.15 E80.86378
G1 X136.274 Y95.738 E81.14102
G1 X137.498 Y97.5 E81.37273
G1 X138.213 Y99.182 E81.57012
G1 X138.572 Y100.93 E81.76284
G1 X138.486 Y121.861 E84.02341
G1 X138.248 Y123.227 E84.17316
G1 X137.653 Y124.723 E84.34704
G1 X136.533 Y126.407 E84.56546
G1 X135.083 Y127.763 E84.77987
G1 X132.965 Y128.999 E85.04471
G1 X130.605 Y129.466 E85.30453
G1 X124.745 Y129.377 E85.93749
G1 X123.339 Y129.126 E86.09174
G1 X121.788 Y128.44 E86.2749
G1 X120.525 Y127.686 E86.43376
G1 X119.841 Y127.001 E86.53831
G1 X119.459 Y127.455 E86.60239
G1 X117.757 Y128.635 E86.82606
G1 X116.088 Y129.348 E87.02207
G1 X114.278 Y129.714 E87.22151
G1 X108.381 Y129.624 E87.85846
G1 X107.056 Y129.386 E88.00385
G1 X105.105 Y128.603 E88.23089
G1 X103.092 Y127.018 E88.5076
G1 X101.853 Y125.222 E88.74324
G1 X101.152 Y123.578 E88.93626
G1 X100.79 Y121.826 E89.12948
G1 X100.876 Y100.885 E91.39112
G1 X101.113 Y99.556 E91.53692
G1 X101.904 Y97.583 E91.76649
G1 X103.493 Y95.578 E92.04279
G0 F7200 X103.769 Y95.874
G1 F1800 X105.438 Y94.717 E92.26212
G1 X107.032 Y94.036 E92.44932
G1 X108.758 Y93.687 E92.6395
G1 X114.548 Y93.77 E93.26489
G1 X115.836 Y94.001 E93.40621
G1 X117.694 Y94.747 E93.62244
G1 X119.611 Y96.256 E93.88593
G1 X120.626 Y95.266 E94.03906
G1 X122.037 Y94.35 E94.22074
G1 X123.685 Y93.697 E94.41219
G1 X125.453 Y93.463 E94.6048
G1 X130.908 Y93.523 E95.19397
G1 X132.198 Y93.753 E95.33549
G1 X134.056 Y94.5 E95.55176
G1 X135.98 Y96.015 E95.81624
G1 X137.146 Y97.693 E96.03692
G1 X137.829 Y99.3 E96.2255
G1 X138.172 Y100.97 E96.40963
G1 X138.092 Y121.792 E98.65842
G1 X137.861 Y123.116 E98.80357
G1 X137.295 Y124.539 E98.96897
G1 X136.226 Y126.147 E99.17751
G1 X134.843 Y127.44 E99.38198
G1 X132.821 Y128.62 E99.63482
G1 X130.571 Y129.065 E99.88253
G1 X124.815 Y128.983 E100.50424
G1 X123.457 Y128.741 E100.65322
G1 X121.95 Y128.074 E100.8312
G1 X120.773 Y127.368 E100.97943
G1 X119.806 Y126.4 E101.1272
G1 X119.231 Y127.126 E101.22722
G1 X117.562 Y128.283 E101.44655
G1 X115.968 Y128.964 E101.63376
G1 X114.242 Y129.313 E101.82394
G1 X108.452 Y129.23 E102.44932
G1 X107.164 Y128.999 E102.59064
G1 X105.306 Y128.253 E102.80688
G1 X103.387 Y126.742 E103.07067
G1 X102.206 Y125.03 E103.29529
G1 X101.536 Y123.459 E103.47974
G1 X101.19 Y121.785 E103.66436
G1 X101.27 Y100.955 E105.91401
G1 X101.5 Y99.665 E106.05553
G1 X102.253 Y97.786 E106.27415
G1 X103.769 Y95.874 E106.53768
G0 F7200 X104.045 Y96.169
G1 F1800 X105.633 Y95.069 E106.74631
G1 X107.152 Y94.42 E106.92471
G1 X108.794 Y94.088 E107.10563
G1 X114.477 Y94.164 E107.71945
G1 X115.728 Y94.388 E107.85671
G1 X117.493 Y95.097 E108.06213
G1 X119.27 Y96.496 E108.30639
G1 X119.593 Y96.933 E108.36508
G1 X119.81 Y96.621 E108.40612
G1 X120.873 Y95.583 E108.56658
G1 X122.224 Y94.706 E108.74054
G1 X123.784 Y94.088 E108.92175
G1 X125.506 Y93.86 E109.10935
G1 X130.838 Y93.917 E109.68524
G1 X132.089 Y94.14 E109.82248
G1 X133.853 Y94.849 E110.02781
G1 X135.685 Y96.292 E110.27967
G1 X136.795 Y97.89 E110.4898
G1 X137.444 Y99.417 E110.66899
G1 X137.772 Y101.011 E110.84475
G1 X137.698 Y121.723 E113.08166
G1 X137.474 Y123.005 E113.22222
G1 X136.938 Y124.353 E113.37889
G1 X135.917 Y125.888 E113.57799
G1 X134.603 Y127.117 E113.7723
G1 X132.677 Y128.241 E114.01314
G1 X130.536 Y128.664 E114.24884
G1 X124.885 Y128.589 E114.8592
G1 X123.575 Y128.356 E115.0029
G1 X122.112 Y127.708 E115.17571
G1 X121.022 Y127.051 E115.31316
G1 X119.772 Y125.8 E115.50416
G1 X118.955 Y126.83 E115.64614
G1 X117.367 Y127.931 E115.85483
G1 X115.848 Y128.58 E116.03323
G1 X114.206 Y128.912 E116.21416
G1 X108.523 Y128.836 E116.82798
G1 X107.272 Y128.612 E116.96523
G1 X105.507 Y127.903 E117.17066
G1 X103.682 Y126.466 E117.42152
G1 X102.559 Y124.838 E117.63512
G1 X101.92 Y123.34 E117.81101
G1 X101.59 Y121.743 E117.98713
G1 X101.664 Y101.025 E120.22469
G1 X101.887 Y99.774 E120.36193
G1 X102.602 Y97.99 E120.5695
G1 X104.045 Y96.169 E120.82043
G0 F7200 X104.319 Y96.466
G1 F1800 X105.828 Y95.421 E121.01866
G1 X107.272 Y94.804 E121.18825
G1 X108.831 Y94.489 E121.36003
G1 X114.407 Y94.558 E121.96228
G1 X115.619 Y94.775 E122.09526
G1 X117.292 Y95.447 E122.28997
G1 X119.023 Y96.81 E122.52792
G1 X119.601 Y97.648 E122.63787
G1 X120.089 Y96.907 E122.73369
G1 X121.12 Y95.9 E122.88934
G1 X122.411 Y95.062 E123.05556
G1 X123.883 Y94.479 E123.22655
G1 X125.559 Y94.257 E123.40914
G1 X130.768 Y94.311 E123.97175
G1 X131.98 Y94.527 E124.1047
G1 X133.652 Y95.199 E124.29932
G1 X135.389 Y96.567 E124.53811
G1 X136.444 Y98.087 E124.73794
G1 X137.059 Y99.534 E124.90774
G1 X137.372 Y101.052 E125.07513
G1 X137.304 Y121.654 E127.30016
G1 X137.087 Y122.894 E127.43612
G1 X136.58 Y124.169 E127.5843
G1 X135.61 Y125.628 E127.77352
G1 X134.363 Y126.794 E127.9579
G1 X132.533 Y127.862 E128.18674
G1 X130.502 Y128.263 E128.41032
G1 X124.955 Y128.195 E129.00944
G1 X123.691 Y127.97 E129.1481
G1 X122.319 Y127.365 E129.31004
G1 X121.269 Y126.732 E129.44245
G1 X120.175 Y125.637 E129.60962
G1 X119.79 Y125.133 E129.67812
G1 X118.679 Y126.535 E129.87131
G1 X117.172 Y127.579 E130.06931
G1 X115.728 Y128.196 E130.2389
G1 X114.169 Y128.511 E130.41068
G1 X108.593 Y128.442 E131.01293
G1 X107.381 Y128.225 E131.14591
G1 X105.708 Y127.553 E131.34062
G1 X103.977 Y126.19 E131.57857
G1 X102.912 Y124.646 E131.78114
G1 X102.304 Y123.221 E131.94846
G1 X101.99 Y121.701 E132.11609
G1 X102.058 Y101.095 E134.34155
G1 X102.274 Y99.883 E134.47451
G1 X102.952 Y98.191 E134.67137
G1 X104.319 Y96.466 E134.90908
G0 F7200 X104.595 Y96.762
G1 F1800 X106.023 Y95.773 E135.09668
G1 X107.392 Y95.188 E135.25746
G1 X108.868 Y94.89 E135.42009
G1 X114.337 Y94.952 E136.01078
G1 X115.51 Y95.162 E136.13947
G1 X117.091 Y95.797 E136.32348
G1 X118.728 Y97.086 E136.54851
G1 X119.609 Y98.363 E136.71606
G1 X120.4 Y97.161 E136.87146
G1 X121.367 Y96.217 E137.01741
G1 X122.598 Y95.418 E137.17591
G1 X123.982 Y94.87 E137.33667
G1 X125.612 Y94.654 E137.51425
G1 X130.698 Y94.705 E138.06357
G1 X131.871 Y94.914 E138.19225
G1 X133.451 Y95.549 E138.37615
G1 X135.093 Y96.842 E138.60187
G1 X136.093 Y98.284 E138.79139
G1 X136.674 Y99.651 E138.95181
G1 X136.972 Y101.094 E139.11094
G1 X136.91 Y121.585 E141.32398
G1 X136.7 Y122.783 E141.45533
G1 X136.223 Y123.983 E141.5948
G1 X135.301 Y125.369 E141.77458
G1 X134.123 Y126.471 E141.94879
G1 X132.389 Y127.483 E142.16563
G1 X130.467 Y127.863 E142.37722
G1 X125.025 Y127.801 E142.96499
G1 X123.807 Y127.584 E143.09861
G1 X122.525 Y127.022 E143.24979
G1 X121.518 Y126.415 E143.37677
G1 X120.458 Y125.354 E143.53875
G1 X119.766 Y124.439 E143.66265
G1 X119.662 Y124.652 E143.68825
G1 X118.405 Y126.238 E143.90681
G1 X116.977 Y127.227 E144.09441
G1 X115.608 Y127.812 E144.25519
G1 X114.132 Y128.11 E144.41782
G1 X108.663 Y128.048 E145.00851
G1 X107.49 Y127.838 E145.13721
G1 X105.909 Y127.203 E145.32121
G1 X104.272 Y125.914 E145.54624
G1 X103.265 Y124.454 E145.73779
G1 X102.688 Y123.102 E145.89654
G1 X102.39 Y121.659 E146.05568
G1 X102.452 Y101.165 E148.26904
G1 X102.661 Y99.992 E148.39772
G1 X103.301 Y98.395 E148.58353
G1 X104.595 Y96.762 E148.80855
G0 F7200 X104.869 Y97.059
G1 F1800 X106.218 Y96.125 E148.98575
G1 X107.512 Y95.572 E149.13773
G1 X108.905 Y95.29 E149.29123
G1 X114.267 Y95.346 E149.87036
G1 X115.401 Y95.549 E149.99478
G1 X116.89 Y96.147 E150.16807
G1 X118.433 Y97.362 E150.38018
G1 X119.382 Y98.738 E150.5607
G1 X119.624 Y99.304 E150.62718
G1 X119.86 Y98.71 E150.69621
G1 X120.71 Y97.418 E150.86324
G1 X121.617 Y96.532 E151.00017
G1 X122.785 Y95.774 E151.15055
G1 X124.081 Y95.261 E151.30109
G1 X125.665 Y95.051 E151.47366
G1 X130.628 Y95.099 E152.00969
G1 X131.762 Y95.301 E152.13409
G1 X133.25 Y95.899 E152.30728
G1 X134.797 Y97.117 E152.51993
G1 X135.741 Y98.479 E152.6989
G1 X136.29 Y99.77 E152.85041
G1 X136.572 Y101.136 E153.00105
G1 X136.516 Y121.516 E155.2021
G1 X136.313 Y122.672 E155.32886
G1 X135.865 Y123.799 E155.45984
G1 X134.994 Y125.109 E155.62974
G1 X133.883 Y126.148 E155.79402
G1 X132.245 Y127.104 E155.99885
G1 X130.432 Y127.463 E156.19845
G1 X125.095 Y127.407 E156.77488
G1 X123.925 Y127.199 E156.90322
G1 X122.731 Y126.679 E157.04387
G1 X121.767 Y126.098 E157.16543
G1 X120.741 Y125.071 E157.32222
G1 X120.034 Y124.13 E157.44933
G1 X119.734 Y123.442 E157.53039
G1 X119.349 Y124.404 E157.6423
G1 X118.131 Y125.941 E157.8541
G1 X116.782 Y126.875 E158.0313
G1 X115.488 Y127.428 E158.18328
G1 X114.095 Y127.71 E158.33678
G1 X108.733 Y127.654 E158.9159
G1 X107.599 Y127.451 E159.04032
G1 X106.11 Y126.853 E159.21362
G1 X104.567 Y125.638 E159.42573
G1 X103.618 Y124.262 E159.60625
G1 X103.072 Y122.983 E159.75644
G1 X102.79 Y121.617 E159.90708
G1 X102.846 Y101.235 E162.10834
G1 X103.048 Y100.101 E162.23274
