;FLAVOR:UltiGCode
;TIME:11939
;MATERIAL:11114
;MATERIAL2:0
;NOZZLE_DIAMETER:0.4
;MINX:73.526
;MINY:78.79
;MINZ:0.27
;MAXX:161.459
;MAXY:144.256
;MAXZ:44.97
;TARGET_MACHINE.NAME:Ultimaker 2+
;Generated with Cura_SteamEngine 5.6.0
M82 ;absolute extrusion mode
G0 F3000 Y50 ;avoid prime blob
G92 E0
G92 E0
G10
;LAYER_COUNT:448
;LAYER:0
M107
G0 F7200 X77.183 Y79.793 Z0.27
;TYPE:SKIRT
G11
G1 F1800 X74.616 Y82.286 E0.38646
G1 X74.416 Y82.602 E0.42685
G1 X73.526 Y85.22 E0.72549
G1 X73.526 Y137.477 E6.36924
G1 X74.517 Y140.534 E6.71631
G1 X76.599 Y142.68 E7.03923
G1 X78.419 Y143.79 E7.26946
G1 X80.347 Y144.21 E7.48257
G1 X95.222 Y144.21 E9.08907
G1 X96.438 Y143.817 E9.22709
G1 X96.631 Y143.888 E9.2493
G1 X98.111 Y144.21 E9.41288
G1 X124.971 Y144.21 E12.31376
G1 X126.108 Y143.843 E12.44279
G1 X126.313 Y143.92 E12.46644
G1 X127.868 Y144.256 E12.63826
G1 X154.726 Y144.256 E15.53892
G1 X157.783 Y143.265 E15.88599
G1 X159.929 Y141.183 E16.20891
G1 X161.039 Y139.363 E16.43914
G1 X161.459 Y137.435 E16.65225
G1 X161.459 Y85.565 E22.25421
G1 X160.456 Y82.493 E22.60322
G1 X157.963 Y79.926 E22.98968
G1 X157.647 Y79.726 E23.03007
G1 X155.029 Y78.836 E23.32871
G1 X127.768 Y78.836 E26.2729
G1 X126.568 Y79.227 E26.4092
G1 X125.278 Y78.79 E26.5563
G1 X98.012 Y78.79 E29.50103
G1 X96.744 Y79.207 E29.64519
G1 X95.516 Y78.79 E29.78525
G1 X80.255 Y78.79 E31.43344
G1 X77.183 Y79.793 E31.78245
G0 F7200 X77.396 Y80.144
G1 F1800 X80.318 Y79.19 E32.11442
G1 X95.449 Y79.19 E33.74857
G1 X96.742 Y79.629 E33.89604
G1 X98.076 Y79.19 E34.04771
G1 X125.211 Y79.19 E36.97829
G1 X126.564 Y79.649 E37.1326
G1 X127.831 Y79.236 E37.27652
G1 X154.962 Y79.236 E40.20667
G1 X157.518 Y80.105 E40.49823
G1 X157.676 Y80.205 E40.51843
G1 X160.105 Y82.706 E40.89496
G1 X161.059 Y85.628 E41.22693
G1 X161.059 Y137.391 E46.81733
G1 X160.662 Y139.214 E47.01883
G1 X159.616 Y140.929 E47.23578
G1 X157.571 Y142.913 E47.5435
G1 X154.662 Y143.856 E47.87377
G1 X127.91 Y143.856 E50.76299
G1 X126.397 Y143.529 E50.93016
G1 X126.123 Y143.417 E50.96213
G1 X124.907 Y143.81 E51.10015
G1 X98.155 Y143.81 E53.98936
G1 X96.716 Y143.497 E54.14841
G1 X96.451 Y143.392 E54.17919
G1 X95.158 Y143.81 E54.32595
G1 X80.391 Y143.81 E55.92079
G1 X78.568 Y143.413 E56.12229
G1 X76.853 Y142.367 E56.33924
G1 X74.869 Y140.322 E56.64696
G1 X73.926 Y137.413 E56.97723
G1 X73.926 Y85.287 E62.60684
G1 X74.795 Y82.731 E62.8984
G1 X74.895 Y82.573 E62.9186
G1 X77.396 Y80.144 E63.29513
G0 F7200 X77.609 Y80.495
G1 F1800 X75.174 Y82.86 E63.66173
G1 X74.326 Y85.354 E63.94623
G1 X74.326 Y137.349 E69.56169
G1 X75.221 Y140.11 E69.87515
G1 X77.107 Y142.054 E70.16767
G1 X78.717 Y143.036 E70.37134
G1 X80.435 Y143.41 E70.56123
G1 X95.094 Y143.41 E72.14441
G1 X96.47 Y142.965 E72.30059
G1 X96.801 Y143.106 E72.33945
G1 X98.199 Y143.41 E72.49396
G1 X124.843 Y143.41 E75.37151
G1 X126.144 Y142.989 E75.51919
G1 X126.482 Y143.138 E75.55909
G1 X127.953 Y143.456 E75.72163
G1 X154.598 Y143.456 E78.59929
G1 X157.359 Y142.561 E78.91275
G1 X159.303 Y140.675 E79.20527
G1 X160.285 Y139.065 E79.40894
G1 X160.659 Y137.347 E79.59883
G1 X160.659 Y85.691 E85.17768
G1 X159.754 Y82.919 E85.49261
G1 X157.389 Y80.484 E85.85921
G1 X154.895 Y79.636 E86.14371
G1 X127.894 Y79.636 E89.05981
G1 X126.561 Y80.071 E89.21125
G1 X125.144 Y79.59 E89.37286
G1 X98.14 Y79.59 E92.28929
G1 X96.739 Y80.051 E92.44858
G1 X95.382 Y79.59 E92.60337
G1 X80.381 Y79.59 E94.22347
G1 X77.609 Y80.495 E94.5384
G0 F7200 X77.822 Y80.846
G1 F1800 X75.522 Y83.08 E94.88469
G1 X74.726 Y85.421 E95.15173
G1 X74.726 Y137.285 E100.75304
G1 X75.573 Y139.898 E101.0497
G1 X77.361 Y141.741 E101.32703
G1 X78.866 Y142.659 E101.51742
G1 X80.479 Y143.01 E101.6957
G1 X95.03 Y143.01 E103.26721
G1 X96.495 Y142.536 E103.4335
G1 X96.886 Y142.715 E103.47994
G1 X98.243 Y143.01 E103.62992
G1 X124.779 Y143.01 E106.49581
G1 X126.172 Y142.559 E106.65394
G1 X126.567 Y142.747 E106.70119
G1 X127.996 Y143.056 E106.85909
G1 X154.534 Y143.056 E109.72519
G1 X157.147 Y142.209 E110.02185
G1 X158.99 Y140.421 E110.29917
G1 X159.908 Y138.916 E110.48956
G1 X160.259 Y137.303 E110.66785
G1 X160.259 Y85.754 E116.23514
G1 X159.403 Y83.132 E116.53302
G1 X157.169 Y80.832 E116.87931
G1 X154.828 Y80.036 E117.14635
G1 X127.957 Y80.036 E120.04842
G1 X126.558 Y80.492 E120.20734
G1 X125.078 Y79.99 E120.37612
G1 X98.204 Y79.99 E123.27851
G1 X96.737 Y80.473 E123.44532
G1 X95.315 Y79.99 E123.60751
G1 X80.444 Y79.99 E125.21358
G1 X77.822 Y80.846 E125.51146
G0 F7200 X78.035 Y81.197
G1 F1800 X80.507 Y80.39 E125.7923
G1 X95.248 Y80.39 E127.38433
G1 X96.734 Y80.895 E127.55383
G1 X98.268 Y80.39 E127.72825
G1 X125.012 Y80.39 E130.6166
G1 X126.555 Y80.913 E130.79256
G1 X128.02 Y80.436 E130.95896
G1 X154.761 Y80.436 E133.84698
G1 X156.949 Y81.18 E134.09658
G1 X159.052 Y83.345 E134.42255
G1 X159.859 Y85.817 E134.70339
G1 X159.859 Y137.259 E140.25913
G1 X159.531 Y138.767 E140.4258
G1 X158.677 Y140.167 E140.60291
G1 X156.935 Y141.857 E140.86503
G1 X154.47 Y142.656 E141.14489
G1 X128.039 Y142.656 E143.99944
G1 X126.652 Y142.356 E144.1527
G1 X126.207 Y142.127 E144.20675
G1 X124.715 Y142.61 E144.37611
G1 X98.287 Y142.61 E147.23034
G1 X96.971 Y142.324 E147.37578
G1 X96.525 Y142.106 E147.4294
G1 X94.966 Y142.61 E147.60635
G1 X80.523 Y142.61 E149.16619
G1 X79.015 Y142.282 E149.33287
G1 X77.615 Y141.428 E149.50998
G1 X75.925 Y139.686 E149.7721
G1 X75.126 Y137.221 E150.05196
G1 X75.126 Y85.488 E155.63912
G1 X75.87 Y83.3 E155.88871
G1 X78.035 Y81.197 E156.21468
G0 F7200 X78.248 Y81.548
G1 F1800 X80.57 Y80.79 E156.47848
G1 X95.181 Y80.79 E158.05647
G1 X96.732 Y81.317 E158.23338
G1 X98.332 Y80.79 E158.41532
G1 X124.945 Y80.79 E161.28952
G1 X126.551 Y81.335 E161.47268
G1 X128.083 Y80.836 E161.6467
G1 X154.694 Y80.836 E164.52068
G1 X156.729 Y81.528 E164.75282
G1 X158.701 Y83.558 E165.05848
G1 X159.459 Y85.88 E165.32228
G1 X159.459 Y137.215 E170.86646
G1 X159.154 Y138.618 E171.02152
G1 X158.364 Y139.913 E171.18535
G1 X156.723 Y141.505 E171.43228
G1 X154.406 Y142.256 E171.69533
G1 X128.082 Y142.256 E174.53832
G1 X126.737 Y141.965 E174.68694
G1 X126.249 Y141.692 E174.74733
G1 X124.651 Y142.21 E174.92876
G1 X98.331 Y142.21 E177.77132
G1 X97.056 Y141.933 E177.91223
G1 X96.561 Y141.674 E177.97256
G1 X94.902 Y142.21 E178.16086
G1 X80.567 Y142.21 E179.70904
G1 X79.164 Y141.905 E179.8641
G1 X77.869 Y141.115 E180.02793
G1 X76.277 Y139.474 E180.27485
G1 X75.526 Y137.157 E180.53791
G1 X75.526 Y85.555 E186.11092
G1 X76.218 Y83.52 E186.34306
G1 X78.248 Y81.548 E186.64872
G0 F7200 X78.461 Y81.899
G1 F1800 X80.633 Y81.19 E186.89547
G1 X95.114 Y81.19 E188.45942
G1 X96.729 Y81.739 E188.64364
G1 X98.396 Y81.19 E188.83319
G1 X124.878 Y81.19 E191.69325
G1 X126.547 Y81.757 E191.88362
G1 X128.146 Y81.236 E192.06525
G1 X154.627 Y81.236 E194.92519
G1 X156.509 Y81.876 E195.13988
G1 X158.35 Y83.771 E195.42522
G1 X159.059 Y85.943 E195.67198
G1 X159.059 Y137.171 E201.2046
G1 X158.777 Y138.469 E201.34805
G1 X158.051 Y139.659 E201.4986
G1 X156.511 Y141.153 E201.73033
G1 X154.342 Y141.856 E201.97658
G1 X128.125 Y141.856 E204.80801
G1 X126.822 Y141.574 E204.952
G1 X126.299 Y141.255 E205.01816
G1 X124.587 Y141.81 E205.21253
G1 X98.375 Y141.81 E208.04342
G1 X97.141 Y141.542 E208.1798
G1 X96.604 Y141.239 E208.24639
G1 X94.838 Y141.81 E208.44684
G1 X80.611 Y141.81 E209.98336
G1 X79.313 Y141.528 E210.12681
G1 X78.123 Y140.802 E210.27736
G1 X76.629 Y139.262 E210.50909
G1 X75.926 Y137.093 E210.75534
G1 X75.926 Y85.622 E216.31421
G1 X76.566 Y83.74 E216.52889
G1 X78.461 Y81.899 E216.81423
G0 F7200 X78.674 Y82.25
G1 F1800 X76.914 Y83.96 E217.07925
G1 X76.326 Y85.689 E217.27649
G1 X76.326 Y137.029 E222.82121
G1 X76.981 Y139.05 E223.05065
G1 X78.377 Y140.489 E223.26718
G1 X79.462 Y141.151 E223.40445
G1 X80.655 Y141.41 E223.5363
G1 X94.774 Y141.41 E225.06115
G1 X96.654 Y140.802 E225.27454
G1 X97.226 Y141.151 E225.34691
G1 X98.419 Y141.41 E225.47875
G1 X124.526 Y141.41 E228.29831
G1 X126.351 Y140.818 E228.50552
G1 X126.973 Y141.197 E228.58419
G1 X128.168 Y141.456 E228.71624
G1 X154.278 Y141.456 E231.53612
G1 X156.299 Y140.801 E231.76557
G1 X157.738 Y139.405 E231.98209
G1 X158.4 Y138.32 E232.11936
G1 X158.659 Y137.127 E232.25121
G1 X158.659 Y86.006 E237.77228
G1 X157.999 Y83.984 E238.00199
G1 X156.289 Y82.224 E238.26701
G1 X154.56 Y81.636 E238.46425
G1 X128.209 Y81.636 E241.31016
G1 X126.462 Y82.206 E241.50862
G1 X126.267 Y82.085 E241.53341
G1 X124.811 Y81.59 E241.69949
G1 X98.46 Y81.59 E244.5454
G1 X96.666 Y82.181 E244.7494
G1 X96.503 Y82.085 E244.76983
G1 X95.047 Y81.59 E244.93591
G1 X80.696 Y81.59 E246.48582
G1 X78.674 Y82.25 E246.71554
G0 F7200 X78.887 Y82.601
G1 F1800 X80.759 Y81.99 E246.92821
G1 X94.98 Y81.99 E248.46408
G1 X96.374 Y82.464 E248.62309
G1 X96.642 Y82.658 E248.65883
G1 X96.828 Y82.543 E248.68244
G1 X98.523 Y81.99 E248.875
G1 X124.744 Y81.99 E251.70687
G1 X126.138 Y82.464 E251.86589
G1 X126.449 Y82.696 E251.90779
G1 X126.667 Y82.56 E251.93554
G1 X128.272 Y82.036 E252.11788
G1 X154.493 Y82.036 E254.94975
G1 X156.069 Y82.572 E255.12953
G1 X157.648 Y84.197 E255.37424
G1 X158.259 Y86.069 E255.58691
G1 X158.259 Y137.083 E261.09643
G1 X158.023 Y138.171 E261.21666
G1 X157.425 Y139.151 E261.34065
G1 X156.087 Y140.449 E261.54198
G1 X154.214 Y141.056 E261.75462
G1 X128.212 Y141.056 E264.56284
G1 X127.124 Y140.82 E264.68307
G1 X126.345 Y140.345 E264.78161
G1 X126.158 Y140.461 E264.80538
G1 X124.465 Y141.01 E264.99759
G1 X98.463 Y141.01 E267.80581
G1 X97.375 Y140.774 E267.92605
G1 X96.623 Y140.315 E268.0212
G1 X96.395 Y140.465 E268.05067
G1 X94.71 Y141.01 E268.24193
G1 X80.699 Y141.01 E269.75512
G1 X79.611 Y140.774 E269.87536
G1 X78.631 Y140.176 E269.99935
G1 X77.333 Y138.838 E270.20068
G1 X76.726 Y136.965 E270.41332
G1 X76.726 Y85.756 E275.94389
G1 X77.262 Y84.18 E276.12367
G1 X78.887 Y82.601 E276.36838
G0 F7200 X79.1 Y82.952
G1 F1800 X80.822 Y82.39 E276.56401
G1 X94.913 Y82.39 E278.08584
G1 X96.245 Y82.843 E278.23778
G1 X96.632 Y83.178 E278.29306
G1 X96.952 Y82.923 E278.33725
G1 X98.586 Y82.39 E278.52288
G1 X124.677 Y82.39 E281.34071
G1 X126.009 Y82.843 E281.49265
G1 X126.428 Y83.211 E281.55288
G1 X126.791 Y82.94 E281.60181
G1 X128.335 Y82.436 E281.77722
G1 X154.426 Y82.436 E284.59504
G1 X155.849 Y82.92 E284.75737
G1 X157.297 Y84.41 E284.98177
G1 X157.859 Y86.132 E285.1774
G1 X157.859 Y137.039 E290.67535
G1 X157.646 Y138.02 E290.78377
G1 X157.11 Y138.899 E290.89496
G1 X155.874 Y140.098 E291.08093
G1 X154.153 Y140.656 E291.27633
G1 X128.256 Y140.656 E294.0732
G1 X127.275 Y140.443 E294.18162
G1 X126.317 Y139.859 E294.30279
G1 X126.035 Y140.081 E294.34155
G1 X124.404 Y140.61 E294.52674
G1 X98.507 Y140.61 E297.32361
G1 X97.526 Y140.397 E297.43203
G1 X96.593 Y139.828 E297.55005
G1 X96.272 Y140.084 E297.5944
G1 X94.646 Y140.61 E297.77896
G1 X80.743 Y140.61 E299.28049
G1 X79.762 Y140.397 E299.3889
G1 X78.883 Y139.861 E299.50009
G1 X77.684 Y138.625 E299.68607
G1 X77.126 Y136.904 E299.88146
G1 X77.126 Y85.823 E305.39821
G1 X77.61 Y84.4 E305.56054
G1 X79.1 Y82.952 E305.78493
G0 F7200 X79.313 Y83.303
G1 F1800 X80.885 Y82.79 E305.96352
G1 X94.846 Y82.79 E307.47131
G1 X96.116 Y83.222 E307.61619
G1 X96.624 Y83.744 E307.69485
G1 X97.076 Y83.303 E307.76305
G1 X98.649 Y82.79 E307.94174
G1 X124.61 Y82.79 E310.74553
G1 X125.88 Y83.222 E310.89041
G1 X126.403 Y83.76 E310.97144
G1 X126.915 Y83.32 E311.04435
G1 X128.398 Y82.836 E311.21283
G1 X154.359 Y82.836 E314.01662
G1 X155.629 Y83.268 E314.1615
G1 X156.946 Y84.623 E314.36557
G1 X157.459 Y86.195 E314.54416
G1 X157.459 Y136.995 E320.03056
G1 X157.269 Y137.869 E320.12716
G1 X156.795 Y138.647 E320.22555
G1 X155.661 Y139.747 E320.39617
G1 X154.092 Y140.256 E320.57432
G1 X128.3 Y140.256 E323.35985
G1 X127.426 Y140.066 E323.45645
G1 X126.686 Y139.615 E323.55004
G1 X126.345 Y139.281 E323.60159
G1 X125.912 Y139.701 E323.66674
G1 X124.343 Y140.21 E323.84489
G1 X98.551 Y140.21 E326.63042
G1 X97.677 Y140.02 E326.72702
G1 X96.94 Y139.571 E326.82022
G1 X96.612 Y139.251 E326.86971
G1 X96.149 Y139.703 E326.9396
G1 X94.582 Y140.21 E327.11747
G1 X80.787 Y140.21 E328.60733
G1 X79.913 Y140.02 E328.70393
G1 X79.135 Y139.546 E328.80232
G1 X78.035 Y138.412 E328.97294
G1 X77.526 Y136.843 E329.15109
G1 X77.526 Y85.89 E334.65401
G1 X77.958 Y84.62 E334.79889
G1 X79.313 Y83.303 E335.00296
G0 F7200 X79.526 Y83.654
G1 F1800 X80.948 Y83.19 E335.16451
G1 X94.779 Y83.19 E336.65826
G1 X95.896 Y83.57 E336.78568
G1 X96.616 Y84.31 E336.89719
G1 X97.29 Y83.654 E336.99877
G1 X98.712 Y83.19 E337.16031
G1 X124.543 Y83.19 E339.95006
G1 X125.66 Y83.57 E340.07749
G1 X126.395 Y84.326 E340.19136
G1 X127.039 Y83.7 E340.28836
G1 X128.461 Y83.236 E340.4499
G1 X154.292 Y83.236 E343.23965
G1 X155.409 Y83.616 E343.36708
G1 X156.595 Y84.836 E343.55084
G1 X157.059 Y86.258 E343.71238
G1 X157.059 Y136.951 E349.18723
G1 X156.892 Y137.718 E349.272
G1 X156.478 Y138.398 E349.35798
G1 X155.449 Y139.396 E349.5128
G1 X154.031 Y139.856 E349.6738
G1 X128.344 Y139.856 E352.44799
G1 X127.577 Y139.689 E352.53277
G1 X126.894 Y139.273 E352.61914
G1 X126.354 Y138.716 E352.70293
G1 X125.7 Y139.35 E352.8013
G1 X124.282 Y139.81 E352.9623
G1 X98.595 Y139.81 E355.7365
G1 X97.828 Y139.643 E355.82127
G1 X97.148 Y139.229 E355.90725
G1 X96.62 Y138.685 E355.98913
G1 X95.938 Y139.35 E356.092
G1 X94.518 Y139.81 E356.25321
G1 X80.831 Y139.81 E357.7314
G1 X80.064 Y139.643 E357.81618
G1 X79.384 Y139.229 E357.90216
G1 X78.386 Y138.2 E358.05698
G1 X77.926 Y136.782 E358.21798
G1 X77.926 Y85.957 E363.70708
G1 X78.306 Y84.84 E363.8345
G1 X79.526 Y83.654 E364.01826
G0 F7200 X79.739 Y84.005
G1 F1800 X81.011 Y83.59 E364.16276
G1 X94.712 Y83.59 E365.64247
G1 X95.676 Y83.918 E365.75245
G1 X96.608 Y84.876 E365.89679
G1 X97.503 Y84.005 E366.03167
G1 X98.775 Y83.59 E366.17617
G1 X124.476 Y83.59 E368.95188
G1 X125.44 Y83.918 E369.06186
G1 X126.387 Y84.892 E369.20857
G1 X127.252 Y84.051 E369.33887
G1 X128.524 Y83.636 E369.48337
G1 X154.225 Y83.636 E372.25908
G1 X155.189 Y83.964 E372.36905
G1 X156.244 Y85.049 E372.53249
G1 X156.659 Y86.321 E372.677
G1 X156.659 Y136.907 E378.14029
G1 X156.515 Y137.567 E378.21324
G1 X156.161 Y138.149 E378.28681
G1 X155.237 Y139.045 E378.42582
G1 X153.97 Y139.456 E378.56967
G1 X128.388 Y139.456 E381.33253
G1 X127.728 Y139.312 E381.40549
G1 X127.146 Y138.958 E381.47906
G1 X126.363 Y138.151 E381.60049
G1 X125.488 Y138.999 E381.73209
G1 X124.221 Y139.41 E381.87595
G1 X98.639 Y139.41 E384.6388
G1 X97.979 Y139.266 E384.71176
G1 X97.397 Y138.912 E384.78533
G1 X96.628 Y138.119 E384.90463
G1 X95.724 Y138.999 E385.04088
G1 X94.457 Y139.41 E385.18474
G1 X80.875 Y139.41 E386.65159
G1 X80.215 Y139.266 E386.72455
G1 X79.633 Y138.912 E386.79812
G1 X78.737 Y137.988 E386.93713
G1 X78.326 Y136.721 E387.08098
G1 X78.326 Y86.024 E392.55626
G1 X78.654 Y85.06 E392.66623
G1 X79.739 Y84.005 E392.82967
G0 F7200 X79.952 Y84.356
G1 F1800 X81.074 Y83.99 E392.95713
G1 X94.645 Y83.99 E394.4228
G1 X95.456 Y84.266 E394.51532
G1 X96.38 Y85.216 E394.65845
G1 X96.579 Y85.828 E394.72795
G1 X96.835 Y85.213 E394.7999
G1 X97.716 Y84.356 E394.93264
G1 X98.838 Y83.99 E395.0601
G1 X124.409 Y83.99 E397.82176
G1 X125.22 Y84.266 E397.91429
G1 X126.144 Y85.216 E398.05741
G1 X126.344 Y85.829 E398.12705
G1 X126.584 Y85.259 E398.19384
G1 X127.465 Y84.402 E398.32658
G1 X128.587 Y84.036 E398.45404
G1 X154.158 Y84.036 E401.21571
G1 X154.969 Y84.312 E401.30823
G1 X155.893 Y85.262 E401.45136
G1 X156.259 Y86.384 E401.57882
G1 X156.259 Y136.863 E407.03055
G1 X156.138 Y137.416 E407.09169
G1 X155.844 Y137.9 E407.15285
G1 X155.025 Y138.694 E407.27604
G1 X153.909 Y139.056 E407.40275
G1 X128.432 Y139.056 E410.15427
G1 X127.879 Y138.935 E410.21541
G1 X127.395 Y138.641 E410.27657
G1 X126.601 Y137.822 E410.39976
G1 X126.417 Y137.254 E410.46425
G1 X126.338 Y137.49 E410.49112
G1 X126.095 Y137.854 E410.53839
G1 X125.276 Y138.648 E410.66159
G1 X124.16 Y139.01 E410.7883
G1 X98.683 Y139.01 E413.53981
G1 X98.13 Y138.889 E413.60095
G1 X97.646 Y138.595 E413.66211
G1 X96.852 Y137.776 E413.78531
G1 X96.665 Y137.201 E413.85061
G1 X96.574 Y137.49 E413.88333
G1 X96.331 Y137.854 E413.9306
G1 X95.512 Y138.648 E414.05379
G1 X94.396 Y139.01 E414.1805
G1 X80.919 Y139.01 E415.63602
