;START_OF_HEADER
;HEADER_VERSION:0.1
;FLAVOR:Griffin
;GENERATOR.NAME:Cura_SteamEngine
;GENERATOR.VERSION:5.6.0
;GENERATOR.BUILD_DATE:2023-11-28
;TARGET_MACHINE.NAME:Ultimaker 3 Extended
;EXTRUDER_TRAIN.0.INITIAL_TEMPERATURE:200
;EXTRUDER_TRAIN.0.MATERIAL.VOLUME_USED:40306
;EXTRUDER_TRAIN.0.MATERIAL.GUID:506c9f0d-e3aa-4bd4-b2d2-23e2425b1aa9
;EXTRUDER_TRAIN.0.NOZZLE.DIAMETER:0.4
;EXTRUDER_TRAIN.0.NOZZLE.NAME:AA 0.4
;BUILD_PLATE.INITIAL_TEMPERATURE:60
;PRINT.TIME:22420
;PRINT.GROUPS:1
;PRINT.SIZE.MIN.X:9
;PRINT.SIZE.MIN.Y:6
;PRINT.SIZE.MIN.Z:0.2
;PRINT.SIZE.MAX.X:198.485
;PRINT.SIZE.MAX.Y:164.485
;PRINT.SIZE.MAX.Z:7
;SLICE_UUID:72476780-1b93-4a9e-8ee0-1e554c08f911
;END_OF_HEADER
;Generated with Cura_SteamEngine 5.6.0
T0
M82 ;absolute extrusion mode

G92 E0
M190 S60
M109 S200
G0 F15000 X9 Y6 Z2
G280
G1 F1500 E-6.5
;LAYER_COUNT:33
;LAYER:0
M106 S255
M204 S1000
M205 X20 Y20
G1 F600 Z2.2
G0 F15000 X37.798 Y51.42 Z2.2
;TYPE:SKIRT
G1 F600 Z0.2
G1 F1500 E0
G1 F1350 X40.57 Y50.515 E0.03657
G1 X192.721 Y50.515 E1.9446
G1 X195.215 Y51.363 E1.97763
G1 X197.58 Y53.798 E2.0202
G1 X198.485 Y56.57 E2.05677
G1 X198.485 Y158.376 E3.33345
G1 X198.111 Y160.094 E3.3555
G1 X197.129 Y161.704 E3.37915
G1 X195.185 Y163.59 E3.41312
G1 X192.424 Y164.485 E3.44951
G1 X40.624 Y164.485 E5.35314
G1 X38.906 Y164.111 E5.37519
G1 X37.296 Y163.129 E5.39884
G1 X35.41 Y161.185 E5.43281
G1 X34.515 Y158.424 E5.4692
G1 X34.515 Y56.279 E6.75014
G1 X35.363 Y53.785 E6.78317
G1 X37.798 Y51.42 E6.82574
G0 F15000 X38.011 Y51.771
G1 F1350 X40.633 Y50.915 E6.86033
G1 X192.654 Y50.915 E8.76673
G1 X194.995 Y51.711 E8.79774
G1 X197.229 Y54.011 E8.83795
G1 X198.085 Y56.633 E8.87254
G1 X198.085 Y158.332 E10.14788
G1 X197.734 Y159.945 E10.16858
G1 X196.816 Y161.45 E10.19069
G1 X194.973 Y163.238 E10.22289
G1 X192.36 Y164.085 E10.25734
G1 X40.668 Y164.085 E12.15961
G1 X39.055 Y163.734 E12.18031
G1 X37.55 Y162.816 E12.20242
G1 X35.762 Y160.973 E12.23462
G1 X34.915 Y158.36 E12.26907
G1 X34.915 Y56.346 E13.54836
G1 X35.711 Y54.005 E13.57937
G1 X38.011 Y51.771 E13.61958
G0 F15000 X38.224 Y52.122
G1 F1350 X40.696 Y51.315 E13.65219
G1 X192.587 Y51.315 E15.55695
G1 X194.775 Y52.059 E15.58594
G1 X196.878 Y54.224 E15.62379
G1 X197.685 Y56.696 E15.6564
G1 X197.685 Y158.288 E16.9304
G1 X197.357 Y159.796 E16.94975
G1 X196.503 Y161.196 E16.97032
G1 X194.761 Y162.886 E17.00075
G1 X192.296 Y163.685 E17.03325
G1 X40.712 Y163.685 E18.93417
G1 X39.204 Y163.357 E18.95352
G1 X37.804 Y162.503 E18.97408
G1 X36.114 Y160.761 E19.00452
G1 X35.315 Y158.296 E19.03702
G1 X35.315 Y56.413 E20.31467
G1 X36.059 Y54.225 E20.34365
G1 X38.224 Y52.122 E20.3815
G0 F15000 X38.437 Y52.473
G1 F1350 X40.759 Y51.715 E20.41213
G1 X192.52 Y51.715 E22.31527
G1 X194.555 Y52.407 E22.34222
G1 X196.527 Y54.437 E22.37771
G1 X197.285 Y56.759 E22.40835
G1 X197.285 Y158.244 E23.681
G1 X196.98 Y159.647 E23.69901
G1 X196.19 Y160.942 E23.71803
G1 X194.549 Y162.534 E23.7467
G1 X192.232 Y163.285 E23.77725
G1 X40.756 Y163.285 E25.67681
G1 X39.353 Y162.98 E25.69482
G1 X38.058 Y162.19 E25.71384
G1 X36.466 Y160.549 E25.74251
G1 X35.715 Y158.232 E25.77306
G1 X35.715 Y56.48 E27.04907
G1 X36.407 Y54.445 E27.07602
G1 X38.437 Y52.473 E27.11151
G0 F15000 X38.65 Y52.824
G1 F1350 X40.822 Y52.115 E27.14016
G1 X192.453 Y52.115 E29.04167
G1 X194.335 Y52.755 E29.0666
G1 X196.176 Y54.65 E29.09973
G1 X196.885 Y56.822 E29.12838
G1 X196.885 Y158.2 E30.3997
G1 X196.603 Y159.498 E30.41636
G1 X195.877 Y160.688 E30.43384
G1 X194.337 Y162.182 E30.46075
G1 X192.168 Y162.885 E30.48934
G1 X40.8 Y162.885 E32.38755
G1 X39.502 Y162.603 E32.40421
G1 X38.312 Y161.877 E32.42169
G1 X36.818 Y160.337 E32.4486
G1 X36.115 Y158.168 E32.47719
G1 X36.115 Y56.547 E33.75155
G1 X36.755 Y54.665 E33.77648
G1 X38.65 Y52.824 E33.80961
G0 F15000 X38.863 Y53.175
G1 F1350 X40.885 Y52.515 E33.83629
G1 X192.386 Y52.515 E35.73617
G1 X194.115 Y53.103 E35.75907
G1 X195.825 Y54.863 E35.78984
G1 X196.485 Y56.885 E35.81651
G1 X196.485 Y158.156 E37.08649
G1 X196.226 Y159.349 E37.1018
G1 X195.564 Y160.434 E37.11774
G1 X194.125 Y161.83 E37.14288
G1 X192.104 Y162.485 E37.16952
G1 X40.844 Y162.485 E39.06638
G1 X39.651 Y162.226 E39.08169
G1 X38.566 Y161.564 E39.09763
G1 X37.17 Y160.125 E39.12277
G1 X36.515 Y158.104 E39.14941
G1 X36.515 Y56.614 E40.42213
G1 X37.103 Y54.885 E40.44504
G1 X38.863 Y53.175 E40.47581
G0 F15000 X39.076 Y53.526
G1 F1350 X40.948 Y52.915 E40.5005
G1 X192.319 Y52.915 E42.39875
G1 X193.895 Y53.451 E42.41963
G1 X195.474 Y55.076 E42.44804
G1 X196.085 Y56.948 E42.47273
G1 X196.085 Y158.112 E43.74137
G1 X195.849 Y159.2 E43.75533
G1 X195.251 Y160.18 E43.76973
G1 X193.913 Y161.478 E43.7931
G1 X192.04 Y162.085 E43.81779
G1 X40.888 Y162.085 E45.7133
G1 X39.8 Y161.849 E45.72726
G1 X38.82 Y161.251 E45.74166
G1 X37.522 Y159.913 E45.76503
G1 X36.915 Y158.04 E45.78972
G1 X36.915 Y56.681 E47.0608
G1 X37.451 Y55.105 E47.08168
G1 X39.076 Y53.526 E47.11009
G0 F15000 X39.289 Y53.877
G1 F1350 X41.011 Y53.315 E47.13281
G1 X192.252 Y53.315 E49.02943
G1 X193.675 Y53.799 E49.04827
G1 X195.123 Y55.289 E49.07433
G1 X195.685 Y57.011 E49.09705
G1 X195.685 Y158.068 E50.36434
G1 X195.472 Y159.049 E50.37693
G1 X194.936 Y159.928 E50.38984
G1 X193.7 Y161.127 E50.41143
G1 X191.979 Y161.685 E50.43412
G1 X40.932 Y161.685 E52.3283
G1 X39.951 Y161.472 E52.34089
G1 X39.072 Y160.936 E52.3538
G1 X37.873 Y159.7 E52.3754
G1 X37.315 Y157.979 E52.39809
G1 X37.315 Y56.748 E53.66756
G1 X37.799 Y55.325 E53.68641
G1 X39.289 Y53.877 E53.71247
G0 F15000 X39.502 Y54.228
G1 F1350 X41.074 Y53.715 E53.7332
G1 X192.185 Y53.715 E55.62819
G1 X193.455 Y54.147 E55.64501
G1 X194.772 Y55.502 E55.66871
G1 X195.285 Y57.074 E55.68944
G1 X195.285 Y158.024 E56.9554
G1 X195.095 Y158.898 E56.96661
G1 X194.621 Y159.676 E56.97804
G1 X193.487 Y160.776 E56.99785
G1 X191.918 Y161.285 E57.01853
G1 X40.976 Y161.285 E58.9114
G1 X40.102 Y161.095 E58.92262
G1 X39.324 Y160.621 E58.93404
G1 X38.224 Y159.487 E58.95386
G1 X37.715 Y157.918 E58.97454
G1 X37.715 Y56.815 E60.24241
G1 X38.147 Y55.545 E60.25923
G1 X39.502 Y54.228 E60.28293
G0 F15000 X39.715 Y54.579
G1 F1350 X41.137 Y54.115 E60.30169
G1 X192.118 Y54.115 E62.19504
G1 X193.235 Y54.495 E62.20984
G1 X194.421 Y55.715 E62.23118
G1 X194.885 Y57.137 E62.24993
G1 X194.885 Y157.98 E63.51454
G1 X194.718 Y158.747 E63.52439
G1 X194.304 Y159.427 E63.53437
G1 X193.275 Y160.425 E63.55235
G1 X191.857 Y160.885 E63.57104
G1 X41.02 Y160.885 E65.46259
G1 X40.253 Y160.718 E65.47244
G1 X39.573 Y160.304 E65.48242
G1 X38.575 Y159.275 E65.5004
G1 X38.115 Y157.857 E65.51909
G1 X38.115 Y56.882 E66.78536
G1 X38.495 Y55.765 E66.80015
G1 X39.715 Y54.579 E66.82149
G0 F15000 X39.928 Y54.93
G1 F1350 X41.2 Y54.515 E66.83827
G1 X192.051 Y54.515 E68.72999
G1 X193.015 Y54.843 E68.74276
G1 X194.07 Y55.928 E68.76174
G1 X194.485 Y57.2 E68.77852
G1 X194.485 Y157.936 E70.04179
G1 X194.341 Y158.596 E70.05026
G1 X193.987 Y159.178 E70.0588
G1 X193.063 Y160.074 E70.07494
G1 X191.796 Y160.485 E70.09165
G1 X41.064 Y160.485 E71.98188
G1 X40.404 Y160.341 E71.99035
G1 X39.822 Y159.987 E71.9989
G1 X38.926 Y159.063 E72.01504
G1 X38.515 Y157.796 E72.03174
G1 X38.515 Y56.949 E73.2964
G1 X38.843 Y55.985 E73.30917
G1 X39.928 Y54.93 E73.32815
G0 F15000 X40.141 Y55.281
G1 F1350 X41.263 Y54.915 E73.34295
G1 X191.984 Y54.915 E75.23304
G1 X192.795 Y55.191 E75.24379
G1 X193.719 Y56.141 E75.26041
G1 X194.085 Y57.263 E75.27521
G1 X194.085 Y157.892 E76.53713
G1 X193.964 Y158.445 E76.54423
G1 X193.67 Y158.929 E76.55133
G1 X192.851 Y159.723 E76.56564
G1 X191.735 Y160.085 E76.58035
G1 X41.108 Y160.085 E78.46927
G1 X40.555 Y159.964 E78.47637
G1 X40.071 Y159.67 E78.48347
G1 X39.277 Y158.851 E78.49777
G1 X38.915 Y157.735 E78.51248
G1 X38.915 Y57.016 E79.77554
G1 X39.191 Y56.205 E79.78628
G1 X40.141 Y55.281 E79.8029
G0 F15000 X40.354 Y55.632
G1 F1350 X41.326 Y55.315 E79.81572
G1 X191.917 Y55.315 E81.70419
G1 X192.575 Y55.539 E81.71291
G1 X193.368 Y56.354 E81.72717
G1 X193.685 Y57.326 E81.73999
G1 X193.685 Y157.892 E83.00112
G1 X193.575 Y158.352 E83.00705
G1 X193.392 Y158.642 E83.01135
G1 X192.64 Y159.371 E83.02449
G1 X191.673 Y159.685 E83.03724
G1 X41.108 Y159.685 E84.92538
G1 X40.648 Y159.575 E84.93131
G1 X40.358 Y159.392 E84.93561
G1 X39.629 Y158.64 E84.94874
G1 X39.315 Y157.673 E84.96149
G1 X39.315 Y57.083 E86.22293
G1 X39.539 Y56.425 E86.23165
G1 X40.354 Y55.632 E86.24591
G0 F15000 X40.567 Y55.983
G1 F1350 X41.389 Y55.715 E86.25675
G1 X191.85 Y55.715 E88.14358
G1 X192.355 Y55.887 E88.15028
G1 X193.017 Y56.567 E88.16218
G1 X193.285 Y57.389 E88.17302
G1 X193.285 Y157.852 E89.43286
G1 X193.226 Y158.156 E89.43675
G1 X193.114 Y158.355 E89.43961
G1 X192.429 Y159.019 E89.45157
G1 X191.611 Y159.285 E89.46236
G1 X41.148 Y159.285 E91.34922
G1 X40.844 Y159.226 E91.3531
G1 X40.645 Y159.114 E91.35597
G1 X39.981 Y158.429 E91.36793
G1 X39.715 Y157.611 E91.37872
G1 X39.715 Y57.15 E92.63854
G1 X39.887 Y56.645 E92.64523
G1 X40.567 Y55.983 E92.65713
G0 F15000 X40.78 Y56.334
G1 F1350 X41.452 Y56.115 E92.66599
G1 X191.85 Y56.115 E94.55204
G1 X192.068 Y56.166 E94.55485
G1 X192.666 Y56.78 E94.56559
G1 X192.885 Y57.452 E94.57446
G1 X192.885 Y157.852 E95.83351
G1 X192.836 Y158.068 E95.83629
G1 X192.218 Y158.667 E95.84708
G1 X191.548 Y158.885 E95.85592
G1 X41.148 Y158.885 E97.74199
G1 X40.932 Y158.836 E97.74477
G1 X40.333 Y158.218 E97.75556
G1 X40.115 Y157.548 E97.76439
G1 X40.115 Y57.15 E99.02342
G1 X40.166 Y56.932 E99.02623
G1 X40.78 Y56.334 E99.03698
G0 F15000 X40.993 Y56.685
G1 F1350 X41.515 Y56.515 E99.04386
G1 X191.85 Y56.515 E100.92912
G1 X192.315 Y56.993 E100.93748
G1 X192.485 Y57.515 E100.94437
G1 X192.485 Y157.852 E102.20263
G1 X192.007 Y158.315 E102.21097
G1 X191.485 Y158.485 E102.21786
G1 X41.148 Y158.485 E104.10314
G1 X40.685 Y158.007 E104.11149
G1 X40.515 Y157.485 E104.11837
G1 X40.515 Y57.15 E105.37661
G1 X40.993 Y56.685 E105.38497
G0 F15000 X41.315 Y57.416
G1 F1350 X41.515 Y57.315 E105.38778
G1 X191.584 Y57.315 E107.2697
G1 X191.685 Y57.515 E107.27251
G1 X191.685 Y157.584 E108.52741
G1 X191.485 Y157.685 E108.53022
G1 X41.416 Y157.685 E110.41215
G1 X41.315 Y157.485 E110.41495
G1 X41.315 Y57.416 E111.66986
G0 F15000 X41.135 Y57.059
G1 F1350 X41.515 Y56.915 E111.67495
G1 X191.716 Y56.915 E113.55853
G1 X191.941 Y57.135 E113.56248
G1 X192.085 Y57.515 E113.56757
G1 X192.085 Y157.717 E114.82414
G1 X191.865 Y157.941 E114.82808
G1 X191.485 Y158.085 E114.83318
G1 X41.283 Y158.085 E116.71676
G1 X41.059 Y157.865 E116.7207
G1 X40.915 Y157.485 E116.7258
G1 X40.915 Y57.284 E117.98236
G1 X41.135 Y57.059 E117.9863
M204 S429
G1 F1500 E111.4863
G1 F600 Z2.2
;MESH:RollerPlateMotorSide.stl
G0 F15000 X49.633 Y107.403 Z2.2
;TYPE:WALL-OUTER
G1 F600 Z0.2
G1 F1500 E117.9863
G1 F1350 X49.091 Y107.636 E117.99444
G1 X48.517 Y107.715 E118.00243
G1 X47.926 Y107.643 E118.01065
G1 X47.388 Y107.417 E118.01869
G1 X46.939 Y107.072 E118.02651
G1 X46.581 Y106.612 E118.03455
G1 X46.355 Y106.057 E118.04281
G1 X46.287 Y105.54 E118.05001
G1 X46.285 Y73.319 E118.49448
G1 X46.48 Y72.848 E118.50151
G1 X46.88 Y72.454 E118.50925
G1 X47.282 Y72.288 E118.51525
G1 X49.721 Y72.285 E118.5489
G1 X50.123 Y72.456 E118.55492
G1 X50.55 Y72.886 E118.56328
G1 X50.715 Y73.299 E118.56942
G1 X50.714 Y105.531 E119.01404
G1 X50.639 Y106.081 E119.0217
G1 X50.422 Y106.604 E119.02951
G1 X50.053 Y107.078 E119.03779
G1 X49.633 Y107.403 E119.04512
G0 F15000 X49.449 Y107.482
G1 F1500 E112.54512
G0 F15000 X49.565 Y107.762
G0 X49.537 Y109.828
G0 X54.101 Y121.566
G1 F1500 E119.04512
G1 F1350 X53.081 Y122.155 E119.06137
G1 X51.884 Y122.57 E119.07884
G1 X51.869 Y122.555 E119.07913
G1 X50.808 Y122.707 E119.09392
G1 X49.611 Y122.653 E119.11045
G1 X48.478 Y122.379 E119.12653
G1 X47.37 Y121.869 E119.14335
G1 X46.4 Y121.172 E119.15983
G1 X45.606 Y120.331 E119.17579
G1 X44.967 Y119.329 E119.19218
G1 X44.53 Y118.228 E119.20852
G1 X44.314 Y117.109 E119.22424
G1 X44.315 Y115.888 E119.24108
G1 X44.541 Y114.735 E119.25729
G1 X44.985 Y113.636 E119.27364
G1 X45.63 Y112.639 E119.29002
G1 X46.449 Y111.789 E119.3063
G1 X47.385 Y111.121 E119.32217
G1 X48.491 Y110.617 E119.33893
G1 X49.63 Y110.346 E119.35508
G1 X50.777 Y110.292 E119.37092
G1 X51.864 Y110.444 E119.38606
G1 X51.88 Y110.428 E119.38637
G1 X53.081 Y110.845 E119.40391
G1 X54.119 Y111.447 E119.42046
G1 X55.002 Y112.215 E119.43661
G1 X55.727 Y113.136 E119.45278
G1 X56.276 Y114.202 E119.46932
G1 X56.601 Y115.311 E119.48526
G1 X56.714 Y116.519 E119.50199
G1 X56.603 Y117.674 E119.518
G1 X56.27 Y118.81 E119.53433
G1 X55.719 Y119.874 E119.55086
G1 X54.998 Y120.789 E119.56693
G1 X54.101 Y121.566 E119.5833
G0 F15000 X53.928 Y121.666
G1 F1500 E113.0833
G1 F600 Z2.2
G0 F15000 X48.902 Y133.877 Z2.2
G1 F600 Z0.2
G1 F1500 E119.5833
G1 F1350 X48.506 Y134.188 E119.59024
G1 X48.011 Y134.398 E119.59766
G1 X47.517 Y134.465 E119.60454
G1 X47.002 Y134.401 E119.6117
G1 X46.495 Y134.188 E119.61928
G1 X46.099 Y133.876 E119.62624
G1 X45.786 Y133.46 E119.63342
G1 X45.596 Y132.991 E119.6404
G1 X45.536 Y132.53 E119.64681
G1 X45.595 Y132.018 E119.65392
G1 X45.798 Y131.511 E119.66145
G1 X46.124 Y131.099 E119.6687
G1 X46.54 Y130.786 E119.67588
G1 X47.002 Y130.599 E119.68276
G1 X47.491 Y130.535 E119.68956
G1 X47.992 Y130.598 E119.69653
G1 X48.494 Y130.803 E119.70401
G1 X48.891 Y131.112 E119.71095
G1 X49.203 Y131.516 E119.71799
G1 X49.397 Y131.987 E119.72501
G1 X49.465 Y132.478 E119.73185
G1 X49.405 Y132.982 E119.73885
G1 X49.204 Y133.482 E119.74629
G1 X48.902 Y133.877 E119.75315
G0 F15000 X48.745 Y134
G1 F1500 E113.25315
G1 F600 Z2.2
G0 F15000 X61.491 Y134.198 Z2.2
G1 F600 Z0.2
G1 F1500 E119.75315
G1 F1350 X61.025 Y134.394 E119.76012
G1 X60.524 Y134.465 E119.7671
G1 X59.994 Y134.399 E119.77447
G1 X59.527 Y134.208 E119.78143
G1 X59.134 Y133.911 E119.78822
G1 X58.796 Y133.482 E119.79576
G1 X58.601 Y133.009 E119.80281
G1 X58.535 Y132.522 E119.80959
G1 X58.595 Y132.017 E119.81661
G1 X58.797 Y131.516 E119.82406
G1 X59.109 Y131.112 E119.8311
G1 X59.53 Y130.79 E119.83841
G1 X60.013 Y130.597 E119.84559
G1 X60.524 Y130.535 E119.85269
G1 X61.031 Y130.608 E119.85975
G1 X61.489 Y130.8 E119.86661
G1 X61.88 Y131.101 E119.87341
G1 X62.199 Y131.509 E119.88056
G1 X62.396 Y131.981 E119.88761
G1 X62.465 Y132.478 E119.89453
G1 X62.401 Y133.005 E119.90186
G1 X62.206 Y133.478 E119.90891
G1 X61.896 Y133.883 E119.91595
G1 X61.491 Y134.198 E119.92303
G0 F15000 X61.307 Y134.275
G1 F1500 E113.42303
G1 F600 Z2.2
G0 F15000 X54.984 Y152.803 Z2.2
G1 F600 Z0.2
G1 F1500 E119.92303
G1 F1350 X54.089 Y153.574 E119.93932
G1 X53.064 Y154.162 E119.95562
G1 X51.899 Y154.563 E119.97262
G1 X51.859 Y154.557 E119.97318
G1 X50.777 Y154.708 E119.98825
G1 X49.592 Y154.649 E120.00461
G1 X48.491 Y154.383 E120.02024
G1 X47.37 Y153.869 E120.03725
G1 X46.4 Y153.173 E120.05372
G1 X45.606 Y152.331 E120.06968
G1 X44.967 Y151.329 E120.08608
G1 X44.53 Y150.228 E120.10242
G1 X44.314 Y149.109 E120.11814
G1 X44.315 Y147.888 E120.13498
G1 X44.541 Y146.735 E120.15119
G1 X44.985 Y145.636 E120.16754
G1 X45.63 Y144.639 E120.18392
G1 X46.449 Y143.788 E120.20021
G1 X47.403 Y143.112 E120.21634
G1 X48.466 Y142.625 E120.23247
G1 X49.611 Y142.347 E120.24872
G1 X50.794 Y142.292 E120.26506
G1 X51.869 Y142.445 E120.28004
G1 X51.879 Y142.435 E120.28023
G1 X53.081 Y142.845 E120.29775
G1 X54.119 Y143.447 E120.3143
G1 X54.998 Y144.211 E120.33037
G1 X55.729 Y145.14 E120.34668
G1 X56.273 Y146.194 E120.36304
G1 X56.601 Y147.309 E120.37907
G1 X56.714 Y148.519 E120.39583
G1 X56.603 Y149.676 E120.41187
G1 X56.26 Y150.831 E120.42849
G1 X55.719 Y151.874 E120.44469
G1 X54.984 Y152.803 E120.46104
G0 F15000 X54.833 Y152.933
G1 F1500 E113.96104
G1 F600 Z2.2
G0 F15000 X80.963 Y124.152 Z2.2
G1 F600 Z0.2
G1 F1500 E120.46104
G1 F1350 X80.503 Y124.216 E120.46744
G1 X80.061 Y124.159 E120.47359
G1 X79.639 Y123.984 E120.47989
G1 X79.305 Y123.731 E120.48567
G1 X79.013 Y123.357 E120.49222
G1 X78.846 Y122.958 E120.49818
G1 X78.785 Y122.514 E120.50437
G1 X78.843 Y122.05 E120.51082
G1 X79.018 Y121.635 E120.51703
G1 X79.283 Y121.29 E120.52303
G1 X79.638 Y121.016 E120.52922
G1 X80.06 Y120.841 E120.53552
G1 X80.486 Y120.785 E120.54144
G1 X80.94 Y120.841 E120.54775
G1 X81.363 Y121.017 E120.55407
