;FLAVOR:UltiGCode
;TIME:36757
;MATERIAL:36257
;MATERIAL2:0
;NOZZLE_DIAMETER:0.4
;MINX:28.79
;MINY:53.79
;MINZ:0.27
;MAXX:194.21
;MAXY:169.21
;MAXZ:4.97
;TARGET_MACHINE.NAME:Ultimaker 2+
;Generated with Cura_SteamEngine 5.6.0
M82 ;absolute extrusion mode
G0 F3000 Y50 ;avoid prime blob
G92 E0
G92 E0
G10
;LAYER_COUNT:48
;LAYER:0
M107
G0 F7200 X32.447 Y54.793 Z0.27
;TYPE:SKIRT
G11
G1 F1800 X35.519 Y53.79 E0.34901
G1 X187.78 Y53.79 E16.7932
G1 X190.398 Y54.68 E17.09184
G1 X190.714 Y54.88 E17.13222
G1 X193.207 Y57.447 E17.51869
G1 X194.21 Y60.519 E17.8677
G1 X194.21 Y162.389 E28.86966
G1 X193.79 Y164.317 E29.08277
G1 X192.68 Y166.137 E29.313
G1 X190.534 Y168.219 E29.63592
G1 X187.477 Y169.21 E29.98299
G1 X35.611 Y169.21 E46.38452
G1 X33.683 Y168.79 E46.59762
G1 X31.863 Y167.68 E46.82786
G1 X29.781 Y165.534 E47.15077
G1 X28.79 Y162.477 E47.49784
G1 X28.79 Y60.22 E58.5416
G1 X29.68 Y57.602 E58.84024
G1 X29.88 Y57.286 E58.88063
G1 X32.447 Y54.793 E59.26709
G0 F7200 X32.66 Y55.144
G1 F1800 X35.582 Y54.19 E59.59906
G1 X187.713 Y54.19 E76.0292
G1 X190.269 Y55.059 E76.32077
G1 X190.427 Y55.159 E76.34096
G1 X192.856 Y57.66 E76.7175
G1 X193.81 Y60.582 E77.04947
G1 X193.81 Y162.345 E88.03987
G1 X193.413 Y164.168 E88.24137
G1 X192.367 Y165.883 E88.45832
G1 X190.322 Y167.867 E88.76604
G1 X187.413 Y168.81 E89.09631
G1 X35.655 Y168.81 E105.48617
G1 X33.832 Y168.413 E105.68767
G1 X32.117 Y167.367 E105.90462
G1 X30.133 Y165.322 E106.21234
G1 X29.19 Y162.413 E106.54261
G1 X29.19 Y60.287 E117.57222
G1 X30.059 Y57.731 E117.86378
G1 X30.159 Y57.573 E117.88398
G1 X32.66 Y55.144 E118.26051
G0 F7200 X32.873 Y55.495
G1 F1800 X35.645 Y54.59 E118.57544
G1 X187.646 Y54.59 E134.99155
G1 X190.14 Y55.438 E135.27604
G1 X192.505 Y57.873 E135.64264
G1 X193.41 Y60.645 E135.95757
G1 X193.41 Y162.301 E146.93642
G1 X193.036 Y164.019 E147.12631
G1 X192.054 Y165.629 E147.32998
G1 X190.11 Y167.515 E147.6225
G1 X187.349 Y168.41 E147.93597
G1 X35.699 Y168.41 E164.31417
G1 X33.981 Y168.036 E164.50406
G1 X32.371 Y167.054 E164.70773
G1 X30.485 Y165.11 E165.00025
G1 X29.59 Y162.349 E165.31371
G1 X29.59 Y60.354 E176.32917
G1 X30.438 Y57.86 E176.61367
G1 X32.873 Y55.495 E176.98027
G0 F7200 X33.086 Y55.846
G1 F1800 X35.708 Y54.99 E177.27816
G1 X187.579 Y54.99 E193.68022
G1 X189.92 Y55.786 E193.94727
G1 X192.154 Y58.086 E194.29355
G1 X193.01 Y60.708 E194.59144
G1 X193.01 Y162.257 E205.55873
G1 X192.659 Y163.87 E205.73701
G1 X191.741 Y165.375 E205.9274
G1 X189.898 Y167.163 E206.20473
G1 X187.285 Y168.01 E206.50139
G1 X35.743 Y168.01 E222.86792
G1 X34.13 Y167.659 E223.0462
G1 X32.625 Y166.741 E223.23659
G1 X30.837 Y164.898 E223.51392
G1 X29.99 Y162.285 E223.81058
G1 X29.99 Y60.421 E234.81189
G1 X30.786 Y58.08 E235.07893
G1 X33.086 Y55.846 E235.42522
G0 F7200 X33.299 Y56.197
G1 F1800 X35.771 Y55.39 E235.70606
G1 X187.512 Y55.39 E252.09409
G1 X189.7 Y56.134 E252.34368
G1 X191.803 Y58.299 E252.66965
G1 X192.61 Y60.771 E252.95049
G1 X192.61 Y162.213 E263.90623
G1 X192.282 Y163.721 E264.0729
G1 X191.428 Y165.121 E264.25001
G1 X189.686 Y166.811 E264.51214
G1 X187.221 Y167.61 E264.79199
G1 X35.787 Y167.61 E281.14686
G1 X34.279 Y167.282 E281.31354
G1 X32.879 Y166.428 E281.49065
G1 X31.189 Y164.686 E281.75277
G1 X30.39 Y162.221 E282.03263
G1 X30.39 Y60.488 E293.01979
G1 X31.134 Y58.3 E293.26938
G1 X33.299 Y56.197 E293.59535
G0 F7200 X33.512 Y56.548
G1 F1800 X35.834 Y55.79 E293.85915
G1 X187.445 Y55.79 E310.23314
G1 X189.48 Y56.482 E310.46528
G1 X191.452 Y58.512 E310.77093
G1 X192.21 Y60.834 E311.03473
G1 X192.21 Y162.169 E321.97891
G1 X191.905 Y163.572 E322.13398
G1 X191.115 Y164.867 E322.29781
G1 X189.474 Y166.459 E322.54473
G1 X187.157 Y167.21 E322.80778
G1 X35.831 Y167.21 E339.15099
G1 X34.428 Y166.905 E339.30606
G1 X33.133 Y166.115 E339.46989
G1 X31.541 Y164.474 E339.71681
G1 X30.79 Y162.157 E339.97986
G1 X30.79 Y60.555 E350.95288
G1 X31.482 Y58.52 E351.18502
G1 X33.512 Y56.548 E351.49067
G0 F7200 X33.725 Y56.899
G1 F1800 X35.897 Y56.19 E351.73743
G1 X187.378 Y56.19 E368.09738
G1 X189.26 Y56.83 E368.31207
G1 X191.101 Y58.725 E368.5974
G1 X191.81 Y60.897 E368.84416
G1 X191.81 Y162.125 E379.77679
G1 X191.528 Y163.423 E379.92024
G1 X190.802 Y164.613 E380.07079
G1 X189.262 Y166.107 E380.30252
G1 X187.093 Y166.81 E380.54876
G1 X35.875 Y166.81 E396.88031
G1 X34.577 Y166.528 E397.02376
G1 X33.387 Y165.802 E397.17431
G1 X31.893 Y164.262 E397.40604
G1 X31.19 Y162.093 E397.65229
G1 X31.19 Y60.622 E408.61115
G1 X31.83 Y58.74 E408.82584
G1 X33.725 Y56.899 E409.11118
G0 F7200 X33.938 Y57.25
G1 F1800 X35.96 Y56.59 E409.3409
G1 X187.311 Y56.59 E425.6868
G1 X189.04 Y57.178 E425.88404
G1 X190.75 Y58.938 E426.14906
G1 X191.41 Y60.96 E426.37878
G1 X191.41 Y162.081 E437.29984
G1 X191.151 Y163.274 E437.43169
G1 X190.489 Y164.359 E437.56896
G1 X189.05 Y165.755 E437.78549
G1 X187.029 Y166.41 E438.01493
G1 X35.919 Y166.41 E454.33481
G1 X34.726 Y166.151 E454.46666
G1 X33.641 Y165.489 E454.60393
G1 X32.245 Y164.05 E454.82045
G1 X31.59 Y162.029 E455.0499
G1 X31.59 Y60.689 E465.99462
G1 X32.178 Y58.96 E466.19185
G1 X33.938 Y57.25 E466.45687
G0 F7200 X34.151 Y57.601
G1 F1800 X36.023 Y56.99 E466.66955
G1 X187.244 Y56.99 E483.00142
G1 X188.82 Y57.526 E483.1812
G1 X190.399 Y59.151 E483.4259
G1 X191.01 Y61.023 E483.63858
G1 X191.01 Y162.037 E494.54809
G1 X190.774 Y163.125 E494.66833
G1 X190.176 Y164.105 E494.79231
G1 X188.838 Y165.403 E494.99364
G1 X186.965 Y166.01 E495.20628
G1 X35.963 Y166.01 E511.5145
G1 X34.875 Y165.774 E511.63474
G1 X33.895 Y165.176 E511.75873
G1 X32.597 Y163.838 E511.96005
G1 X31.99 Y161.965 E512.17269
G1 X31.99 Y60.756 E523.10327
G1 X32.526 Y59.18 E523.28305
G1 X34.151 Y57.601 E523.52776
G0 F7200 X34.364 Y57.952
G1 F1800 X36.086 Y57.39 E523.72339
G1 X187.177 Y57.39 E540.04121
G1 X188.6 Y57.874 E540.20354
G1 X190.048 Y59.364 E540.42793
G1 X190.61 Y61.086 E540.62356
G1 X190.61 Y161.993 E551.52152
G1 X190.397 Y162.974 E551.62994
G1 X189.861 Y163.853 E551.74113
G1 X188.625 Y165.052 E551.9271
G1 X186.904 Y165.61 E552.1225
G1 X36.007 Y165.61 E568.41937
G1 X35.026 Y165.397 E568.52779
G1 X34.147 Y164.861 E568.63898
G1 X32.948 Y163.625 E568.82496
G1 X32.39 Y161.904 E569.02035
G1 X32.39 Y60.823 E579.9371
G1 X32.874 Y59.4 E580.09943
G1 X34.364 Y57.952 E580.32382
G0 F7200 X34.577 Y58.303
G1 F1800 X36.149 Y57.79 E580.50241
G1 X187.11 Y57.79 E596.80619
G1 X188.38 Y58.222 E596.95107
G1 X189.697 Y59.577 E597.15515
G1 X190.21 Y61.149 E597.33373
G1 X190.21 Y161.949 E608.22013
G1 X190.02 Y162.823 E608.31673
G1 X189.546 Y163.601 E608.41512
G1 X188.412 Y164.701 E608.58575
G1 X186.843 Y165.21 E608.76389
G1 X36.051 Y165.21 E625.04943
G1 X35.177 Y165.02 E625.14602
G1 X34.399 Y164.546 E625.24441
G1 X33.299 Y163.412 E625.41504
G1 X32.79 Y161.843 E625.59319
G1 X32.79 Y60.89 E636.49611
G1 X33.222 Y59.62 E636.64099
G1 X34.577 Y58.303 E636.84506
G0 F7200 X34.79 Y58.654
G1 F1800 X36.212 Y58.19 E637.00661
G1 X187.043 Y58.19 E653.29635
G1 X188.16 Y58.57 E653.42378
G1 X189.346 Y59.79 E653.60754
G1 X189.81 Y61.212 E653.76908
G1 X189.81 Y161.905 E664.64393
G1 X189.643 Y162.672 E664.72871
G1 X189.229 Y163.352 E664.81469
G1 X188.2 Y164.35 E664.9695
G1 X186.782 Y164.81 E665.1305
G1 X36.095 Y164.81 E681.4047
G1 X35.328 Y164.643 E681.48947
G1 X34.648 Y164.229 E681.57545
G1 X33.65 Y163.2 E681.73027
G1 X33.19 Y161.782 E681.89127
G1 X33.19 Y60.957 E692.78037
G1 X33.57 Y59.84 E692.9078
G1 X34.79 Y58.654 E693.09155
G0 F7200 X35.003 Y59.005
G1 F1800 X36.275 Y58.59 E693.23606
G1 X186.976 Y58.59 E709.51176
G1 X187.94 Y58.918 E709.62174
G1 X188.995 Y60.003 E709.78518
G1 X189.41 Y61.275 E709.92968
G1 X189.41 Y161.861 E720.79297
G1 X189.266 Y162.521 E720.86593
G1 X188.912 Y163.103 E720.9395
G1 X187.988 Y163.999 E721.0785
G1 X186.721 Y164.41 E721.22236
G1 X36.139 Y164.41 E737.48521
G1 X35.479 Y164.266 E737.55817
G1 X34.897 Y163.912 E737.63174
G1 X34.001 Y162.988 E737.77075
G1 X33.59 Y161.721 E737.9146
G1 X33.59 Y61.024 E748.78988
G1 X33.918 Y60.06 E748.89985
G1 X35.003 Y59.005 E749.06329
G0 F7200 X35.216 Y59.356
G1 F1800 X36.338 Y58.99 E749.19075
G1 X186.909 Y58.99 E765.45242
G1 X187.72 Y59.266 E765.54494
G1 X188.644 Y60.216 E765.68807
G1 X189.01 Y61.338 E765.81553
G1 X189.01 Y161.817 E776.66726
G1 X188.889 Y162.37 E776.7284
G1 X188.595 Y162.854 E776.78956
G1 X187.776 Y163.648 E776.91276
G1 X186.66 Y164.01 E777.03947
G1 X36.183 Y164.01 E793.29098
G1 X35.63 Y163.889 E793.35212
G1 X35.146 Y163.595 E793.41328
G1 X34.352 Y162.776 E793.53647
G1 X33.99 Y161.66 E793.66318
G1 X33.99 Y61.091 E804.52464
G1 X34.266 Y60.28 E804.61716
G1 X35.216 Y59.356 E804.76028
G0 F7200 X35.429 Y59.707
G1 F1800 X36.401 Y59.39 E804.8707
G1 X186.842 Y59.39 E821.11833
G1 X187.5 Y59.614 E821.1934
G1 X188.293 Y60.429 E821.31621
G1 X188.61 Y61.401 E821.42663
G1 X188.61 Y161.817 E832.27156
G1 X188.5 Y162.277 E832.32264
G1 X188.317 Y162.567 E832.35967
G1 X187.565 Y163.296 E832.47278
G1 X186.598 Y163.61 E832.58259
G1 X36.183 Y163.61 E848.82741
G1 X35.723 Y163.5 E848.87849
G1 X35.433 Y163.317 E848.91552
G1 X34.704 Y162.565 E849.02864
G1 X34.39 Y161.598 E849.13844
G1 X34.39 Y61.158 E859.98596
G1 X34.614 Y60.5 E860.06103
G1 X35.429 Y59.707 E860.18384
G0 F7200 X35.642 Y60.058
G1 F1800 X36.464 Y59.79 E860.27722
G1 X186.775 Y59.79 E876.5108
G1 X187.28 Y59.962 E876.56842
G1 X187.942 Y60.642 E876.67092
G1 X188.21 Y61.464 E876.76429
G1 X188.21 Y161.777 E887.59809
G1 X188.151 Y162.081 E887.63154
G1 X188.039 Y162.28 E887.6562
G1 X187.354 Y162.944 E887.75923
G1 X186.536 Y163.21 E887.85213
G1 X36.223 Y163.21 E904.08594
G1 X35.919 Y163.151 E904.11938
G1 X35.72 Y163.039 E904.14404
G1 X35.056 Y162.354 E904.24707
G1 X34.79 Y161.536 E904.33997
G1 X34.79 Y61.225 E915.17356
G1 X34.962 Y60.72 E915.23118
G1 X35.642 Y60.058 E915.33367
G0 F7200 X35.855 Y60.409
G1 F1800 X36.527 Y60.19 E915.41
G1 X186.775 Y60.19 E931.63679
G1 X186.993 Y60.241 E931.66097
G1 X187.591 Y60.855 E931.75353
G1 X187.81 Y61.527 E931.82987
G1 X187.81 Y161.777 E942.65687
G1 X187.761 Y161.993 E942.68079
G1 X187.143 Y162.592 E942.77374
G1 X186.473 Y162.81 E942.84983
G1 X36.223 Y162.81 E959.07683
G1 X36.007 Y162.761 E959.10075
G1 X35.408 Y162.143 E959.1937
G1 X35.19 Y161.473 E959.2698
G1 X35.19 Y61.225 E970.09658
G1 X35.241 Y61.007 E970.12076
G1 X35.855 Y60.409 E970.21333
G0 F7200 X36.068 Y60.76
G1 F1800 X36.59 Y60.59 E970.27262
G1 X186.775 Y60.59 E986.4926
G1 X187.24 Y61.068 E986.56462
G1 X187.41 Y61.59 E986.62391
G1 X187.41 Y161.777 E997.4441
G1 X186.932 Y162.24 E997.51597
G1 X186.41 Y162.41 E997.57526
G1 X36.223 Y162.41 E1013.79546
G1 X35.76 Y161.932 E1013.86733
G1 X35.59 Y161.41 E1013.92662
G1 X35.59 Y61.225 E1024.7466
G1 X36.068 Y60.76 E1024.81862
G0 F7200 X36.39 Y61.491
G1 F1800 X36.59 Y61.39 E1024.84282
G1 X186.509 Y61.39 E1041.03407
G1 X186.61 Y61.59 E1041.05827
G1 X186.61 Y161.509 E1051.84952
G1 X186.41 Y161.61 E1051.87372
G1 X36.491 Y161.61 E1068.06497
G1 X36.39 Y161.41 E1068.08917
G1 X36.39 Y61.491 E1078.88042
G0 F7200 X36.21 Y61.134
G1 F1800 X36.59 Y60.99 E1078.92431
G1 X186.641 Y60.99 E1095.12982
G1 X186.866 Y61.21 E1095.16381
G1 X187.01 Y61.59 E1095.20769
G1 X187.01 Y161.642 E1106.01331
G1 X186.79 Y161.866 E1106.04722
G1 X186.41 Y162.01 E1106.09111
G1 X36.358 Y162.01 E1122.29672
G1 X36.134 Y161.79 E1122.33063
G1 X35.99 Y161.41 E1122.37452
G1 X35.99 Y61.359 E1133.18003
G1 X36.21 Y61.134 E1133.21401
G10
;MESH:RollerPlateMotorSide.stl
G0 F7200 X40.709 Y77.337
G0 X44.66 Y111.477
;TYPE:WALL-OUTER
G11
G1 F1800 X44.104 Y111.709 E1133.28558
G1 X43.541 Y111.788 E1133.35312
G1 X42.916 Y111.717 E1133.42785
G1 X42.342 Y111.476 E1133.50181
G1 X41.892 Y111.13 E1133.56924
G1 X41.523 Y110.659 E1133.64033
G1 X41.281 Y110.067 E1133.71631
G1 X41.212 Y109.543 E1133.77909
G1 X41.21 Y77.279 E1137.61206
G1 X41.427 Y76.795 E1137.67507
G1 X41.825 Y76.403 E1137.74144
G1 X42.264 Y76.214 E1137.79822
G1 X44.715 Y76.21 E1138.0894
G1 X45.163 Y76.387 E1138.14662
G1 X45.593 Y76.821 E1138.2192
G1 X45.789 Y77.301 E1138.2808
G1 X45.791 Y109.497 E1142.10568
G1 X45.713 Y110.093 E1142.17709
G1 X45.482 Y110.647 E1142.2484
G1 X45.113 Y111.123 E1142.31995
G1 X44.66 Y111.477 E1142.38825
G0 F7200 X44.476 Y111.554
G10
G0 X44.591 Y111.83
G0 X44.539 Y113.774
G0 X49.137 Y125.632
G11
G1 F1800 X48.119 Y126.219 E1142.52785
G1 X46.988 Y126.612 E1142.6701
G1 X45.819 Y126.782 E1142.81043
G1 X44.61 Y126.727 E1142.95421
G1 X43.443 Y126.444 E1143.09687
G1 X42.327 Y125.93 E1143.24284
G1 X41.358 Y125.233 E1143.38464
G1 X40.548 Y124.378 E1143.52456
G1 X39.903 Y123.368 E1143.66693
G1 X39.46 Y122.256 E1143.80913
G1 X39.24 Y121.119 E1143.94671
G1 X39.241 Y119.878 E1144.09414
G1 X39.471 Y118.708 E1144.2358
G1 X39.916 Y117.607 E1144.37688
G1 X40.565 Y116.602 E1144.519
G1 X41.386 Y115.743 E1144.66016
G1 X42.342 Y115.06 E1144.79974
G1 X43.454 Y114.553 E1144.94493
G1 X44.591 Y114.276 E1145.08396
G1 X45.81 Y114.219 E1145.22893
G1 X46.979 Y114.386 E1145.36922
G1 X48.119 Y114.782 E1145.51259
G1 X49.143 Y115.372 E1145.65299
G1 X50.061 Y116.168 E1145.79734
G1 X50.785 Y117.087 E1145.93633
G1 X51.332 Y118.144 E1146.07772
G1 X51.675 Y119.299 E1146.22085
G1 X51.79 Y120.515 E1146.36596
G1 X51.677 Y121.691 E1146.50631
G1 X51.336 Y122.843 E1146.64904
G1 X50.779 Y123.922 E1146.7933
G1 X50.061 Y124.832 E1146.931
G1 X49.137 Y125.632 E1147.0762
G0 F7200 X48.964 Y125.731
G10
G0 X49.113 Y125.99
G0 X47.096 Y127.1
G0 X44.28 Y134.68
G0 X43.966 Y137.917
G11
G1 F1800 X43.528 Y138.262 E1147.14244
G1 X43.02 Y138.473 E1147.20779
G1 X42.528 Y138.539 E1147.26676
G1 X41.994 Y138.476 E1147.33064
G1 X41.517 Y138.286 E1147.39164
G1 X41.069 Y137.956 E1147.45774
G1 X40.722 Y137.505 E1147.52534
G1 X40.523 Y137.003 E1147.58949
G1 X40.462 Y136.541 E1147.64486
G1 X40.525 Y135.981 E1147.7118
G1 X40.712 Y135.52 E1147.7709
G1 X41.043 Y135.07 E1147.83727
G1 X41.466 Y134.74 E1147.90101
G1 X41.994 Y134.524 E1147.96878
G1 X42.5 Y134.461 E1148.02935
G1 X43.001 Y134.523 E1148.08933
G1 X43.506 Y134.725 E1148.15394
G1 X43.932 Y135.045 E1148.21724
G1 X44.277 Y135.498 E1148.28489
G1 X44.473 Y135.98 E1148.3467
G1 X44.539 Y136.469 E1148.40532
G1 X44.473 Y137.02 E1148.47125
G1 X44.277 Y137.502 E1148.53306
G1 X43.966 Y137.917 E1148.59467
G0 F7200 X43.809 Y138.04
G10
G0 X43.995 Y138.279
G0 X44.967 Y137.121
G0 X53.044 Y137.149
G0 X56.521 Y138.266
G11
G1 F1800 X56.033 Y138.469 E1148.65746
G1 X55.534 Y138.539 E1148.71732
G1 X54.986 Y138.474 E1148.78288
G1 X54.489 Y138.272 E1148.84662
G1 X54.073 Y137.957 E1148.90861
G1 X53.735 Y137.521 E1148.97415
G1 X53.527 Y137.02 E1149.03859
G1 X53.461 Y136.496 E1149.10133
G1 X53.527 Y135.98 E1149.16313
G1 X53.723 Y135.498 E1149.22495
G1 X54.05 Y135.066 E1149.28931
G1 X54.483 Y134.733 E1149.35421
G1 X54.981 Y134.525 E1149.41832
G1 X55.533 Y134.461 E1149.48434
G1 X56.006 Y134.524 E1149.54103
G1 X56.516 Y134.731 E1149.60642
G1 X56.922 Y135.038 E1149.66689
G1 X57.276 Y135.495 E1149.73556
G1 X57.473 Y135.98 E1149.79775
G1 X57.54 Y136.487 E1149.85851
G1 X57.476 Y137.007 E1149.92075
G1 X57.278 Y137.5 E1149.98386
G1 X56.966 Y137.917 E1150.04574
G1 X56.521 Y138.266 E1150.11292
G0 F7200 X56.337 Y138.342
G10
G0 X56.452 Y138.62
G0 X55.506 Y139.045
G0 X51.79 Y149.942
G0 X50.045 Y156.847
G11
G1 F1800 X49.124 Y157.64 E1150.25731
G1 X48.136 Y158.21 E1150.39281
G1 X46.972 Y158.615 E1150.53923
G1 X45.83 Y158.781 E1150.67632
G1 X44.591 Y158.724 E1150.82367
G1 X43.418 Y158.434 E1150.96722
G1 X42.327 Y157.93 E1151.10999
G1 X41.386 Y157.258 E1151.24736
G1 X40.548 Y156.378 E1151.39172
G1 X39.903 Y155.368 E1151.53409
G1 X39.46 Y154.256 E1151.6763
G1 X39.24 Y153.119 E1151.81388
G1 X39.241 Y151.878 E1151.96131
G1 X39.471 Y150.708 E1152.10296
G1 X39.916 Y149.607 E1152.24404
G1 X40.564 Y148.602 E1152.3861
G1 X41.386 Y147.742 E1152.52743
G1 X42.36 Y147.051 E1152.66931
G1 X43.431 Y146.56 E1152.80928
G1 X44.591 Y146.276 E1152.95115
G1 X45.81 Y146.218 E1153.09613
G1 X46.979 Y146.386 E1153.23644
G1 X48.119 Y146.782 E1153.37981
G1 X49.141 Y147.371 E1153.51994
G1 X50.061 Y148.168 E1153.66455
G1 X50.786 Y149.09 E1153.80389
G1 X51.332 Y150.145 E1153.94501
G1 X51.676 Y151.303 E1154.08853
G1 X51.79 Y152.515 E1154.23315
G1 X51.678 Y153.686 E1154.3729
G1 X51.336 Y154.843 E1154.51623
G1 X50.779 Y155.922 E1154.66048
