;FLAVOR:UltiGCode
;TIME:36797
;MATERIAL:36255
;MATERIAL2:0
;NOZZLE_DIAMETER:0.4
;MINX:37.508
;MINY:47.475
;MINZ:0.27
;MAXX:202.928
;MAXY:162.895
;MAXZ:4.97
;TARGET_MACHINE.NAME:Ultimaker 2+
;Generated with Cura_SteamEngine 5.6.0
M82 ;absolute extrusion mode
G0 F3000 Y50 ;avoid prime blob
G92 E0
G92 E0
G10
;LAYER_COUNT:48
;LAYER:0
M107
G0 F7200 X41.165 Y48.478 Z0.27
;TYPE:SKIRT
G11
G1 F1800 X44.237 Y47.475 E0.34901
G1 X196.498 Y47.475 E16.7932
G1 X199.116 Y48.365 E17.09184
G1 X199.432 Y48.565 E17.13222
G1 X201.925 Y51.132 E17.51869
G1 X202.928 Y54.204 E17.8677
G1 X202.928 Y156.074 E28.86966
G1 X202.508 Y158.002 E29.08277
G1 X201.398 Y159.822 E29.313
G1 X199.252 Y161.904 E29.63592
G1 X196.195 Y162.895 E29.98299
G1 X44.329 Y162.895 E46.38452
G1 X42.401 Y162.475 E46.59762
G1 X40.581 Y161.365 E46.82786
G1 X38.499 Y159.219 E47.15077
G1 X37.508 Y156.162 E47.49784
G1 X37.508 Y53.905 E58.5416
G1 X38.398 Y51.287 E58.84024
G1 X38.598 Y50.971 E58.88063
G1 X41.165 Y48.478 E59.26709
G0 F7200 X41.378 Y48.829
G1 F1800 X44.3 Y47.875 E59.59906
G1 X196.431 Y47.875 E76.0292
G1 X198.987 Y48.744 E76.32077
G1 X199.145 Y48.844 E76.34096
G1 X201.574 Y51.345 E76.7175
G1 X202.528 Y54.267 E77.04947
G1 X202.528 Y156.03 E88.03987
G1 X202.131 Y157.853 E88.24137
G1 X201.085 Y159.568 E88.45832
G1 X199.04 Y161.552 E88.76604
G1 X196.131 Y162.495 E89.09631
G1 X44.373 Y162.495 E105.48617
G1 X42.55 Y162.098 E105.68767
G1 X40.835 Y161.052 E105.90462
G1 X38.851 Y159.007 E106.21234
G1 X37.908 Y156.098 E106.54261
G1 X37.908 Y53.972 E117.57222
G1 X38.777 Y51.416 E117.86378
G1 X38.877 Y51.258 E117.88398
G1 X41.378 Y48.829 E118.26051
G0 F7200 X41.591 Y49.18
G1 F1800 X44.363 Y48.275 E118.57544
G1 X196.364 Y48.275 E134.99155
G1 X198.858 Y49.123 E135.27604
G1 X201.223 Y51.558 E135.64264
G1 X202.128 Y54.33 E135.95757
G1 X202.128 Y155.986 E146.93642
G1 X201.754 Y157.704 E147.12631
G1 X200.772 Y159.314 E147.32998
G1 X198.828 Y161.2 E147.6225
G1 X196.067 Y162.095 E147.93597
G1 X44.417 Y162.095 E164.31417
G1 X42.699 Y161.721 E164.50406
G1 X41.089 Y160.739 E164.70773
G1 X39.203 Y158.795 E165.00025
G1 X38.308 Y156.034 E165.31371
G1 X38.308 Y54.039 E176.32917
G1 X39.156 Y51.545 E176.61367
G1 X41.591 Y49.18 E176.98027
G0 F7200 X41.804 Y49.531
G1 F1800 X44.426 Y48.675 E177.27816
G1 X196.297 Y48.675 E193.68022
G1 X198.638 Y49.471 E193.94727
G1 X200.872 Y51.771 E194.29355
G1 X201.728 Y54.393 E194.59144
G1 X201.728 Y155.942 E205.55873
G1 X201.377 Y157.555 E205.73701
G1 X200.459 Y159.06 E205.9274
G1 X198.616 Y160.848 E206.20473
G1 X196.003 Y161.695 E206.50139
G1 X44.461 Y161.695 E222.86792
G1 X42.848 Y161.344 E223.0462
G1 X41.343 Y160.426 E223.23659
G1 X39.555 Y158.583 E223.51392
G1 X38.708 Y155.97 E223.81058
G1 X38.708 Y54.106 E234.81189
G1 X39.504 Y51.765 E235.07893
G1 X41.804 Y49.531 E235.42522
G0 F7200 X42.017 Y49.882
G1 F1800 X44.489 Y49.075 E235.70606
G1 X196.23 Y49.075 E252.09409
G1 X198.418 Y49.819 E252.34368
G1 X200.521 Y51.984 E252.66965
G1 X201.328 Y54.456 E252.95049
G1 X201.328 Y155.898 E263.90623
G1 X201 Y157.406 E264.0729
G1 X200.146 Y158.806 E264.25001
G1 X198.404 Y160.496 E264.51214
G1 X195.939 Y161.295 E264.79199
G1 X44.505 Y161.295 E281.14686
G1 X42.997 Y160.967 E281.31354
G1 X41.597 Y160.113 E281.49065
G1 X39.907 Y158.371 E281.75277
G1 X39.108 Y155.906 E282.03263
G1 X39.108 Y54.173 E293.01979
G1 X39.852 Y51.985 E293.26938
G1 X42.017 Y49.882 E293.59535
G0 F7200 X42.23 Y50.233
G1 F1800 X44.552 Y49.475 E293.85915
G1 X196.163 Y49.475 E310.23314
G1 X198.198 Y50.167 E310.46528
G1 X200.17 Y52.197 E310.77093
G1 X200.928 Y54.519 E311.03473
G1 X200.928 Y155.854 E321.97891
G1 X200.623 Y157.257 E322.13398
G1 X199.833 Y158.552 E322.29781
G1 X198.192 Y160.144 E322.54473
G1 X195.875 Y160.895 E322.80778
G1 X44.549 Y160.895 E339.15099
G1 X43.146 Y160.59 E339.30606
G1 X41.851 Y159.8 E339.46989
G1 X40.259 Y158.159 E339.71681
G1 X39.508 Y155.842 E339.97986
G1 X39.508 Y54.24 E350.95288
G1 X40.2 Y52.205 E351.18502
G1 X42.23 Y50.233 E351.49067
G0 F7200 X42.443 Y50.584
G1 F1800 X44.615 Y49.875 E351.73743
G1 X196.096 Y49.875 E368.09738
G1 X197.978 Y50.515 E368.31207
G1 X199.819 Y52.41 E368.5974
G1 X200.528 Y54.582 E368.84416
G1 X200.528 Y155.81 E379.77679
G1 X200.246 Y157.108 E379.92024
G1 X199.52 Y158.298 E380.07079
G1 X197.98 Y159.792 E380.30252
G1 X195.811 Y160.495 E380.54876
G1 X44.593 Y160.495 E396.88031
G1 X43.295 Y160.213 E397.02376
G1 X42.105 Y159.487 E397.17431
G1 X40.611 Y157.947 E397.40604
G1 X39.908 Y155.778 E397.65229
G1 X39.908 Y54.307 E408.61115
G1 X40.548 Y52.425 E408.82584
G1 X42.443 Y50.584 E409.11118
G0 F7200 X42.656 Y50.935
G1 F1800 X44.678 Y50.275 E409.3409
G1 X196.029 Y50.275 E425.6868
G1 X197.758 Y50.863 E425.88404
G1 X199.468 Y52.623 E426.14906
G1 X200.128 Y54.645 E426.37878
G1 X200.128 Y155.766 E437.29984
G1 X199.869 Y156.959 E437.43169
G1 X199.207 Y158.044 E437.56896
G1 X197.768 Y159.44 E437.78549
G1 X195.747 Y160.095 E438.01493
G1 X44.637 Y160.095 E454.33481
G1 X43.444 Y159.836 E454.46666
G1 X42.359 Y159.174 E454.60393
G1 X40.963 Y157.735 E454.82045
G1 X40.308 Y155.714 E455.0499
G1 X40.308 Y54.374 E465.99462
G1 X40.896 Y52.645 E466.19185
G1 X42.656 Y50.935 E466.45687
G0 F7200 X42.869 Y51.286
G1 F1800 X44.741 Y50.675 E466.66955
G1 X195.962 Y50.675 E483.00142
G1 X197.538 Y51.211 E483.1812
G1 X199.117 Y52.836 E483.4259
G1 X199.728 Y54.708 E483.63858
G1 X199.728 Y155.722 E494.54809
G1 X199.492 Y156.81 E494.66833
G1 X198.894 Y157.79 E494.79231
G1 X197.556 Y159.088 E494.99364
G1 X195.683 Y159.695 E495.20628
G1 X44.681 Y159.695 E511.5145
G1 X43.593 Y159.459 E511.63474
G1 X42.613 Y158.861 E511.75873
G1 X41.315 Y157.523 E511.96005
G1 X40.708 Y155.65 E512.17269
G1 X40.708 Y54.441 E523.10327
G1 X41.244 Y52.865 E523.28305
G1 X42.869 Y51.286 E523.52776
G0 F7200 X43.082 Y51.637
G1 F1800 X44.804 Y51.075 E523.72339
G1 X195.895 Y51.075 E540.04121
G1 X197.318 Y51.559 E540.20354
G1 X198.766 Y53.049 E540.42793
G1 X199.328 Y54.771 E540.62356
G1 X199.328 Y155.678 E551.52152
G1 X199.115 Y156.659 E551.62994
G1 X198.579 Y157.538 E551.74113
G1 X197.343 Y158.737 E551.9271
G1 X195.622 Y159.295 E552.1225
G1 X44.725 Y159.295 E568.41937
G1 X43.744 Y159.082 E568.52779
G1 X42.865 Y158.546 E568.63898
G1 X41.666 Y157.31 E568.82496
G1 X41.108 Y155.589 E569.02035
G1 X41.108 Y54.508 E579.9371
G1 X41.592 Y53.085 E580.09943
G1 X43.082 Y51.637 E580.32382
G0 F7200 X43.295 Y51.988
G1 F1800 X44.867 Y51.475 E580.50241
G1 X195.828 Y51.475 E596.80619
G1 X197.098 Y51.907 E596.95107
G1 X198.415 Y53.262 E597.15515
G1 X198.928 Y54.834 E597.33373
G1 X198.928 Y155.634 E608.22013
G1 X198.738 Y156.508 E608.31673
G1 X198.264 Y157.286 E608.41512
G1 X197.13 Y158.386 E608.58575
G1 X195.561 Y158.895 E608.76389
G1 X44.769 Y158.895 E625.04943
G1 X43.895 Y158.705 E625.14602
G1 X43.117 Y158.231 E625.24441
G1 X42.017 Y157.097 E625.41504
G1 X41.508 Y155.528 E625.59319
G1 X41.508 Y54.575 E636.49611
G1 X41.94 Y53.305 E636.64099
G1 X43.295 Y51.988 E636.84506
G0 F7200 X43.508 Y52.339
G1 F1800 X44.93 Y51.875 E637.00661
G1 X195.761 Y51.875 E653.29635
G1 X196.878 Y52.255 E653.42378
G1 X198.064 Y53.475 E653.60754
G1 X198.528 Y54.897 E653.76908
G1 X198.528 Y155.59 E664.64393
G1 X198.361 Y156.357 E664.72871
G1 X197.947 Y157.037 E664.81469
G1 X196.918 Y158.035 E664.9695
G1 X195.5 Y158.495 E665.1305
G1 X44.813 Y158.495 E681.4047
G1 X44.046 Y158.328 E681.48947
G1 X43.366 Y157.914 E681.57545
G1 X42.368 Y156.885 E681.73027
G1 X41.908 Y155.467 E681.89127
G1 X41.908 Y54.642 E692.78037
G1 X42.288 Y53.525 E692.9078
G1 X43.508 Y52.339 E693.09155
G0 F7200 X43.721 Y52.69
G1 F1800 X44.993 Y52.275 E693.23606
G1 X195.694 Y52.275 E709.51176
G1 X196.658 Y52.603 E709.62174
G1 X197.713 Y53.688 E709.78518
G1 X198.128 Y54.96 E709.92968
G1 X198.128 Y155.546 E720.79297
G1 X197.984 Y156.206 E720.86593
G1 X197.63 Y156.788 E720.9395
G1 X196.706 Y157.684 E721.0785
G1 X195.439 Y158.095 E721.22236
G1 X44.857 Y158.095 E737.48521
G1 X44.197 Y157.951 E737.55817
G1 X43.615 Y157.597 E737.63174
G1 X42.719 Y156.673 E737.77075
G1 X42.308 Y155.406 E737.9146
G1 X42.308 Y54.709 E748.78988
G1 X42.636 Y53.745 E748.89985
G1 X43.721 Y52.69 E749.06329
G0 F7200 X43.934 Y53.041
G1 F1800 X45.056 Y52.675 E749.19075
G1 X195.627 Y52.675 E765.45242
G1 X196.438 Y52.951 E765.54494
G1 X197.362 Y53.901 E765.68807
G1 X197.728 Y55.023 E765.81553
G1 X197.728 Y155.502 E776.66726
G1 X197.607 Y156.055 E776.7284
G1 X197.313 Y156.539 E776.78956
G1 X196.494 Y157.333 E776.91276
G1 X195.378 Y157.695 E777.03947
G1 X44.901 Y157.695 E793.29098
G1 X44.348 Y157.574 E793.35212
G1 X43.864 Y157.28 E793.41328
G1 X43.07 Y156.461 E793.53647
G1 X42.708 Y155.345 E793.66318
G1 X42.708 Y54.776 E804.52464
G1 X42.984 Y53.965 E804.61716
G1 X43.934 Y53.041 E804.76028
G0 F7200 X44.147 Y53.392
G1 F1800 X45.119 Y53.075 E804.8707
G1 X195.56 Y53.075 E821.11833
G1 X196.218 Y53.299 E821.1934
G1 X197.011 Y54.114 E821.31621
G1 X197.328 Y55.086 E821.42663
G1 X197.328 Y155.502 E832.27156
G1 X197.218 Y155.962 E832.32264
G1 X197.035 Y156.252 E832.35967
G1 X196.283 Y156.981 E832.47278
G1 X195.316 Y157.295 E832.58259
G1 X44.901 Y157.295 E848.82741
G1 X44.441 Y157.185 E848.87849
G1 X44.151 Y157.002 E848.91552
G1 X43.422 Y156.25 E849.02864
G1 X43.108 Y155.283 E849.13844
G1 X43.108 Y54.843 E859.98596
G1 X43.332 Y54.185 E860.06103
G1 X44.147 Y53.392 E860.18384
G0 F7200 X44.36 Y53.743
G1 F1800 X45.182 Y53.475 E860.27722
G1 X195.493 Y53.475 E876.5108
G1 X195.998 Y53.647 E876.56842
G1 X196.66 Y54.327 E876.67092
G1 X196.928 Y55.149 E876.76429
G1 X196.928 Y155.462 E887.59809
G1 X196.869 Y155.766 E887.63154
G1 X196.757 Y155.965 E887.6562
G1 X196.072 Y156.629 E887.75923
G1 X195.254 Y156.895 E887.85213
G1 X44.941 Y156.895 E904.08594
G1 X44.637 Y156.836 E904.11938
G1 X44.438 Y156.724 E904.14404
G1 X43.774 Y156.039 E904.24707
G1 X43.508 Y155.221 E904.33997
G1 X43.508 Y54.91 E915.17356
G1 X43.68 Y54.405 E915.23118
G1 X44.36 Y53.743 E915.33367
G0 F7200 X44.573 Y54.094
G1 F1800 X45.245 Y53.875 E915.41
G1 X195.493 Y53.875 E931.63679
G1 X195.711 Y53.926 E931.66097
G1 X196.309 Y54.54 E931.75353
G1 X196.528 Y55.212 E931.82987
G1 X196.528 Y155.462 E942.65687
G1 X196.479 Y155.678 E942.68079
G1 X195.861 Y156.277 E942.77374
G1 X195.191 Y156.495 E942.84983
G1 X44.941 Y156.495 E959.07683
G1 X44.725 Y156.446 E959.10075
G1 X44.126 Y155.828 E959.1937
G1 X43.908 Y155.158 E959.2698
G1 X43.908 Y54.91 E970.09658
G1 X43.959 Y54.692 E970.12076
G1 X44.573 Y54.094 E970.21333
G0 F7200 X44.786 Y54.445
G1 F1800 X45.308 Y54.275 E970.27262
G1 X195.493 Y54.275 E986.4926
G1 X195.958 Y54.753 E986.56462
G1 X196.128 Y55.275 E986.62391
G1 X196.128 Y155.462 E997.4441
G1 X195.65 Y155.925 E997.51597
G1 X195.128 Y156.095 E997.57526
G1 X44.941 Y156.095 E1013.79546
G1 X44.478 Y155.617 E1013.86733
G1 X44.308 Y155.095 E1013.92662
G1 X44.308 Y54.91 E1024.7466
G1 X44.786 Y54.445 E1024.81862
G0 F7200 X45.108 Y55.176
G1 F1800 X45.308 Y55.075 E1024.84282
G1 X195.227 Y55.075 E1041.03407
G1 X195.328 Y55.275 E1041.05827
G1 X195.328 Y155.194 E1051.84952
G1 X195.128 Y155.295 E1051.87372
G1 X45.209 Y155.295 E1068.06497
G1 X45.108 Y155.095 E1068.08917
G1 X45.108 Y55.176 E1078.88042
G0 F7200 X44.928 Y54.819
G1 F1800 X45.308 Y54.675 E1078.92431
G1 X195.359 Y54.675 E1095.12982
G1 X195.584 Y54.895 E1095.16381
G1 X195.728 Y55.275 E1095.20769
G1 X195.728 Y155.327 E1106.01331
G1 X195.508 Y155.551 E1106.04722
G1 X195.128 Y155.695 E1106.09111
G1 X45.076 Y155.695 E1122.29672
G1 X44.852 Y155.475 E1122.33063
G1 X44.708 Y155.095 E1122.37452
G1 X44.708 Y55.044 E1133.18003
G1 X44.928 Y54.819 E1133.21401
G10
;MESH:Body1.3mf
G0 F7200 X49.427 Y71.079
G0 X52.991 Y105.343
;TYPE:WALL-OUTER
G11
G1 F1800 X52.241 Y105.475 E1133.30448
G1 X51.45 Y105.346 E1133.39969
G1 X50.756 Y104.951 E1133.49456
G1 X50.24 Y104.345 E1133.58911
G1 X49.936 Y103.488 E1133.69714
G1 X49.928 Y71.033 E1137.5528
G1 X50.112 Y70.527 E1137.61676
G1 X50.399 Y70.185 E1137.6698
G1 X51.037 Y69.896 E1137.75301
G1 X53.399 Y69.902 E1138.03362
G1 X53.867 Y70.071 E1138.09273
G1 X54.225 Y70.369 E1138.14806
G1 X54.505 Y71.015 E1138.23171
G1 X54.507 Y103.223 E1142.05802
G1 X54.375 Y103.958 E1142.14673
G1 X54.206 Y104.322 E1142.19441
G1 X53.702 Y104.932 E1142.28841
G1 X52.991 Y105.343 E1142.38598
G0 F7200 X52.794 Y105.377
G10
G0 X52.846 Y105.674
G0 X53.342 Y107.445
G0 X57.165 Y119.744
G11
G1 F1800 X56.536 Y120.033 E1142.46821
G1 X55.898 Y120.247 E1142.54816
G1 X55.243 Y120.391 E1142.62783
G1 X54.504 Y120.466 E1142.71607
G1 X53.909 Y120.465 E1142.78676
G1 X53.158 Y120.388 E1142.87645
G1 X52.525 Y120.243 E1142.95359
G1 X51.881 Y120.026 E1143.03433
G1 X51.261 Y119.739 E1143.11549
G1 X50.676 Y119.385 E1143.19672
G1 X50.149 Y118.983 E1143.27547
G1 X49.64 Y118.499 E1143.35891
G1 X49.205 Y117.987 E1143.43873
G1 X48.83 Y117.432 E1143.5183
G1 X48.514 Y116.837 E1143.59834
G1 X48.255 Y116.186 E1143.68157
G1 X48.074 Y115.536 E1143.76173
G1 X47.966 Y114.883 E1143.84036
G1 X47.928 Y114.181 E1143.92388
G1 X47.965 Y113.486 E1144.00656
G1 X48.074 Y112.833 E1144.08521
G1 X48.251 Y112.196 E1144.16375
G1 X48.511 Y111.54 E1144.24758
G1 X48.83 Y110.937 E1144.32863
G1 X49.218 Y110.366 E1144.41064
G1 X49.655 Y109.855 E1144.49052
G1 X50.149 Y109.387 E1144.57136
G1 X50.695 Y108.973 E1144.65276
G1 X51.276 Y108.625 E1144.73322
G1 X51.899 Y108.337 E1144.81476
G1 X52.538 Y108.123 E1144.89482
G1 X53.19 Y107.98 E1144.97411
G1 X53.91 Y107.905 E1145.06011
G1 X54.526 Y107.904 E1145.13329
G1 X55.277 Y107.982 E1145.22299
G1 X55.887 Y108.12 E1145.29729
G1 X56.554 Y108.344 E1145.38088
G1 X57.174 Y108.631 E1145.46205
G1 X57.759 Y108.985 E1145.54328
G1 X58.278 Y109.381 E1145.62083
G1 X58.789 Y109.863 E1145.70428
G1 X59.23 Y110.384 E1145.78538
G1 X59.614 Y110.952 E1145.86683
G1 X59.931 Y111.554 E1145.94766
G1 X60.185 Y112.195 E1146.02957
G1 X60.361 Y112.833 E1146.10819
G1 X60.471 Y113.504 E1146.18897
G1 X60.508 Y114.189 E1146.27047
G1 X60.47 Y114.872 E1146.35173
G1 X60.358 Y115.546 E1146.4329
G1 X60.181 Y116.187 E1146.5119
G1 X59.924 Y116.83 E1146.59417
G1 X59.605 Y117.433 E1146.67521
G1 X59.216 Y118.006 E1146.75749
G1 X58.781 Y118.515 E1146.83703
G1 X58.286 Y118.983 E1146.91796
G1 X57.741 Y119.397 E1146.99927
G1 X57.165 Y119.744 E1147.07915
G0 F7200 X56.984 Y119.827
G10
G0 X57.108 Y120.099
G0 X52.83 Y128.214
G0 X52.275 Y131.927
G11
G1 F1800 X51.917 Y132.101 E1147.12644
G1 X51.262 Y132.224 E1147.20562
G1 X50.855 Y132.193 E1147.25411
G1 X50.212 Y131.962 E1147.33528
G1 X49.663 Y131.511 E1147.41968
G1 X49.291 Y130.865 E1147.50824
G1 X49.179 Y130.207 E1147.58754
G1 X49.291 Y129.503 E1147.67222
G1 X49.643 Y128.885 E1147.75672
G1 X50.173 Y128.428 E1147.83985
G1 X50.886 Y128.172 E1147.92985
G1 X51.559 Y128.174 E1148.00981
G1 X51.926 Y128.271 E1148.0549
G1 X52.517 Y128.609 E1148.13579
G1 X52.977 Y129.152 E1148.22033
G1 X53.139 Y129.496 E1148.2655
G1 X53.258 Y130.163 E1148.34599
G1 X53.143 Y130.868 E1148.43085
G1 X52.79 Y131.487 E1148.51551
G1 X52.275 Y131.927 E1148.59598
G0 F7200 X52.096 Y132.014
G10
G0 X52.224 Y132.29
G0 X53.19 Y131.801
G0 X62.268 Y131.831
G0 X65.262 Y131.936
G11
G1 F1800 X64.891 Y132.11 E1148.64466
G1 X64.225 Y132.224 E1148.72493
G1 X63.869 Y132.195 E1148.76736
G1 X63.218 Y131.962 E1148.84951
G1 X62.664 Y131.51 E1148.93445
G1 X62.31 Y130.904 E1149.01783
G1 X62.206 Y130.525 E1149.06452
G1 X62.207 Y129.841 E1149.14577
G1 X62.296 Y129.495 E1149.18822
G1 X62.651 Y128.879 E1149.27268
G1 X63.174 Y128.429 E1149.35465
G1 X63.881 Y128.173 E1149.44398
G1 X64.556 Y128.173 E1149.52417
G1 X64.911 Y128.265 E1149.56773
G1 X65.51 Y128.607 E1149.64968
G1 X65.984 Y129.163 E1149.73647
G1 X66.141 Y129.503 E1149.78096
G1 X66.26 Y130.165 E1149.86087
G1 X66.14 Y130.867 E1149.94548
G1 X65.799 Y131.473 E1150.02809
G1 X65.262 Y131.936 E1150.11232
G0 F7200 X65.081 Y132.021
G10
G0 X65.209 Y132.297
G0 X64.284 Y132.723
G0 X59.598 Y142.041
G0 X57.741 Y151.397
G11
G1 F1800 X57.174 Y151.739 E1150.19098
G1 X56.536 Y152.033 E1150.27444
G1 X55.898 Y152.247 E1150.35438
G1 X55.245 Y152.391 E1150.43382
G1 X54.525 Y152.466 E1150.51982
G1 X53.909 Y152.466 E1150.593
G1 X53.158 Y152.388 E1150.6827
G1 X52.544 Y152.249 E1150.75749
G1 X51.881 Y152.026 E1150.84059
G1 X51.261 Y151.739 E1150.92176
