;START_OF_HEADER
;HEADER_VERSION:0.1
;FLAVOR:Griffin
;GENERATOR.NAME:Cura_SteamEngine
;GENERATOR.VERSION:5.6.0
;GENERATOR.BUILD_DATE:2023-11-28
;TARGET_MACHINE.NAME:Ultimaker 3 Extended
;EXTRUDER_TRAIN.0.INITIAL_TEMPERATURE:200
;EXTRUDER_TRAIN.0.MATERIAL.VOLUME_USED:25588
;EXTRUDER_TRAIN.0.MATERIAL.GUID:506c9f0d-e3aa-4bd4-b2d2-23e2425b1aa9
;EXTRUDER_TRAIN.0.NOZZLE.DIAMETER:0.4
;EXTRUDER_TRAIN.0.NOZZLE.NAME:AA 0.4
;BUILD_PLATE.INITIAL_TEMPERATURE:60
;PRINT.TIME:16620
;PRINT.GROUPS:1
;PRINT.SIZE.MIN.X:9
;PRINT.SIZE.MIN.Y:6
;PRINT.SIZE.MIN.Z:0.2
;PRINT.SIZE.MAX.X:146.485
;PRINT.SIZE.MAX.Y:171.608
;PRINT.SIZE.MAX.Z:36.95
;SLICE_UUID:5511842e-6b69-4ede-a071-384fe4b365c9
;END_OF_HEADER
;Generated with Cura_SteamEngine 5.6.0
T0
M82 ;absolute extrusion mode

G92 E0
M190 S60
M109 S200
G0 F15000 X9 Y6 Z2
G280
G1 F1500 E-6.5
;LAYER_COUNT:246
;LAYER:0
M106 S255
M204 S1000
M205 X20 Y20
G1 F600 Z2.2
G0 F15000 X75.045 Y54.772 Z2.2
;TYPE:SKIRT
G1 F600 Z0.2
G1 F1500 E0
G1 F1350 X78.253 Y51.39 E0.05846
G1 X80.004 Y50.263 E0.08457
G1 X84.446 Y49.02 E0.14241
G1 X86.483 Y48.872 E0.16803
G1 X91.227 Y50.2 E0.2298
G1 X93.071 Y51.239 E0.25635
G1 X93.746 Y51.957 E0.26871
G1 X95.029 Y51.592 E0.28543
G1 X97.152 Y51.533 E0.31207
G1 X100.522 Y52.485 E0.35598
G1 X102.258 Y53.518 E0.38131
G1 X104.473 Y55.858 E0.42172
G1 X105.572 Y58.162 E0.45373
G1 X105.549 Y60.015 E0.47697
G1 X110.573 Y60.015 E0.53997
G1 X110.569 Y58.158 E0.56326
G1 X111.825 Y53.846 E0.61958
G1 X112.694 Y52.241 E0.64247
G1 X115.902 Y48.859 E0.70093
G1 X117.653 Y47.732 E0.72704
G1 X122.095 Y46.489 E0.78488
G1 X124.132 Y46.341 E0.8105
G1 X128.876 Y47.669 E0.87228
G1 X130.72 Y48.708 E0.89882
G1 X133.78 Y51.954 E0.95476
G1 X134.927 Y51.634 E0.96969
G1 X136.964 Y51.486 E0.9953
G1 X140.526 Y52.486 E1.0417
G1 X142.257 Y53.516 E1.06696
G1 X144.474 Y55.858 E1.1074
G1 X145.573 Y58.162 E1.13941
G1 X145.538 Y60.922 E1.17403
G1 X144.993 Y62.693 E1.19726
G1 X145.58 Y63.298 E1.20784
G1 X146.485 Y66.07 E1.2444
G1 X146.485 Y70.876 E1.30467
G1 X146.111 Y72.594 E1.32672
G1 X145.13 Y74.202 E1.35034
G1 X145.784 Y76.218 E1.37692
G1 X145.749 Y78.174 E1.40145
G1 X144.839 Y81.411 E1.44362
G1 X143.888 Y83.154 E1.46852
G1 X141.346 Y85.696 E1.5136
G1 X139.376 Y86.976 E1.54306
G1 X136.752 Y87.384 E1.57636
G1 X136.485 Y87.364 E1.57972
G1 X136.485 Y131.141 E2.1287
G1 X136.724 Y131.127 E2.1317
G1 X139.563 Y131.679 E2.16797
G1 X141.475 Y133.002 E2.19713
G1 X144.018 Y135.682 E2.24346
G1 X144.738 Y136.897 E2.26117
G1 X145.803 Y140.569 E2.30912
G1 X145.879 Y142.706 E2.33593
G1 X144.839 Y146.411 E2.38419
G1 X143.888 Y148.154 E2.40909
G1 X141.346 Y150.696 E2.45417
G1 X139.376 Y151.976 E2.48363
G1 X136.688 Y152.394 E2.51775
G1 X136.378 Y152.362 E2.52166
G1 X136.111 Y153.594 E2.53746
G1 X135.129 Y155.204 E2.56111
G1 X133.185 Y157.09 E2.59508
G1 X130.424 Y157.985 E2.63148
G1 X119.88 Y157.985 E2.7637
G1 X119.941 Y159.7 E2.78522
G1 X118.662 Y164.255 E2.84455
G1 X117.71 Y166 E2.86948
G1 X114.493 Y169.217 E2.92653
G1 X112.759 Y170.286 E2.95208
G1 X108.261 Y171.551 E3.01067
G1 X106.107 Y171.608 E3.0377
G1 X101.639 Y170.297 E3.09609
G1 X99.885 Y169.261 E3.12163
G1 X96.624 Y166 E3.17947
G1 X95.591 Y164.251 E3.20494
G1 X94.339 Y159.983 E3.26072
G1 X94.279 Y157.787 E3.28827
G1 X95.178 Y154.719 E3.32836
G1 X96.195 Y153.07 E3.35265
G1 X96.767 Y152.688 E3.36128
G1 X96.554 Y152.033 E3.36992
G1 X96.527 Y151.711 E3.37397
G1 X94.405 Y151.58 E3.40063
G1 X93.821 Y151.384 E3.40836
G1 X91.936 Y150.254 E3.43592
G1 X89.233 Y147.551 E3.48385
G1 X88.193 Y145.788 E3.50952
G1 X87.183 Y142.352 E3.55443
G1 X87.123 Y140.155 E3.582
G1 X88.243 Y136.325 E3.63204
G1 X88.891 Y135.128 E3.64911
G1 X91.537 Y132.33 E3.6974
G1 X93.531 Y130.971 E3.72766
G1 X96.282 Y130.531 E3.7626
G1 X96.515 Y130.55 E3.76553
G1 X96.515 Y86.711 E4.31529
G1 X94.405 Y86.58 E4.3418
G1 X93.821 Y86.384 E4.34952
G1 X91.936 Y85.254 E4.37708
G1 X89.217 Y82.535 E4.4253
G1 X88.198 Y80.8 E4.45054
G1 X87.448 Y78.241 E4.48398
G1 X87.37 Y75.863 E4.51381
G1 X88.057 Y74.35 E4.53465
G1 X87.937 Y74.226 E4.53682
G1 X86.874 Y74.526 E4.55067
G1 X84.72 Y74.583 E4.57769
G1 X80.252 Y73.272 E4.63608
G1 X78.498 Y72.236 E4.66163
G1 X75.237 Y68.975 E4.71946
G1 X74.204 Y67.226 E4.74493
G1 X72.952 Y62.958 E4.80071
G1 X72.892 Y60.766 E4.82821
G1 X74.176 Y56.377 E4.88556
G1 X75.045 Y54.772 E4.90844
G0 F15000 X75.372 Y55.008
G1 F1350 X78.51 Y51.699 E4.96563
G1 X80.168 Y50.632 E4.99036
G1 X84.514 Y49.416 E5.04695
G1 X86.443 Y49.276 E5.0712
G1 X91.071 Y50.572 E5.13147
G1 X92.823 Y51.559 E5.15669
G1 X93.622 Y52.408 E5.17131
G1 X95.09 Y51.991 E5.19045
G1 X97.102 Y51.935 E5.21569
G1 X100.361 Y52.855 E5.25816
G1 X102.008 Y53.835 E5.28219
G1 X104.139 Y56.086 E5.32106
G1 X105.171 Y58.25 E5.35113
G1 X105.144 Y60.415 E5.37828
G1 X111.016 Y60.415 E5.45192
G1 X110.973 Y60.214 E5.45449
G1 X110.969 Y58.215 E5.47956
G1 X112.197 Y53.999 E5.53463
G1 X113.021 Y52.477 E5.55633
G1 X116.159 Y49.168 E5.61352
G1 X117.817 Y48.101 E5.63825
G1 X122.163 Y46.885 E5.69484
G1 X124.092 Y46.745 E5.71909
G1 X128.72 Y48.041 E5.77936
G1 X130.472 Y49.028 E5.80458
G1 X133.655 Y52.404 E5.86277
G1 X134.995 Y52.03 E5.88021
G1 X136.924 Y51.89 E5.90447
G1 X140.365 Y52.856 E5.94929
G1 X142.007 Y53.833 E5.97325
G1 X144.14 Y56.086 E6.01215
G1 X145.172 Y58.25 E6.04222
G1 X145.139 Y60.86 E6.07495
G1 X144.609 Y62.581 E6.09754
G1 X144.507 Y62.768 E6.10021
G1 X145.229 Y63.511 E6.1132
G1 X146.085 Y66.133 E6.14779
G1 X146.085 Y70.832 E6.20671
G1 X145.734 Y72.445 E6.22742
G1 X144.845 Y73.902 E6.24882
G1 X144.601 Y74.156 E6.25324
G1 X144.812 Y74.516 E6.25847
G1 X145.383 Y76.276 E6.28167
G1 X145.35 Y78.116 E6.30475
G1 X144.467 Y81.258 E6.34568
G1 X143.565 Y82.911 E6.36929
G1 X141.091 Y85.385 E6.41317
G1 X139.23 Y86.594 E6.441
G1 X136.691 Y86.989 E6.47322
G1 X136.085 Y86.907 E6.48089
G1 X136.085 Y131.614 E7.04153
G1 X136.648 Y131.52 E7.04869
G1 X139.404 Y132.056 E7.0839
G1 X141.216 Y133.309 E7.11153
G1 X143.696 Y135.923 E7.15671
G1 X144.368 Y137.058 E7.17325
G1 X145.405 Y140.631 E7.21991
G1 X145.477 Y142.659 E7.24536
G1 X144.467 Y146.258 E7.29223
G1 X143.565 Y147.911 E7.31585
G1 X141.091 Y150.385 E7.35972
G1 X139.23 Y151.594 E7.38755
G1 X136.627 Y151.999 E7.42059
G1 X136.068 Y151.904 E7.4277
G1 X135.734 Y153.445 E7.44747
G1 X134.816 Y154.95 E7.46958
G1 X132.973 Y156.738 E7.50178
G1 X130.36 Y157.585 E7.53623
G1 X119.465 Y157.585 E7.67286
G1 X119.539 Y159.653 E7.69881
G1 X118.29 Y164.102 E7.75676
G1 X117.387 Y165.757 E7.7804
G1 X114.241 Y168.903 E7.83619
G1 X112.598 Y169.916 E7.8604
G1 X108.202 Y171.152 E7.91766
G1 X106.16 Y171.206 E7.94328
G1 X101.796 Y169.926 E8.00031
G1 X100.134 Y168.944 E8.02452
G1 X96.942 Y165.752 E8.08113
G1 X95.961 Y164.092 E8.10531
G1 X94.738 Y159.92 E8.15983
G1 X94.681 Y157.839 E8.18593
G1 X95.548 Y154.881 E8.22459
G1 X96.489 Y153.355 E8.24707
G1 X97.24 Y152.853 E8.2584
G1 X96.934 Y151.91 E8.27083
G1 X96.915 Y151.335 E8.27805
G1 X94.482 Y151.184 E8.30862
G1 X93.991 Y151.019 E8.31511
G1 X92.184 Y149.936 E8.34153
G1 X89.55 Y147.302 E8.38824
G1 X88.564 Y145.631 E8.41258
G1 X87.582 Y142.289 E8.45626
G1 X87.525 Y140.206 E8.48239
G1 X88.615 Y136.478 E8.5311
G1 X89.217 Y135.366 E8.54695
G1 X91.799 Y132.636 E8.59407
G1 X93.683 Y131.352 E8.62267
G1 X96.345 Y130.926 E8.65647
G1 X96.915 Y131.022 E8.66372
G1 X96.915 Y86.335 E9.22411
G1 X94.482 Y86.184 E9.25468
G1 X93.991 Y86.019 E9.26118
G1 X92.184 Y84.936 E9.2876
G1 X89.536 Y82.288 E9.33456
G1 X88.568 Y80.64 E9.35853
G1 X87.846 Y78.177 E9.39071
G1 X87.773 Y75.942 E9.41876
G1 X88.533 Y74.267 E9.44182
G1 X88.058 Y73.777 E9.45038
G1 X86.815 Y74.127 E9.46657
G1 X84.773 Y74.181 E9.49219
G1 X80.409 Y72.901 E9.54922
G1 X78.747 Y71.919 E9.57343
G1 X75.555 Y68.727 E9.63004
G1 X74.574 Y67.067 E9.65422
G1 X73.351 Y62.895 E9.70874
G1 X73.294 Y60.817 E9.73481
G1 X74.548 Y56.53 E9.79082
G1 X75.372 Y55.008 E9.81253
G0 F15000 X75.699 Y55.244
G1 F1350 X78.767 Y52.008 E9.86845
G1 X80.332 Y51.001 E9.89178
G1 X84.582 Y49.812 E9.94713
G1 X86.403 Y49.68 E9.97002
G1 X90.919 Y50.945 E10.02884
G1 X92.573 Y51.877 E10.05264
G1 X93.498 Y52.859 E10.06956
G1 X95.151 Y52.39 E10.09111
G1 X97.052 Y52.337 E10.11496
G1 X100.202 Y53.226 E10.156
G1 X101.754 Y54.149 E10.17865
G1 X103.806 Y56.317 E10.21608
G1 X104.77 Y58.338 E10.24416
G1 X104.739 Y60.815 E10.27523
G1 X111.554 Y60.815 E10.36069
G1 X111.373 Y60.213 E10.36857
G1 X111.369 Y58.272 E10.39291
G1 X112.569 Y54.152 E10.44673
G1 X113.348 Y52.713 E10.46725
G1 X116.416 Y49.477 E10.52317
G1 X117.981 Y48.47 E10.5465
G1 X122.231 Y47.281 E10.60185
G1 X124.052 Y47.149 E10.62474
G1 X128.568 Y48.414 E10.68355
G1 X130.222 Y49.346 E10.70736
G1 X133.271 Y52.579 E10.76309
G1 X133.458 Y52.874 E10.76747
G1 X135.063 Y52.426 E10.78837
G1 X136.884 Y52.294 E10.81126
G1 X140.204 Y53.226 E10.85451
G1 X141.755 Y54.149 E10.87714
G1 X143.807 Y56.317 E10.91457
G1 X144.771 Y58.338 E10.94265
G1 X144.74 Y60.798 E10.97351
G1 X144.227 Y62.463 E10.99535
G1 X144 Y62.821 E11.00067
G1 X144.878 Y63.724 E11.01646
G1 X145.685 Y66.196 E11.04907
G1 X145.685 Y70.788 E11.10666
G1 X145.357 Y72.296 E11.12601
G1 X144.504 Y73.694 E11.14655
G1 X144.091 Y74.094 E11.15376
G1 X144.432 Y74.639 E11.16182
G1 X144.982 Y76.334 E11.18417
G1 X144.951 Y78.058 E11.20579
G1 X144.095 Y81.105 E11.24548
G1 X143.242 Y82.668 E11.26781
G1 X140.836 Y85.074 E11.31048
G1 X139.084 Y86.212 E11.33668
G1 X136.629 Y86.594 E11.36784
G1 X135.685 Y86.434 E11.37984
G1 X135.685 Y132.115 E11.9527
G1 X136.572 Y131.913 E11.96411
G1 X139.247 Y132.433 E11.99828
G1 X140.955 Y133.614 E12.02432
G1 X143.374 Y136.164 E12.0684
G1 X143.998 Y137.218 E12.08376
G1 X145.007 Y140.694 E12.12915
G1 X145.075 Y142.612 E12.15322
G1 X144.095 Y146.105 E12.19871
G1 X143.242 Y147.668 E12.22104
G1 X140.836 Y150.074 E12.26371
G1 X139.084 Y151.212 E12.28991
G1 X136.629 Y151.594 E12.32107
G1 X135.685 Y151.434 E12.33307
G1 X135.676 Y151.829 E12.33803
G1 X135.357 Y153.296 E12.35686
G1 X134.503 Y154.696 E12.37742
G1 X132.761 Y156.386 E12.40786
G1 X130.296 Y157.185 E12.44035
G1 X118.917 Y157.185 E12.58305
G1 X119.071 Y157.762 E12.59054
G1 X119.137 Y159.606 E12.61368
G1 X117.918 Y163.949 E12.67025
G1 X117.064 Y165.514 E12.6926
G1 X113.989 Y168.589 E12.74714
G1 X112.437 Y169.546 E12.77
G1 X108.143 Y170.753 E12.82594
G1 X106.213 Y170.804 E12.85015
G1 X101.955 Y169.556 E12.90579
G1 X100.382 Y168.626 E12.92871
G1 X97.26 Y165.504 E12.98408
G1 X96.331 Y163.932 E13.00698
G1 X95.137 Y159.858 E13.06021
G1 X95.083 Y157.891 E13.08489
G1 X95.917 Y155.046 E13.12207
G1 X96.784 Y153.639 E13.14279
G1 X97.714 Y153.018 E13.15682
G1 X97.315 Y151.787 E13.17305
G1 X97.315 Y150.855 E13.18473
G1 X96.944 Y150.936 E13.18949
G1 X94.559 Y150.788 E13.21946
G1 X94.197 Y150.676 E13.22421
G1 X92.432 Y149.618 E13.25002
G1 X89.869 Y147.055 E13.29547
G1 X88.934 Y145.47 E13.31855
G1 X87.981 Y142.226 E13.36095
G1 X87.927 Y140.257 E13.38565
G1 X88.987 Y136.631 E13.43303
G1 X89.543 Y135.604 E13.44767
G1 X92.061 Y132.942 E13.49362
G1 X93.835 Y131.733 E13.52054
G1 X96.345 Y131.331 E13.55242
G1 X97.315 Y131.494 E13.56476
G1 X97.315 Y85.855 E14.13709
G1 X96.944 Y85.936 E14.14185
G1 X94.559 Y85.788 E14.17181
G1 X94.197 Y85.676 E14.17657
G1 X92.432 Y84.618 E14.20237
G1 X89.855 Y82.041 E14.24807
G1 X88.938 Y80.48 E14.27078
G1 X88.244 Y78.113 E14.30171
G1 X88.176 Y76.021 E14.32796
G1 X89.009 Y74.184 E14.35325
G1 X88.179 Y73.328 E14.36821
G1 X86.756 Y73.728 E14.38674
G1 X84.826 Y73.779 E14.41095
G1 X80.568 Y72.531 E14.4666
G1 X78.995 Y71.601 E14.48951
G1 X75.873 Y68.479 E14.54488
G1 X74.944 Y66.907 E14.56778
G1 X73.75 Y62.833 E14.62102
G1 X73.696 Y60.868 E14.64567
G1 X74.92 Y56.683 E14.70035
G1 X75.699 Y55.244 E14.72087
G0 F15000 X76.026 Y55.48
G1 F1350 X79.024 Y52.317 E14.77552
G1 X80.496 Y51.37 E14.79747
G1 X84.65 Y50.208 E14.85156
G1 X86.363 Y50.084 E14.8731
G1 X90.767 Y51.318 E14.93045
G1 X92.323 Y52.195 E14.95285
G1 X93.374 Y53.31 E14.97207
G1 X95.212 Y52.789 E14.99603
G1 X97.002 Y52.739 E15.01848
G1 X100.042 Y53.596 E15.05809
G1 X101.504 Y54.466 E15.07942
G1 X103.472 Y56.545 E15.11532
G1 X104.369 Y58.426 E15.14146
G1 X104.341 Y60.679 E15.16971
G1 X104.193 Y61.215 E15.17669
G1 X112.091 Y61.215 E15.27573
G1 X111.773 Y60.154 E15.28962
G1 X111.769 Y58.329 E15.31251
G1 X112.941 Y54.305 E15.36507
G1 X113.675 Y52.949 E15.3844
G1 X116.673 Y49.786 E15.43905
G1 X118.145 Y48.839 E15.461
G1 X122.299 Y47.677 E15.5151
G1 X124.012 Y47.553 E15.53663
G1 X128.416 Y48.787 E15.59399
G1 X129.972 Y49.664 E15.61639
G1 X132.98 Y52.853 E15.67136
G1 X133.27 Y53.342 E15.67849
G1 X135.131 Y52.822 E15.70272
G1 X136.844 Y52.698 E15.72426
G1 X140.043 Y53.596 E15.76593
G1 X141.505 Y54.466 E15.78726
G1 X143.473 Y56.545 E15.82316
G1 X144.37 Y58.426 E15.8493
G1 X144.341 Y60.736 E15.87827
G1 X143.845 Y62.345 E15.89938
G1 X143.484 Y62.864 E15.90731
G1 X144.527 Y63.937 E15.92607
G1 X145.285 Y66.259 E15.95671
G1 X145.285 Y70.744 E16.01295
G1 X144.98 Y72.147 E16.03095
G1 X144.19 Y73.442 E16.04998
G1 X143.581 Y74.032 E16.06061
G1 X144.068 Y74.811 E16.07213
G1 X144.581 Y76.392 E16.09297
G1 X144.552 Y78 E16.11314
G1 X143.723 Y80.952 E16.15159
G1 X142.919 Y82.425 E16.17264
G1 X140.581 Y84.763 E16.2141
G1 X138.938 Y85.83 E16.23867
G1 X136.631 Y86.189 E16.26795
G1 X135.285 Y85.961 E16.28507
G1 X135.285 Y132.616 E16.87014
G1 X136.578 Y132.322 E16.88677
G1 X139.09 Y132.81 E16.91886
G1 X140.694 Y133.919 E16.94331
G1 X143.052 Y136.405 E16.98628
G1 X143.628 Y137.378 E17.00046
G1 X144.609 Y140.757 E17.04458
G1 X144.673 Y142.565 E17.06727
G1 X143.723 Y145.952 E17.11139
G1 X142.919 Y147.425 E17.13243
G1 X140.581 Y149.763 E17.17389
G1 X138.938 Y150.83 E17.19846
G1 X136.631 Y151.189 E17.22774
G1 X135.285 Y150.961 E17.24486
G1 X135.285 Y151.744 E17.25468
G1 X134.98 Y153.147 E17.27268
G1 X134.19 Y154.442 E17.29171
G1 X132.549 Y156.034 E17.32038
G1 X130.232 Y156.785 E17.35092
G1 X118.386 Y156.785 E17.49948
G1 X118.671 Y157.776 E17.51241
G1 X118.735 Y159.559 E17.53478
G1 X117.546 Y163.796 E17.58997
G1 X116.741 Y165.271 E17.61104
G1 X113.737 Y168.275 E17.66431
G1 X112.276 Y169.176 E17.68584
G1 X108.084 Y170.354 E17.74045
G1 X106.265 Y170.402 E17.76326
G1 X102.115 Y169.186 E17.81749
G1 X100.63 Y168.308 E17.83913
G1 X97.578 Y165.256 E17.89326
G1 X96.701 Y163.772 E17.91487
G1 X95.536 Y159.796 E17.96683
G1 X95.485 Y157.943 E17.99008
G1 X96.285 Y155.212 E18.02576
G1 X97.079 Y153.923 E18.04475
G1 X98.188 Y153.183 E18.06147
G1 X97.715 Y151.723 E18.08071
G1 X97.715 Y150.327 E18.09822
G1 X96.969 Y150.537 E18.10794
G1 X94.584 Y150.389 E18.1379
G1 X94.403 Y150.333 E18.14028
G1 X92.68 Y149.3 E18.16547
G1 X90.186 Y146.806 E18.2097
G1 X89.305 Y145.313 E18.23144
G1 X88.38 Y142.163 E18.27261
G1 X88.329 Y140.308 E18.29588
G1 X89.359 Y136.784 E18.34192
G1 X89.869 Y135.842 E18.35536
G1 X92.323 Y133.248 E18.40014
G1 X93.987 Y132.114 E18.42539
G1 X96.345 Y131.736 E18.45534
G1 X97.715 Y131.966 E18.47276
G1 X97.715 Y85.327 E19.05763
G1 X96.969 Y85.537 E19.06735
G1 X94.584 Y85.389 E19.09731
G1 X94.403 Y85.333 E19.09969
G1 X92.68 Y84.3 E19.12488
G1 X90.174 Y81.794 E19.16933
G1 X89.308 Y80.32 E19.19076
G1 X88.642 Y78.049 E19.22044
G1 X88.579 Y76.1 E19.2449
G1 X89.486 Y74.1 E19.27244
G1 X88.596 Y73.183 E19.28846
G1 X88.427 Y72.842 E19.29323
G1 X86.697 Y73.329 E19.31577
G1 X84.878 Y73.377 E19.33859
G1 X80.728 Y72.161 E19.39282
G1 X79.243 Y71.283 E19.41446
G1 X76.191 Y68.231 E19.46858
G1 X75.314 Y66.747 E19.4902
G1 X74.149 Y62.771 E19.54216
G1 X74.098 Y60.919 E19.56539
G1 X75.292 Y56.836 E19.61874
G1 X76.026 Y55.48 E19.63807
G0 F15000 X76.353 Y55.716
G1 F1350 X79.281 Y52.626 E19.69145
G1 X80.66 Y51.739 E19.71202
G1 X84.718 Y50.604 E19.76486
G1 X86.323 Y50.488 E19.78504
G1 X90.613 Y51.69 E19.84091
G1 X92.074 Y52.514 E19.86194
G1 X93.25 Y53.761 E19.88344
G1 X95.273 Y53.188 E19.9098
G1 X96.953 Y53.141 E19.93088
G1 X99.881 Y53.966 E19.96903
G1 X101.254 Y54.783 E19.98906
G1 X103.138 Y56.773 E20.02343
G1 X103.968 Y58.514 E20.04762
G1 X103.941 Y60.674 E20.07471
G1 X103.651 Y61.615 E20.08705
G1 X112.628 Y61.615 E20.19963
G1 X112.173 Y60.095 E20.21953
G1 X112.169 Y58.386 E20.24096
G1 X113.313 Y54.458 E20.29226
G1 X114.002 Y53.185 E20.31041
G1 X116.93 Y50.095 E20.3638
G1 X118.309 Y49.208 E20.38436
