;START_OF_HEADER
;HEADER_VERSION:0.1
;FLAVOR:Griffin
;GENERATOR.NAME:Cura_SteamEngine
;GENERATOR.VERSION:5.6.0
;GENERATOR.BUILD_DATE:2023-11-28
;TARGET_MACHINE.NAME:Ultimaker 3 Extended
;EXTRUDER_TRAIN.0.INITIAL_TEMPERATURE:200
;EXTRUDER_TRAIN.0.MATERIAL.VOLUME_USED:54110
;EXTRUDER_TRAIN.0.MATERIAL.GUID:506c9f0d-e3aa-4bd4-b2d2-23e2425b1aa9
;EXTRUDER_TRAIN.0.NOZZLE.DIAMETER:0.4
;EXTRUDER_TRAIN.0.NOZZLE.NAME:AA 0.4
;BUILD_PLATE.INITIAL_TEMPERATURE:60
;PRINT.TIME:31186
;PRINT.GROUPS:1
;PRINT.SIZE.MIN.X:3.759
;PRINT.SIZE.MIN.Y:6
;PRINT.SIZE.MIN.Z:0.2
;PRINT.SIZE.MAX.X:216.729
;PRINT.SIZE.MAX.Y:163.171
;PRINT.SIZE.MAX.Z:5.95
;SLICE_UUID:bbf8aaac-5740-4ea7-b9a4-935c770878e9
;END_OF_HEADER
;Generated with Cura_SteamEngine 5.6.0
T0
M82 ;absolute extrusion mode

G92 E0
M190 S60
M109 S200
G0 F15000 X9 Y6 Z2
G280
G1 F1500 E-6.5
;LAYER_COUNT:26
;LAYER:0
M106 S255
M204 S1000
M205 X20 Y20
G1 F600 Z2.2
G0 F15000 X214.847 Y160.9 Z2.2
;TYPE:SKIRT
G1 F600 Z0.2
G1 F1500 E0
G1 F1350 X215.373 Y160.39 E0.00919
G1 X216.355 Y158.78 E0.03284
G1 X216.729 Y157.062 E0.05489
G1 X216.729 Y41.256 E1.50714
G1 X215.824 Y38.484 E1.5437
G1 X213.459 Y36.049 E1.58627
G1 X210.965 Y35.201 E1.61931
G1 X9.814 Y35.201 E4.14181
G1 X7.042 Y36.106 E4.17838
G1 X4.607 Y38.471 E4.22095
G1 X3.759 Y40.965 E4.25398
G1 X3.759 Y157.11 E5.71049
G1 X4.654 Y159.871 E5.74688
G1 X6.54 Y161.815 E5.78085
G1 X8.15 Y162.797 E5.8045
G1 X9.868 Y163.171 E5.82655
G1 X209.3 Y163.171 E8.3275
G1 F1500 E1.8275
G0 F15000 X214.273 Y160.9
G1 F1500 E8.3275
G1 F1350 X215.06 Y160.136 E8.34125
G1 X215.978 Y158.631 E8.36336
G1 X216.329 Y157.018 E8.38406
G1 X216.329 Y41.319 E9.83497
G1 X215.473 Y38.697 E9.86956
G1 X213.239 Y36.397 E9.90977
G1 X210.898 Y35.601 E9.94077
G1 X9.877 Y35.601 E12.46165
G1 X7.255 Y36.457 E12.49624
G1 X4.955 Y38.691 E12.53645
G1 X4.159 Y41.032 E12.56746
G1 X4.159 Y157.046 E14.02232
G1 X5.006 Y159.659 E14.05676
G1 X6.794 Y161.502 E14.08896
G1 X8.299 Y162.42 E14.11107
G1 X9.912 Y162.771 E14.13177
G1 X209.3 Y162.771 E16.63217
G1 F1500 E10.13217
G0 F15000 X213.698 Y160.9
G1 F1500 E16.63217
G1 F1350 X214.747 Y159.882 E16.6505
G1 X215.601 Y158.482 E16.67107
G1 X215.929 Y156.974 E16.69042
G1 X215.929 Y41.382 E18.13999
G1 X215.122 Y38.91 E18.1726
G1 X213.019 Y36.745 E18.21045
G1 X210.831 Y36.001 E18.23943
G1 X9.94 Y36.001 E20.75868
G1 X7.468 Y36.808 E20.79129
G1 X5.303 Y38.911 E20.82914
G1 X4.559 Y41.099 E20.85812
G1 X4.559 Y156.982 E22.31133
G1 X5.358 Y159.447 E22.34383
G1 X7.048 Y161.189 E22.37427
G1 X8.448 Y162.043 E22.39483
G1 X9.956 Y162.371 E22.41418
G1 X209.3 Y162.371 E24.91403
G1 F1500 E18.41403
G0 F15000 X213.123 Y160.9
G1 F1500 E24.91403
G1 F1350 X214.434 Y159.628 E24.93694
G1 X215.224 Y158.333 E24.95596
G1 X215.529 Y156.93 E24.97397
G1 X215.529 Y41.445 E26.42219
G1 X214.771 Y39.123 E26.45282
G1 X212.799 Y37.093 E26.48831
G1 X210.764 Y36.401 E26.51527
G1 X10.003 Y36.401 E29.03289
G1 X7.681 Y37.159 E29.06352
G1 X5.651 Y39.131 E29.09901
G1 X4.959 Y41.166 E29.12596
G1 X4.959 Y156.918 E30.57754
G1 X5.71 Y159.235 E30.60808
G1 X7.302 Y160.876 E30.63675
G1 X8.597 Y161.666 E30.65577
G1 X10 Y161.971 E30.67378
G1 X209.3 Y161.971 E33.17307
G1 F1500 E26.67307
G0 F15000 X212.482 Y160.9
G1 F1500 E33.17307
G1 F1350 X212.581 Y160.868 E33.17438
G1 X214.121 Y159.374 E33.20129
G1 X214.847 Y158.184 E33.21877
G1 X215.129 Y156.886 E33.23542
G1 X215.129 Y41.508 E34.68231
G1 X214.42 Y39.336 E34.71096
G1 X212.579 Y37.441 E34.74409
G1 X210.697 Y36.801 E34.76902
G1 X10.066 Y36.801 E37.28501
G1 X7.894 Y37.51 E37.31366
G1 X5.999 Y39.351 E37.34679
G1 X5.359 Y41.233 E37.37172
G1 X5.359 Y156.854 E38.82165
G1 X6.062 Y159.023 E38.85024
G1 X7.556 Y160.563 E38.87715
G1 X8.746 Y161.289 E38.89463
G1 X10.044 Y161.571 E38.91129
G1 X209.3 Y161.571 E41.41003
G1 F1500 E34.91003
G0 F15000 X211.184 Y160.9
G1 F1500 E41.41003
G1 F1350 X212.369 Y160.516 E41.42565
G1 X213.808 Y159.12 E41.45079
G1 X214.47 Y158.035 E41.46673
G1 X214.729 Y156.842 E41.48204
G1 X214.729 Y41.571 E42.92758
G1 X214.069 Y39.549 E42.95426
G1 X212.359 Y37.789 E42.98503
G1 X210.63 Y37.201 E43.00793
G1 X10.129 Y37.201 E45.52229
G1 X8.107 Y37.861 E45.54896
G1 X6.347 Y39.571 E45.57974
G1 X5.759 Y41.3 E45.60264
G1 X5.759 Y156.79 E47.05092
G1 X6.414 Y158.811 E47.07757
G1 X7.81 Y160.25 E47.10271
G1 X8.895 Y160.912 E47.11865
G1 X10.088 Y161.171 E47.13396
G1 X209.3 Y161.171 E49.63215
G1 F1500 E43.13215
G0 F15000 X7.731 Y159.199
G0 X7.731 Y39.173
G0 X10.192 Y37.601
G1 F1500 E49.63215
G1 F1350 X210.563 Y37.601 E52.14488
G1 X212.139 Y38.137 E52.16575
G1 X213.718 Y39.762 E52.19416
G1 X214.329 Y41.634 E52.21886
G1 X214.329 Y156.798 E53.66306
G1 X214.093 Y157.886 E53.67702
G1 X213.495 Y158.866 E53.69142
G1 X212.157 Y160.164 E53.71479
G1 X210.284 Y160.771 E53.73948
G1 X10.132 Y160.771 E56.24946
G1 X9.044 Y160.535 E56.26343
G1 X8.064 Y159.937 E56.27782
G1 X6.766 Y158.599 E56.3012
G1 X6.159 Y156.726 E56.32589
G1 X6.159 Y41.367 E57.77254
G1 X6.695 Y39.791 E57.79341
G1 X8.32 Y38.212 E57.82182
G1 X10.192 Y37.601 E57.84652
G0 F15000 X10.255 Y38.001
G1 F1350 X210.496 Y38.001 E60.35762
G1 X211.919 Y38.485 E60.37646
G1 X213.367 Y39.975 E60.40252
G1 X213.929 Y41.697 E60.42524
G1 X213.929 Y156.754 E61.86809
G1 X213.716 Y157.735 E61.88068
G1 X213.18 Y158.614 E61.89359
G1 X211.944 Y159.813 E61.91519
G1 X210.223 Y160.371 E61.93787
G1 X10.176 Y160.371 E64.44654
G1 X9.195 Y160.158 E64.45913
G1 X8.316 Y159.622 E64.47204
G1 X7.117 Y158.386 E64.49363
G1 X6.559 Y156.665 E64.51632
G1 X6.559 Y41.434 E65.96136
G1 X7.043 Y40.011 E65.98021
G1 X8.533 Y38.563 E66.00626
G1 X10.255 Y38.001 E66.02898
G0 F15000 X10.318 Y38.401
G1 F1350 X210.429 Y38.401 E68.53845
G1 X211.699 Y38.833 E68.55527
G1 X213.016 Y40.188 E68.57896
G1 X213.529 Y41.76 E68.5997
G1 X213.529 Y156.71 E70.04122
G1 X213.339 Y157.584 E70.05243
G1 X212.865 Y158.362 E70.06386
G1 X211.731 Y159.462 E70.08367
G1 X210.162 Y159.971 E70.10435
G1 X10.22 Y159.971 E72.6117
G1 X9.346 Y159.781 E72.62292
G1 X8.568 Y159.307 E72.63434
G1 X7.468 Y158.173 E72.65415
G1 X6.959 Y156.604 E72.67484
G1 X6.959 Y41.501 E74.11827
G1 X7.391 Y40.231 E74.1351
G1 X8.746 Y38.914 E74.15879
G1 X10.318 Y38.401 E74.17953
G0 F15000 X10.381 Y38.801
G1 F1350 X210.362 Y38.801 E76.68736
G1 X211.479 Y39.181 E76.70216
G1 X212.665 Y40.401 E76.7235
G1 X213.129 Y41.823 E76.74226
G1 X213.129 Y156.666 E78.18243
G1 X212.962 Y157.433 E78.19227
G1 X212.548 Y158.113 E78.20226
G1 X211.519 Y159.111 E78.22023
G1 X210.101 Y159.571 E78.23893
G1 X10.264 Y159.571 E80.74496
G1 X9.497 Y159.404 E80.7548
G1 X8.817 Y158.99 E80.76478
G1 X7.819 Y157.961 E80.78276
G1 X7.359 Y156.543 E80.80146
G1 X7.359 Y41.568 E82.24328
G1 X7.739 Y40.451 E82.25808
G1 X8.959 Y39.265 E82.27942
G1 X10.381 Y38.801 E82.29818
G0 F15000 X10.444 Y39.201
G1 F1350 X210.295 Y39.201 E84.80438
G1 X211.259 Y39.529 E84.81715
G1 X212.314 Y40.614 E84.83613
G1 X212.729 Y41.886 E84.85291
G1 X212.729 Y156.622 E86.29174
G1 X212.585 Y157.282 E86.30021
G1 X212.231 Y157.864 E86.30875
G1 X211.307 Y158.76 E86.32489
G1 X210.04 Y159.171 E86.3416
G1 X10.308 Y159.171 E88.84631
G1 X9.648 Y159.027 E88.85478
G1 X9.066 Y158.673 E88.86333
G1 X8.17 Y157.749 E88.87947
G1 X7.759 Y156.482 E88.89617
G1 X7.759 Y41.635 E90.33639
G1 X8.087 Y40.671 E90.34916
G1 X9.172 Y39.616 E90.36814
G1 X10.444 Y39.201 E90.38492
G0 F15000 X10.507 Y39.601
G1 F1350 X210.228 Y39.601 E92.8895
G1 X211.039 Y39.877 E92.90024
G1 X211.963 Y40.827 E92.91686
G1 X212.329 Y41.949 E92.93166
G1 X212.329 Y156.578 E94.36915
G1 X212.208 Y157.131 E94.37625
G1 X211.914 Y157.615 E94.38335
G1 X211.095 Y158.409 E94.39765
G1 X209.979 Y158.771 E94.41237
G1 X10.352 Y158.771 E96.91576
G1 X9.799 Y158.65 E96.92286
G1 X9.315 Y158.356 E96.92996
G1 X8.521 Y157.537 E96.94427
G1 X8.159 Y156.421 E96.95898
G1 X8.159 Y41.702 E98.3976
G1 X8.435 Y40.891 E98.40834
G1 X9.385 Y39.967 E98.42496
G1 X10.507 Y39.601 E98.43976
G0 F15000 X10.57 Y40.001
G1 F1350 X210.161 Y40.001 E100.94271
G1 X210.819 Y40.225 E100.95142
G1 X211.612 Y41.04 E100.96568
G1 X211.929 Y42.012 E100.9785
G1 X211.929 Y156.578 E102.4152
G1 X211.819 Y157.038 E102.42114
G1 X211.636 Y157.328 E102.42544
G1 X210.884 Y158.057 E102.43857
G1 X209.917 Y158.371 E102.45132
G1 X10.352 Y158.371 E104.95394
G1 X9.892 Y158.261 E104.95987
G1 X9.602 Y158.078 E104.96417
G1 X8.873 Y157.326 E104.9773
G1 X8.559 Y156.359 E104.99005
G1 X8.559 Y41.769 E106.42706
G1 X8.783 Y41.111 E106.43577
G1 X9.598 Y40.318 E106.45003
G1 X10.57 Y40.001 E106.46285
G0 F15000 X10.633 Y40.401
G1 F1350 X210.094 Y40.401 E108.96417
G1 X210.599 Y40.573 E108.97086
G1 X211.261 Y41.253 E108.98276
G1 X211.529 Y42.075 E108.9936
G1 X211.529 Y156.538 E110.42901
G1 X211.47 Y156.842 E110.43289
G1 X211.358 Y157.041 E110.43576
G1 X210.673 Y157.705 E110.44772
G1 X209.855 Y157.971 E110.45851
G1 X10.392 Y157.971 E112.95985
G1 X10.088 Y157.912 E112.96373
G1 X9.889 Y157.8 E112.96659
G1 X9.225 Y157.115 E112.97856
G1 X8.959 Y156.297 E112.98935
G1 X8.959 Y41.836 E114.42473
G1 X9.131 Y41.331 E114.43142
G1 X9.811 Y40.669 E114.44332
G1 X10.633 Y40.401 E114.45416
G0 F15000 X10.696 Y40.801
G1 F1350 X210.094 Y40.801 E116.95469
G1 X210.312 Y40.852 E116.95749
G1 X210.91 Y41.466 E116.96824
G1 X211.129 Y42.138 E116.97711
G1 X211.129 Y156.538 E118.41172
G1 X211.08 Y156.754 E118.4145
G1 X210.462 Y157.353 E118.4253
G1 X209.792 Y157.571 E118.43413
G1 X10.392 Y157.571 E120.93468
G1 X10.176 Y157.522 E120.93746
G1 X9.577 Y156.904 E120.94825
G1 X9.359 Y156.234 E120.95709
G1 X9.359 Y41.836 E122.39168
G1 X9.41 Y41.618 E122.39449
G1 X10.024 Y41.02 E122.40524
G1 X10.696 Y40.801 E122.4141
G0 F15000 X10.759 Y41.201
G1 F1350 X210.094 Y41.201 E124.91383
G1 X210.559 Y41.679 E124.9222
G1 X210.729 Y42.201 E124.92908
G1 X210.729 Y156.538 E126.36291
G1 X210.251 Y157.001 E126.37126
G1 X209.729 Y157.171 E126.37814
G1 X10.392 Y157.171 E128.8779
G1 X9.929 Y156.693 E128.88624
G1 X9.759 Y156.171 E128.89313
G1 X9.759 Y41.836 E130.32693
G1 X10.237 Y41.371 E130.3353
G1 X10.759 Y41.201 E130.34218
G0 F15000 X10.759 Y42.001
G1 F1350 X209.828 Y42.001 E132.83858
G1 X209.929 Y42.201 E132.84139
G1 X209.929 Y156.27 E134.27186
G1 X209.729 Y156.371 E134.27467
G1 X10.66 Y156.371 E136.77107
G1 X10.559 Y156.171 E136.77387
G1 X10.559 Y42.102 E138.20434
G1 X10.759 Y42.001 E138.20715
G0 F15000 X10.759 Y41.601
G1 F1350 X209.96 Y41.601 E140.70521
G1 X210.185 Y41.821 E140.70915
G1 X210.329 Y42.201 E140.71425
G1 X210.329 Y156.403 E142.14638
G1 X210.109 Y156.627 E142.15032
G1 X209.729 Y156.771 E142.15542
G1 X10.527 Y156.771 E144.65348
G1 X10.303 Y156.551 E144.65742
G1 X10.159 Y156.171 E144.66252
G1 X10.159 Y41.97 E146.09464
G1 X10.379 Y41.745 E146.09859
G1 X10.759 Y41.601 E146.10368
M204 S429
G1 F1500 E139.60368
G1 F600 Z2.2
;MESH:RollerPlateXAxis.stl(1)
G0 F15000 X71.417 Y57.172 Z2.2
;TYPE:WALL-OUTER
G1 F600 Z0.2
G1 F1500 E146.10368
G1 F1350 X70.089 Y57.392 E146.12225
G1 X68.756 Y57.323 E146.14066
G1 X67.437 Y56.959 E146.15954
G1 X66.275 Y56.342 E146.17769
G1 X65.227 Y55.456 E146.19662
G1 X64.425 Y54.401 E146.2149
G1 X63.858 Y53.183 E146.23343
G1 X63.564 Y51.853 E146.25222
G1 X63.568 Y50.49 E146.27102
G1 X63.862 Y49.18 E146.28954
G1 X64.432 Y47.961 E146.30811
G1 X65.242 Y46.902 E146.3265
G1 X66.279 Y46.028 E146.34521
G1 X67.457 Y45.407 E146.36358
G1 X68.741 Y45.051 E146.38196
G1 X70.103 Y44.982 E146.40077
G1 X71.43 Y45.204 E146.41933
G1 X72.674 Y45.706 E146.43783
G1 X73.787 Y46.466 E146.45642
G1 X74.707 Y47.444 E146.47494
G1 X75.375 Y48.553 E146.4928
G1 X75.844 Y49.93 E146.51287
G1 X75.827 Y49.949 E146.51322
G1 X75.959 Y51.182 E146.53033
G1 X75.826 Y52.425 E146.54757
G1 X75.844 Y52.443 E146.54792
G1 X75.391 Y53.784 E146.56745
G1 X74.696 Y54.944 E146.5861
G1 X73.774 Y55.918 E146.6046
G1 X72.65 Y56.679 E146.62333
G1 X71.417 Y57.172 E146.64164
G0 F15000 X71.22 Y57.204
G1 F1500 E140.14164
G0 F15000 X71.268 Y57.502
G0 X70.103 Y57.916
G0 X67.985 Y65.025
G0 X67.275 Y69.078
G1 F1500 E146.64164
G1 F1350 X66.764 Y69.151 E146.64877
G1 X66.231 Y69.086 E146.65617
G1 X65.74 Y68.875 E146.66354
G1 X65.366 Y68.587 E146.67006
G1 X65.042 Y68.171 E146.67733
G1 X64.845 Y67.698 E146.6844
G1 X64.779 Y67.171 E146.69172
G1 X64.846 Y66.671 E146.69868
G1 X65.045 Y66.197 E146.70577
G1 X65.343 Y65.808 E146.71253
G1 X65.761 Y65.483 E146.71984
G1 X66.242 Y65.285 E146.72701
G1 X66.729 Y65.221 E146.73379
G1 X67.231 Y65.282 E146.74076
G1 X67.74 Y65.491 E146.74835
G1 X68.146 Y65.809 E146.75547
G1 X68.447 Y66.202 E146.7623
G1 X68.642 Y66.673 E146.76933
G1 X68.709 Y67.164 E146.77616
G1 X68.645 Y67.695 E146.78354
G1 X68.449 Y68.168 E146.79061
G1 X68.151 Y68.558 E146.79738
G1 X67.721 Y68.891 E146.80488
G1 X67.275 Y69.078 E146.81155
G0 F15000 X67.077 Y69.106
G1 F1500 E140.31155
G1 F600 Z2.2
G0 F15000 X80.268 Y69.08 Z2.2
G1 F600 Z0.2
G1 F1500 E146.81155
G1 F1350 X79.768 Y69.151 E146.81852
G1 X79.237 Y69.085 E146.8259
G1 X78.762 Y68.888 E146.83299
G1 X78.365 Y68.586 E146.83987
G1 X78.04 Y68.168 E146.84718
G1 X77.845 Y67.695 E146.85423
G1 X77.779 Y67.172 E146.8615
G1 X77.853 Y66.652 E146.86875
G1 X78.042 Y66.202 E146.87548
G1 X78.355 Y65.795 E146.88256
G1 X78.745 Y65.493 E146.88937
G1 X79.221 Y65.29 E146.89651
G1 X79.751 Y65.221 E146.90388
G1 X80.267 Y65.29 E146.91106
G1 X80.72 Y65.479 E146.91783
G1 X81.117 Y65.779 E146.9247
G1 X81.443 Y66.196 E146.932
G1 X81.641 Y66.666 E146.93903
G1 X81.709 Y67.176 E146.94613
G1 X81.646 Y67.69 E146.95327
G1 X81.433 Y68.191 E146.96078
G1 X81.133 Y68.577 E146.96753
G1 X80.717 Y68.893 E146.97473
G1 X80.268 Y69.08 E146.98144
G0 F15000 X80.07 Y69.108
G1 F1500 E140.48144
G1 F600 Z2.2
G0 F15000 X72.056 Y88.957 Z2.2
G1 F600 Z0.2
G1 F1500 E146.98144
G1 F1350 X70.745 Y89.321 E147.00021
G1 X69.407 Y89.392 E147.01869
G1 X68.092 Y89.177 E147.03708
G1 X66.844 Y88.682 E147.0556
G1 X65.725 Y87.927 E147.07422
G1 X64.789 Y86.94 E147.09298
G1 X64.103 Y85.797 E147.11137
G1 X63.65 Y84.441 E147.13109
G1 X63.662 Y84.428 E147.13133
G1 X63.529 Y83.208 E147.14826
G1 X63.662 Y81.944 E147.1658
G1 X63.645 Y81.927 E147.16613
G1 X64.111 Y80.559 E147.18606
G1 X64.795 Y79.425 E147.20433
G1 X65.716 Y78.452 E147.22281
G1 X66.838 Y77.692 E147.24151
G1 X68.101 Y77.192 E147.26024
G1 X69.392 Y76.981 E147.27829
G1 X70.747 Y77.051 E147.297
G1 X72.042 Y77.41 E147.31554
G1 X73.227 Y78.038 E147.33404
G1 X74.254 Y78.909 E147.35262
G1 X75.06 Y79.966 E147.37095
G1 X75.636 Y81.206 E147.38981
G1 X75.922 Y82.5 E147.4081
G1 X75.92 Y83.881 E147.42715
G1 X75.633 Y85.175 E147.44543
G1 X75.07 Y86.389 E147.46389
G1 X74.256 Y87.461 E147.48246
G1 X73.236 Y88.327 E147.50091
G1 X72.056 Y88.957 E147.51937
G0 F15000 X71.864 Y89.01
G1 F1500 E141.01937
G1 F600 Z2.2
G0 F15000 X72.65 Y120.679 Z2.2
G1 F600 Z0.2
G1 F1500 E147.51937
G1 F1350 X71.417 Y121.172 E147.53768
G1 X70.089 Y121.392 E147.55625
G1 X68.756 Y121.323 E147.57466
G1 X67.437 Y120.959 E147.59354
G1 X66.275 Y120.342 E147.61169
G1 X65.231 Y119.46 E147.63054
G1 X64.428 Y118.405 E147.64883
G1 X63.859 Y117.186 E147.66739
G1 X63.568 Y115.881 E147.68583
G1 X63.565 Y114.506 E147.7048
G1 X63.853 Y113.203 E147.72321
G1 X64.417 Y111.983 E147.74175
G1 X65.234 Y110.909 E147.76036
G1 X66.253 Y110.044 E147.7788
G1 X67.426 Y109.418 E147.79714
G1 X68.743 Y109.051 E147.816
G1 X70.081 Y108.98 E147.83448
G1 X71.409 Y109.197 E147.85304
G1 X72.655 Y109.695 E147.87155
G1 X73.764 Y110.445 E147.89002
G1 X74.691 Y111.421 E147.90859
G1 X75.385 Y112.572 E147.92713
G1 X75.838 Y113.93 E147.94688
G1 X75.826 Y113.943 E147.94712
G1 X75.959 Y115.198 E147.96453
G1 X75.826 Y116.426 E147.98157
G1 X75.838 Y116.439 E147.98181
G1 X75.391 Y117.784 E148.00137
G1 X74.696 Y118.944 E148.02002
G1 X73.774 Y119.918 E148.03852
G1 X72.65 Y120.679 E148.05724
G0 F15000 X72.465 Y120.753
G1 F1500 E141.55724
G1 F600 Z2.2
G0 F15000 X67.741 Y132.879 Z2.2
G1 F600 Z0.2
G1 F1500 E148.05724
G1 F1350 X67.231 Y133.089 E148.06485
G1 X66.768 Y133.151 E148.0713
G1 X66.242 Y133.086 E148.07861
G1 X65.761 Y132.888 E148.08578
G1 X65.368 Y132.589 E148.09259
G1 X65.035 Y132.159 E148.1001
G1 X64.843 Y131.691 E148.10707
G1 X64.779 Y131.174 E148.11426
G1 X64.841 Y130.692 E148.12096
G1 X65.037 Y130.213 E148.1281
G1 X65.34 Y129.811 E148.13505
G1 X65.761 Y129.483 E148.14241
G1 X66.242 Y129.285 E148.14959
