;FLAVOR:UltiGCode
;TIME:13467
;MATERIAL:12277
;MATERIAL2:0
;NOZZLE_DIAMETER:0.4
;MINX:36.633
;MINY:36.292
;MINZ:0.27
;MAXX:187.043
;MAXY:186.708
;MAXZ:1.97
;TARGET_MACHINE.NAME:Ultimaker 2+
;Generated with Cura_SteamEngine 5.6.0
M82 ;absolute extrusion mode
G0 F3000 Y50 ;avoid prime blob
G92 E0
G92 E0
G10
;LAYER_COUNT:18
;LAYER:0
M107
G0 F7200 X58.048 Y58.937 Z0.27
;TYPE:SKIRT
G11
G1 F1800 X59.883 Y57.132 E0.27799
G1 X61.74 Y55.404 E0.55194
G1 X63.585 Y53.81 E0.81527
G1 X65.624 Y52.173 E1.09767
G1 X67.629 Y50.663 E1.36875
G1 X69.72 Y49.194 E1.64474
G1 X71.831 Y47.819 E1.91682
G1 X74.005 Y46.504 E2.19123
G1 X76.195 Y45.28 E2.46218
G1 X78.441 Y44.117 E2.73534
G1 X80.731 Y43.025 E3.00934
G1 X83.041 Y42.023 E3.28128
G1 X85.399 Y41.09 E3.55515
G1 X87.772 Y40.247 E3.82713
G1 X90.193 Y39.475 E4.10157
G1 X92.617 Y38.796 E4.37344
G1 X95.051 Y38.193 E4.64425
G1 X97.539 Y37.662 E4.91901
G1 X100.02 Y37.225 E5.19108
G1 X102.54 Y36.863 E5.46604
G1 X105.038 Y36.598 E5.73733
G1 X107.57 Y36.407 E6.01157
G1 X110.088 Y36.311 E6.28371
G1 X112.627 Y36.292 E6.55793
G1 X115.14 Y36.369 E6.82946
G1 X117.64 Y36.522 E7.09997
G1 X120.186 Y36.75 E7.37603
G1 X122.665 Y37.074 E7.64604
G1 X125.175 Y37.476 E7.92058
G1 X127.665 Y37.965 E8.19463
G1 X129.969 Y38.503 E8.45016
G1 X132.56 Y39.199 E8.73991
G1 X134.972 Y39.938 E9.01236
G1 X137.35 Y40.755 E9.28392
G1 X139.725 Y41.652 E9.5581
G1 X142.065 Y42.633 E9.83213
G1 X144.345 Y43.68 E10.10309
G1 X146.618 Y44.817 E10.37758
G1 X148.83 Y46.019 E10.64946
G1 X151 Y47.29 E10.92107
G1 X153.102 Y48.614 E11.18936
G1 X155.236 Y50.071 E11.46843
G1 X157.284 Y51.569 E11.74247
G1 X159.259 Y53.122 E12.01381
G1 X161.192 Y54.743 E12.28626
G1 X163.073 Y56.43 E12.55915
G1 X164.814 Y58.102 E12.81984
G1 X166.648 Y59.996 E13.10458
G1 X168.364 Y61.879 E13.37972
G1 X169.99 Y63.798 E13.65137
G1 X171.554 Y65.784 E13.92438
G1 X173.06 Y67.816 E14.19754
G1 X174.476 Y69.874 E14.46733
G1 X175.866 Y72.037 E14.74501
G1 X177.14 Y74.193 E15.01547
G1 X178.37 Y76.424 E15.29061
G1 X179.494 Y78.657 E15.56061
G1 X180.569 Y80.957 E15.8348
G1 X181.555 Y83.279 E16.10725
G1 X182.472 Y85.648 E16.3816
G1 X183.296 Y88.025 E16.6533
G1 X184.049 Y90.453 E16.92785
G1 X184.708 Y92.877 E17.19914
G1 X185.296 Y95.351 E17.47378
G1 X185.788 Y97.814 E17.74504
G1 X186.206 Y100.295 E18.01676
G1 X186.548 Y102.811 E18.29099
G1 X186.796 Y105.316 E18.56285
G1 X186.967 Y107.848 E18.83693
G1 X187.043 Y110.111 E19.08147
G1 X187.043 Y112.908 E19.38355
G1 X186.948 Y115.421 E19.65514
G1 X186.776 Y117.953 E19.92923
G1 X186.51 Y120.463 E20.20183
G1 X186.171 Y122.946 E20.47248
G1 X185.75 Y125.46 E20.74777
G1 X185.237 Y127.918 E21.01896
G1 X184.644 Y130.388 E21.2933
G1 X183.968 Y132.824 E21.56633
G1 X183.219 Y135.199 E21.83528
G1 X182.375 Y137.598 E22.10994
G1 X181.453 Y139.979 E22.38569
G1 X180.472 Y142.26 E22.65386
G1 X179.381 Y144.584 E22.93113
G1 X178.243 Y146.82 E23.2021
G1 X177.068 Y148.956 E23.46538
G1 X175.745 Y151.163 E23.74329
G1 X174.335 Y153.338 E24.02323
G1 X172.905 Y155.395 E24.29379
G1 X171.397 Y157.433 E24.5676
G1 X169.822 Y159.402 E24.83991
G1 X168.178 Y161.332 E25.11372
G1 X166.513 Y163.154 E25.38029
G1 X164.7 Y165 E25.65973
G1 X162.875 Y166.743 E25.93228
G1 X160.986 Y168.43 E26.2058
G1 X159.053 Y170.043 E26.4777
G1 X157.087 Y171.58 E26.74722
G1 X155.011 Y173.083 E27.02402
G1 X152.952 Y174.473 E27.29232
G1 X150.787 Y175.838 E27.56873
G1 X148.594 Y177.115 E27.8428
G1 X146.372 Y178.31 E28.11528
G1 X144.097 Y179.438 E28.38953
G1 X141.806 Y180.476 E28.66117
G1 X139.476 Y181.444 E28.93366
G1 X137.104 Y182.341 E29.20754
G1 X134.721 Y183.148 E29.47926
G1 X132.288 Y183.882 E29.75372
G1 X129.856 Y184.524 E30.02538
G1 X127.374 Y185.093 E30.30039
G1 X124.904 Y185.566 E30.57199
G1 X122.398 Y185.965 E30.84605
G1 X119.905 Y186.269 E31.11729
G1 X117.398 Y186.498 E31.38917
G1 X114.861 Y186.65 E31.66366
G1 X112.35 Y186.708 E31.93492
G1 X109.803 Y186.689 E32.21
G1 X107.298 Y186.573 E32.48083
G1 X104.754 Y186.378 E32.75639
G1 X102.26 Y186.098 E33.02744
G1 X99.745 Y185.731 E33.30193
G1 X97.274 Y185.28 E33.57321
G1 X94.804 Y184.75 E33.84604
G1 X92.345 Y184.142 E34.11961
G1 X89.919 Y183.446 E34.39219
G1 X87.574 Y182.688 E34.65835
G1 X85.133 Y181.807 E34.93862
G1 X82.847 Y180.895 E35.20443
G1 X80.476 Y179.857 E35.48397
G1 X78.207 Y178.766 E35.75587
G1 X75.962 Y177.6 E36.02909
G1 X73.8 Y176.382 E36.29709
G1 X71.634 Y175.055 E36.57142
G1 X69.487 Y173.647 E36.84871
G1 X67.425 Y172.188 E37.12152
G1 X65.429 Y170.676 E37.39195
G1 X63.45 Y169.067 E37.66741
G1 X61.544 Y167.414 E37.93989
G1 X59.707 Y165.712 E38.21035
G1 X57.904 Y163.904 E38.48612
G1 X56.177 Y162.066 E38.7585
G1 X54.502 Y160.164 E39.03222
G1 X52.906 Y158.215 E39.30428
G1 X51.364 Y156.206 E39.57779
G1 X49.898 Y154.146 E39.85086
G1 X48.503 Y152.042 E40.1235
G1 X47.175 Y149.891 E40.39652
G1 X45.93 Y147.712 E40.66755
G1 X44.734 Y145.458 E40.94313
G1 X43.63 Y143.181 E41.21643
G1 X42.617 Y140.892 E41.48677
G1 X41.695 Y138.624 E41.75118
G1 X40.79 Y136.162 E42.03447
G1 X40.003 Y133.76 E42.30745
G1 X39.306 Y131.36 E42.57736
G1 X38.665 Y128.9 E42.85191
G1 X38.149 Y126.568 E43.10986
G1 X37.68 Y123.991 E43.39275
G1 X37.299 Y121.455 E43.66971
G1 X36.996 Y118.938 E43.94351
G1 X36.787 Y116.428 E44.21553
G1 X36.671 Y113.886 E44.49035
G1 X36.633 Y111.36 E44.76319
G1 X36.685 Y108.847 E45.03465
G1 X36.814 Y106.303 E45.30975
G1 X37.033 Y103.784 E45.58283
G1 X37.338 Y101.3 E45.85312
G1 X37.718 Y98.804 E46.12579
G1 X38.175 Y96.308 E46.39984
G1 X38.677 Y94.049 E46.64977
G1 X39.365 Y91.397 E46.94566
G1 X40.073 Y88.996 E47.21601
G1 X40.876 Y86.585 E47.49046
G1 X41.706 Y84.323 E47.75068
G1 X42.678 Y81.944 E48.02823
G1 X43.751 Y79.571 E48.3095
G1 X44.842 Y77.334 E48.5783
G1 X46.048 Y75.066 E48.85572
G1 X47.314 Y72.866 E49.12985
G1 X48.647 Y70.728 E49.40196
G1 X50.052 Y68.628 E49.67484
G1 X51.526 Y66.573 E49.94796
G1 X53.073 Y64.567 E50.22155
G1 X54.669 Y62.633 E50.49236
G1 X56.352 Y60.729 E50.76681
G1 X58.048 Y58.937 E51.03328
G0 F7200 X58.329 Y59.222
G1 F1800 X60.155 Y57.425 E51.30997
G1 X62.002 Y55.707 E51.5824
G1 X63.847 Y54.113 E51.84573
G1 X65.865 Y52.493 E52.12521
G1 X67.87 Y50.983 E52.39629
G1 X69.938 Y49.529 E52.66931
G1 X72.038 Y48.161 E52.93999
G1 X74.2 Y46.853 E53.21289
G1 X76.379 Y45.635 E53.4825
G1 X78.613 Y44.478 E53.75421
G1 X80.89 Y43.392 E54.02666
G1 X83.188 Y42.395 E54.2972
G1 X85.533 Y41.467 E54.56957
G1 X87.894 Y40.628 E54.84017
G1 X90.301 Y39.86 E55.11304
G1 X92.713 Y39.184 E55.38358
G1 X95.134 Y38.584 E55.65295
G1 X97.608 Y38.056 E55.92616
G1 X100.077 Y37.621 E56.19692
G1 X102.582 Y37.261 E56.47024
G1 X105.068 Y36.997 E56.74024
G1 X107.585 Y36.807 E57.01285
G1 X110.091 Y36.711 E57.2837
G1 X112.615 Y36.692 E57.55629
G1 X115.116 Y36.768 E57.82653
G1 X117.604 Y36.92 E58.09573
G1 X120.134 Y37.147 E58.37007
G1 X122.602 Y37.469 E58.63887
G1 X125.098 Y37.869 E58.91188
G1 X127.574 Y38.355 E59.18439
G1 X129.865 Y38.889 E59.43845
G1 X132.443 Y39.581 E59.72673
G1 X134.842 Y40.316 E59.99771
G1 X137.209 Y41.129 E60.26801
G1 X139.57 Y42.021 E60.54059
G1 X141.898 Y42.996 E60.81317
G1 X144.166 Y44.038 E61.08273
G1 X146.427 Y45.168 E61.35571
G1 X148.628 Y46.364 E61.62625
G1 X150.787 Y47.628 E61.89644
G1 X152.876 Y48.944 E62.16309
G1 X155 Y50.394 E62.44084
G1 X157.037 Y51.884 E62.71341
G1 X159.002 Y53.428 E62.9833
G1 X160.925 Y55.041 E63.25438
G1 X162.796 Y56.719 E63.5258
G1 X164.537 Y58.391 E63.7865
G1 X166.352 Y60.265 E64.06826
G1 X168.059 Y62.138 E64.34195
G1 X169.676 Y64.045 E64.61197
G1 X171.233 Y66.022 E64.88376
G1 X172.73 Y68.043 E65.15538
G1 X174.146 Y70.101 E65.42517
G1 X175.522 Y72.24 E65.69986
G1 X176.79 Y74.386 E65.96906
G1 X178.013 Y76.604 E66.24261
G1 X179.132 Y78.826 E66.5113
G1 X180.201 Y81.113 E66.78394
G1 X181.182 Y83.423 E67.05499
G1 X182.094 Y85.779 E67.32783
G1 X182.914 Y88.143 E67.59807
G1 X183.663 Y90.558 E67.87114
G1 X184.319 Y92.97 E68.1411
G1 X184.904 Y95.429 E68.41409
G1 X185.394 Y97.88 E68.68403
G1 X185.81 Y100.349 E68.95444
G1 X186.15 Y102.85 E69.22704
G1 X186.397 Y105.343 E69.4976
G1 X186.567 Y107.861 E69.77016
G1 X186.643 Y110.124 E70.0147
G1 X186.643 Y112.893 E70.31376
G1 X186.549 Y115.394 E70.58405
G1 X186.378 Y117.911 E70.85652
G1 X186.114 Y120.409 E71.1278
G1 X185.776 Y122.88 E71.39716
G1 X185.358 Y125.378 E71.67069
G1 X184.848 Y127.825 E71.94065
G1 X184.259 Y130.281 E72.21341
G1 X183.587 Y132.704 E72.48498
G1 X182.842 Y135.066 E72.75246
G1 X182.002 Y137.454 E73.02586
G1 X181.085 Y139.821 E73.3
G1 X180.11 Y142.09 E73.56672
G1 X179.024 Y144.403 E73.84269
G1 X177.893 Y146.627 E74.11216
G1 X176.725 Y148.75 E74.37385
G1 X175.409 Y150.946 E74.65035
G1 X174.007 Y153.11 E74.92882
G1 X172.584 Y155.157 E75.19807
G1 X171.084 Y157.183 E75.47032
G1 X169.518 Y159.143 E75.74127
G1 X167.883 Y161.062 E76.01354
G1 X166.228 Y162.874 E76.27858
G1 X164.424 Y164.711 E76.55664
G1 X162.609 Y166.445 E76.82774
G1 X160.73 Y168.123 E77.09982
G1 X158.807 Y169.728 E77.37033
G1 X156.852 Y171.256 E77.63831
G1 X154.787 Y172.751 E77.91364
G1 X152.728 Y174.141 E78.18194
G1 X150.586 Y175.492 E78.45545
G1 X148.405 Y176.763 E78.72808
G1 X146.194 Y177.952 E78.9992
G1 X143.932 Y179.074 E79.2719
G1 X141.653 Y180.107 E79.54214
G1 X139.335 Y181.07 E79.81323
G1 X136.976 Y181.962 E80.0856
G1 X134.605 Y182.765 E80.35596
G1 X132.186 Y183.495 E80.62885
G1 X129.767 Y184.134 E80.89906
G1 X127.299 Y184.7 E81.17252
G1 X124.841 Y185.171 E81.44282
G1 X122.349 Y185.568 E81.71535
G1 X119.869 Y185.871 E81.98518
G1 X117.374 Y186.099 E82.25576
G1 X114.852 Y186.25 E82.52863
G1 X112.353 Y186.308 E82.79859
G1 X109.821 Y186.289 E83.07205
G1 X107.328 Y186.174 E83.34158
G1 X104.799 Y185.981 E83.61551
G1 X102.318 Y185.702 E83.88515
G1 X99.817 Y185.338 E84.1581
G1 X97.358 Y184.889 E84.42806
G1 X94.9 Y184.362 E84.69956
G1 X92.455 Y183.757 E84.97158
G1 X90.042 Y183.065 E85.24269
G1 X87.71 Y182.312 E85.50735
G1 X85.281 Y181.435 E85.78626
G1 X82.995 Y180.523 E86.05207
G1 X80.649 Y179.497 E86.32861
G1 X78.391 Y178.411 E86.59921
G1 X76.158 Y177.252 E86.87093
G1 X74.009 Y176.041 E87.13733
G1 X71.853 Y174.721 E87.41036
G1 X69.718 Y173.32 E87.68615
G1 X67.667 Y171.869 E87.95748
G1 X65.671 Y170.357 E88.22792
G1 X63.712 Y168.765 E88.50054
G1 X61.816 Y167.121 E88.77157
G1 X59.99 Y165.43 E89.04035
G1 X58.195 Y163.63 E89.31489
G1 X56.477 Y161.802 E89.58582
G1 X54.811 Y159.91 E89.85809
G1 X53.223 Y157.972 E90.12868
G1 X51.69 Y155.974 E90.40066
G1 X50.231 Y153.925 E90.67232
G1 X48.843 Y151.832 E90.94356
G1 X47.522 Y149.693 E91.21507
G1 X46.283 Y147.525 E91.48475
G1 X45.094 Y145.284 E91.75874
G1 X43.996 Y143.019 E92.03059
G1 X42.988 Y140.741 E92.29962
G1 X42.066 Y138.473 E92.56403
G1 X41.17 Y136.037 E92.84435
G1 X40.387 Y133.648 E93.11587
G1 X39.693 Y131.259 E93.38455
G1 X39.056 Y128.814 E93.65742
G1 X38.543 Y126.496 E93.91382
G1 X38.076 Y123.931 E94.1954
G1 X37.696 Y121.407 E94.47106
G1 X37.395 Y118.905 E94.74322
G1 X37.187 Y116.41 E95.01362
G1 X37.071 Y113.88 E95.28715
G1 X37.033 Y111.368 E95.55847
G1 X37.084 Y108.867 E95.82864
G1 X37.212 Y106.338 E96.10212
G1 X37.43 Y103.833 E96.37368
G1 X37.733 Y101.36 E96.64276
G1 X38.111 Y98.876 E96.91412
G1 X38.565 Y96.395 E97.18652
G1 X39.064 Y94.149 E97.435
G1 X39.749 Y91.51 E97.72946
G1 X40.453 Y89.122 E97.99834
G1 X41.252 Y86.723 E98.27142
G1 X42.082 Y84.461 E98.53164
G1 X43.043 Y82.109 E98.80605
G1 X44.11 Y79.746 E99.08606
G1 X45.195 Y77.522 E99.35331
G1 X46.395 Y75.265 E99.62938
G1 X47.653 Y73.078 E99.90186
G1 X48.98 Y70.95 E100.17271
G1 X50.377 Y68.861 E100.44412
G1 X51.843 Y66.817 E100.71578
G1 X53.381 Y64.822 E100.98784
G1 X54.969 Y62.898 E101.25726
G1 X56.643 Y61.004 E101.53026
G1 X58.329 Y59.222 E101.79521
G0 F7200 X58.61 Y59.507
G1 F1800 X60.427 Y57.718 E102.0706
G1 X62.263 Y56.01 E102.34142
G1 X64.098 Y54.425 E102.60329
G1 X66.106 Y52.812 E102.88146
G1 X68.1 Y51.31 E103.15107
G1 X70.156 Y49.864 E103.42254
G1 X72.245 Y48.503 E103.69181
G1 X74.395 Y47.202 E103.96321
G1 X76.563 Y45.99 E104.23146
G1 X78.785 Y44.839 E104.50172
G1 X81.049 Y43.759 E104.77263
G1 X83.335 Y42.767 E105.04176
G1 X85.667 Y41.844 E105.31262
G1 X88.016 Y41.009 E105.58187
G1 X90.409 Y40.245 E105.85316
G1 X92.809 Y39.572 E106.12236
G1 X95.217 Y38.975 E106.3903
G1 X97.677 Y38.45 E106.66196
G1 X100.134 Y38.017 E106.93141
G1 X102.624 Y37.659 E107.20309
G1 X105.098 Y37.396 E107.47179
G1 X107.6 Y37.207 E107.74278
G1 X110.094 Y37.111 E108.01233
G1 X112.603 Y37.092 E108.28331
G1 X115.092 Y37.167 E108.55224
G1 X117.568 Y37.318 E108.82015
G1 X120.082 Y37.544 E109.09275
G1 X122.539 Y37.864 E109.36035
G1 X125.021 Y38.262 E109.63183
G1 X127.483 Y38.745 E109.90279
G1 X129.761 Y39.275 E110.15539
G1 X132.326 Y39.963 E110.4422
G1 X134.712 Y40.694 E110.71171
G1 X137.068 Y41.503 E110.98074
G1 X139.415 Y42.39 E111.25172
G1 X141.731 Y43.36 E111.5229
G1 X143.987 Y44.396 E111.79101
G1 X146.236 Y45.519 E112.0625
G1 X148.426 Y46.709 E112.33168
G1 X150.574 Y47.967 E112.60052
G1 X152.65 Y49.274 E112.86546
G1 X154.764 Y50.717 E113.14189
G1 X156.79 Y52.198 E113.41293
G1 X158.745 Y53.735 E113.68151
G1 X160.658 Y55.339 E113.95113
G1 X162.519 Y57.008 E114.2211
G1 X164.26 Y58.68 E114.4818
G1 X166.056 Y60.534 E114.76057
G1 X167.754 Y62.397 E115.03281
G1 X169.362 Y64.293 E115.30131
G1 X170.912 Y66.26 E115.57177
G1 X172.401 Y68.27 E115.84193
G1 X173.81 Y70.317 E116.11031
G1 X175.178 Y72.443 E116.38335
G1 X176.44 Y74.579 E116.65129
G1 X177.656 Y76.784 E116.92324
G1 X178.77 Y78.995 E117.19063
G1 X179.833 Y81.269 E117.46173
G1 X180.809 Y83.567 E117.73137
G1 X181.716 Y85.91 E118.00271
G1 X182.532 Y88.262 E118.27158
G1 X183.277 Y90.663 E118.54308
G1 X183.93 Y93.063 E118.81171
G1 X184.512 Y95.507 E119.08304
G1 X185 Y97.946 E119.35167
G1 X185.414 Y100.403 E119.62077
G1 X185.752 Y102.889 E119.89173
G1 X185.998 Y105.37 E120.16099
G1 X186.167 Y107.874 E120.43204
G1 X186.243 Y110.137 E120.67658
G1 X186.243 Y112.878 E120.97261
G1 X186.15 Y115.367 E121.24161
G1 X185.98 Y117.869 E121.51245
G1 X185.718 Y120.355 E121.78242
G1 X185.382 Y122.814 E122.05046
G1 X184.966 Y125.296 E122.32226
G1 X184.459 Y127.732 E122.59098
G1 X183.874 Y130.174 E122.86218
G1 X183.206 Y132.584 E123.13227
G1 X182.465 Y134.933 E123.39829
G1 X181.629 Y137.31 E123.67042
G1 X180.718 Y139.663 E123.94292
G1 X179.748 Y141.92 E124.20824
G1 X178.667 Y144.222 E124.4829
G1 X177.542 Y146.434 E124.75092
G1 X176.382 Y148.544 E125.01097
G1 X175.073 Y150.729 E125.28605
G1 X173.679 Y152.882 E125.56306
G1 X172.263 Y154.919 E125.83099
G1 X170.772 Y156.933 E126.10162
G1 X169.213 Y158.884 E126.37134
G1 X167.588 Y160.792 E126.64201
G1 X165.943 Y162.594 E126.90552
G1 X164.148 Y164.422 E127.18221
G1 X162.343 Y166.147 E127.45186
G1 X160.474 Y167.816 E127.72248
G1 X158.561 Y169.413 E127.99161
G1 X156.618 Y170.932 E128.25797
G1 X154.563 Y172.419 E128.53192
G1 X152.504 Y173.809 E128.80022
G1 X150.384 Y175.146 E129.07091
G1 X148.215 Y176.411 E129.34209
G1 X146.016 Y177.594 E129.61177
G1 X143.767 Y178.71 E129.88292
G1 X141.499 Y179.738 E130.15185
G1 X139.194 Y180.696 E130.42144
G1 X136.848 Y181.583 E130.69231
G1 X134.489 Y182.382 E130.9613
G1 X132.084 Y183.108 E131.23262
G1 X129.678 Y183.744 E131.50139
G1 X127.224 Y184.307 E131.77331
G1 X124.778 Y184.776 E132.04229
G1 X122.3 Y185.171 E132.31329
G1 X119.833 Y185.473 E132.58171
G1 X117.35 Y185.7 E132.851
G1 X114.843 Y185.85 E133.12224
G1 X112.356 Y185.908 E133.39091
G1 X109.839 Y185.889 E133.66275
G1 X107.358 Y185.775 E133.93098
G1 X104.844 Y185.583 E134.20328
G1 X102.375 Y185.306 E134.47161
G1 X99.889 Y184.945 E134.74291
G1 X97.442 Y184.498 E135.01156
G1 X94.996 Y183.974 E135.28172
G1 X92.565 Y183.372 E135.5522
G1 X90.165 Y182.684 E135.82184
G1 X87.846 Y181.936 E136.085
G1 X85.429 Y181.064 E136.3625
G1 X83.155 Y180.156 E136.62695
G1 X80.822 Y179.136 E136.90194
G1 X78.575 Y178.056 E137.1712
G1 X76.354 Y176.904 E137.44141
G1 X74.218 Y175.7 E137.70622
G1 X72.072 Y174.387 E137.97793
G1 X69.949 Y172.994 E138.25216
G1 X67.909 Y171.55 E138.52209
G1 X65.913 Y170.038 E138.79253
G1 X63.974 Y168.463 E139.06232
G1 X62.088 Y166.828 E139.33189
G1 X60.273 Y165.147 E139.59907
G1 X58.486 Y163.356 E139.87231
G1 X56.777 Y161.538 E140.14179
G1 X55.12 Y159.656 E140.4126
G1 X53.54 Y157.728 E140.68181
