;FLAVOR:UltiGCode
;TIME:13614
;MATERIAL:12287
;MATERIAL2:0
;NOZZLE_DIAMETER:0.4
;MINX:36.295
;MINY:36.292
;MINZ:0.27
;MAXX:186.705
;MAXY:186.708
;MAXZ:1.97
;TARGET_MACHINE.NAME:Ultimaker 2+
;Generated with Cura_SteamEngine 5.6.0
M82 ;absolute extrusion mode
G0 F3000 Y50 ;avoid prime blob
G92 E0
G92 E0
G10
;LAYER_COUNT:18
;LAYER:0
M107
G0 F7200 X57.712 Y58.938 Z0.27
;TYPE:SKIRT
G11
G1 F1800 X59.545 Y57.132 E0.27791
G1 X61.402 Y55.404 E0.55186
G1 X63.247 Y53.81 E0.81519
G1 X65.286 Y52.173 E1.09759
G1 X67.291 Y50.663 E1.36867
G1 X69.382 Y49.194 E1.64466
G1 X71.493 Y47.819 E1.91674
G1 X73.667 Y46.504 E2.19115
G1 X75.856 Y45.28 E2.46201
G1 X78.102 Y44.117 E2.73517
G1 X80.393 Y43.025 E3.00926
G1 X82.703 Y42.023 E3.2812
G1 X85.061 Y41.09 E3.55508
G1 X87.433 Y40.247 E3.82695
G1 X89.854 Y39.475 E4.10139
G1 X92.279 Y38.796 E4.37336
G1 X94.712 Y38.193 E4.64408
G1 X97.2 Y37.662 E4.91883
G1 X99.681 Y37.225 E5.19091
G1 X102.202 Y36.863 E5.46597
G1 X104.7 Y36.598 E5.73726
G1 X107.232 Y36.407 E6.0115
G1 X109.75 Y36.311 E6.28364
G1 X112.289 Y36.292 E6.55786
G1 X114.802 Y36.369 E6.82939
G1 X117.302 Y36.522 E7.09989
G1 X119.848 Y36.75 E7.37596
G1 X122.327 Y37.074 E7.64597
G1 X124.837 Y37.476 E7.92051
G1 X127.327 Y37.965 E8.19456
G1 X129.631 Y38.503 E8.45009
G1 X132.222 Y39.199 E8.73984
G1 X134.634 Y39.938 E9.01229
G1 X137.012 Y40.755 E9.28384
G1 X139.384 Y41.652 E9.55773
G1 X141.727 Y42.633 E9.83205
G1 X144.007 Y43.68 E10.10302
G1 X146.28 Y44.817 E10.3775
G1 X148.492 Y46.019 E10.64939
G1 X150.662 Y47.29 E10.92099
G1 X152.764 Y48.614 E11.18929
G1 X154.898 Y50.071 E11.46835
G1 X156.946 Y51.569 E11.74239
G1 X158.921 Y53.122 E12.01374
G1 X160.854 Y54.743 E12.28619
G1 X162.735 Y56.43 E12.55907
G1 X164.476 Y58.102 E12.81977
G1 X166.321 Y60.008 E13.10626
G1 X168.015 Y61.875 E13.37853
G1 X169.649 Y63.797 E13.65098
G1 X171.215 Y65.782 E13.92404
G1 X172.726 Y67.816 E14.19769
G1 X174.127 Y69.854 E14.46479
G1 X175.52 Y72.022 E14.7431
G1 X176.802 Y74.193 E15.0154
G1 X178.032 Y76.424 E15.29054
G1 X179.156 Y78.658 E15.56063
G1 X180.231 Y80.958 E15.83482
G1 X181.218 Y83.282 E16.10751
G1 X182.133 Y85.646 E16.38128
G1 X182.958 Y88.025 E16.65322
G1 X183.711 Y90.453 E16.92777
G1 X184.37 Y92.878 E17.19916
G1 X184.957 Y95.348 E17.47335
G1 X185.449 Y97.809 E17.7444
G1 X185.868 Y100.295 E18.01668
G1 X186.21 Y102.811 E18.2909
G1 X186.458 Y105.316 E18.56276
G1 X186.629 Y107.848 E18.83684
G1 X186.705 Y110.111 E19.08139
G1 X186.705 Y112.908 E19.38346
G1 X186.61 Y115.421 E19.65506
G1 X186.438 Y117.953 E19.92915
G1 X186.172 Y120.463 E20.20174
G1 X185.831 Y122.95 E20.47285
G1 X185.411 Y125.455 E20.74717
G1 X184.899 Y127.918 E21.01886
G1 X184.307 Y130.388 E21.29317
G1 X183.634 Y132.818 E21.56549
G1 X182.898 Y135.165 E21.83114
G1 X182.037 Y137.619 E22.11201
G1 X181.115 Y139.979 E22.38565
G1 X180.134 Y142.26 E22.65382
G1 X179.043 Y144.584 E22.93109
G1 X177.905 Y146.82 E23.20206
G1 X176.73 Y148.956 E23.46534
G1 X175.407 Y151.163 E23.74325
G1 X173.997 Y153.338 E24.02319
G1 X172.568 Y155.395 E24.29369
G1 X171.058 Y157.434 E24.56771
G1 X169.488 Y159.397 E24.83918
G1 X167.84 Y161.332 E25.11368
G1 X166.175 Y163.154 E25.38025
G1 X164.362 Y165 E25.65969
G1 X162.537 Y166.743 E25.93224
G1 X160.648 Y168.43 E26.20576
G1 X158.715 Y170.043 E26.47766
G1 X156.749 Y171.58 E26.74718
G1 X154.673 Y173.083 E27.02398
G1 X152.614 Y174.473 E27.29228
G1 X150.449 Y175.838 E27.56869
G1 X148.256 Y177.115 E27.84277
G1 X146.034 Y178.31 E28.11524
G1 X143.759 Y179.438 E28.38949
G1 X141.468 Y180.476 E28.66113
G1 X139.138 Y181.444 E28.93362
G1 X136.766 Y182.341 E29.2075
G1 X134.383 Y183.148 E29.47922
G1 X131.95 Y183.882 E29.75368
G1 X129.518 Y184.524 E30.02534
G1 X127.036 Y185.093 E30.30035
G1 X124.566 Y185.566 E30.57195
G1 X122.06 Y185.965 E30.84601
G1 X119.567 Y186.269 E31.11725
G1 X117.06 Y186.498 E31.38913
G1 X114.523 Y186.65 E31.66362
G1 X112.012 Y186.708 E31.93488
G1 X109.465 Y186.689 E32.20996
G1 X106.96 Y186.573 E32.48079
G1 X104.416 Y186.378 E32.75635
G1 X101.921 Y186.098 E33.0275
G1 X99.406 Y185.731 E33.302
G1 X96.938 Y185.28 E33.57296
G1 X94.464 Y184.75 E33.84621
G1 X92.008 Y184.142 E34.11947
G1 X89.58 Y183.446 E34.39225
G1 X87.236 Y182.688 E34.65831
G1 X84.795 Y181.807 E34.93859
G1 X82.492 Y180.887 E35.20642
G1 X80.141 Y179.858 E35.48358
G1 X77.874 Y178.769 E35.7552
G1 X75.624 Y177.6 E36.02904
G1 X73.462 Y176.382 E36.29704
G1 X71.296 Y175.055 E36.57138
G1 X69.149 Y173.647 E36.84867
G1 X67.087 Y172.188 E37.12148
G1 X65.091 Y170.676 E37.39191
G1 X63.112 Y169.067 E37.66737
G1 X61.206 Y167.414 E37.93985
G1 X59.369 Y165.712 E38.21031
G1 X57.568 Y163.906 E38.48577
G1 X55.837 Y162.064 E38.75876
G1 X54.164 Y160.164 E39.03217
G1 X52.568 Y158.215 E39.30424
G1 X51.026 Y156.206 E39.57775
G1 X49.56 Y154.146 E39.85082
G1 X48.165 Y152.042 E40.12346
G1 X46.837 Y149.891 E40.39647
G1 X45.592 Y147.712 E40.66751
G1 X44.396 Y145.458 E40.94309
G1 X43.292 Y143.181 E41.21639
G1 X42.279 Y140.892 E41.48672
G1 X41.357 Y138.624 E41.75114
G1 X40.452 Y136.162 E42.03443
G1 X39.665 Y133.76 E42.30741
G1 X38.968 Y131.36 E42.57732
G1 X38.327 Y128.9 E42.85187
G1 X37.811 Y126.568 E43.10982
G1 X37.344 Y124.003 E43.39139
G1 X36.96 Y121.453 E43.6699
G1 X36.657 Y118.934 E43.94391
G1 X36.449 Y116.428 E44.21549
G1 X36.333 Y113.886 E44.49031
G1 X36.295 Y111.366 E44.7625
G1 X36.338 Y108.847 E45.0346
G1 X36.458 Y106.44 E45.29487
G1 X36.694 Y103.784 E45.58285
G1 X36.999 Y101.3 E45.85314
G1 X37.38 Y98.804 E46.12583
G1 X37.837 Y96.308 E46.39988
G1 X38.339 Y94.049 E46.6498
G1 X39.027 Y91.397 E46.9457
G1 X39.735 Y88.996 E47.21605
G1 X40.538 Y86.585 E47.4905
G1 X41.368 Y84.323 E47.75072
G1 X42.34 Y81.944 E48.02827
G1 X43.413 Y79.571 E48.30953
G1 X44.504 Y77.334 E48.57833
G1 X45.71 Y75.066 E48.85575
G1 X46.976 Y72.866 E49.12988
G1 X48.309 Y70.728 E49.40199
G1 X49.714 Y68.628 E49.67487
G1 X51.188 Y66.573 E49.948
G1 X52.732 Y64.573 E50.22088
G1 X54.345 Y62.62 E50.49444
G1 X56.013 Y60.735 E50.76628
G1 X57.712 Y58.938 E51.03336
G0 F7200 X57.993 Y59.223
G1 F1800 X59.817 Y57.425 E51.30998
G1 X61.664 Y55.707 E51.5824
G1 X63.509 Y54.113 E51.84573
G1 X65.527 Y52.493 E52.12521
G1 X67.532 Y50.983 E52.39629
G1 X69.6 Y49.529 E52.66932
G1 X71.7 Y48.161 E52.93999
G1 X73.862 Y46.853 E53.2129
G1 X76.04 Y45.635 E53.4824
G1 X78.274 Y44.478 E53.75411
G1 X80.552 Y43.392 E54.02667
G1 X82.85 Y42.395 E54.2972
G1 X85.195 Y41.467 E54.56957
G1 X87.555 Y40.628 E54.84008
G1 X89.962 Y39.86 E55.11295
G1 X92.375 Y39.184 E55.38358
G1 X94.795 Y38.584 E55.65286
G1 X97.269 Y38.056 E55.92607
G1 X99.738 Y37.621 E56.19683
G1 X102.244 Y37.261 E56.47025
G1 X104.73 Y36.997 E56.74025
G1 X107.247 Y36.807 E57.01286
G1 X109.753 Y36.711 E57.28371
G1 X112.277 Y36.692 E57.55631
G1 X114.778 Y36.768 E57.82654
G1 X117.266 Y36.92 E58.09574
G1 X119.796 Y37.147 E58.37008
G1 X122.264 Y37.469 E58.63888
G1 X124.76 Y37.869 E58.91189
G1 X127.236 Y38.355 E59.1844
G1 X129.527 Y38.889 E59.43846
G1 X132.105 Y39.581 E59.72674
G1 X134.504 Y40.316 E59.99772
G1 X136.871 Y41.129 E60.26802
G1 X139.23 Y42.021 E60.54039
G1 X141.56 Y42.996 E60.81318
G1 X143.828 Y44.038 E61.08274
G1 X146.089 Y45.168 E61.35572
G1 X148.29 Y46.364 E61.62626
G1 X150.449 Y47.628 E61.89645
G1 X152.538 Y48.944 E62.1631
G1 X154.662 Y50.394 E62.44085
G1 X156.699 Y51.884 E62.71342
G1 X158.664 Y53.428 E62.98331
G1 X160.587 Y55.041 E63.25438
G1 X162.458 Y56.719 E63.52581
G1 X164.199 Y58.391 E63.78651
G1 X166.025 Y60.277 E64.07002
G1 X167.71 Y62.134 E64.34083
G1 X169.335 Y64.045 E64.61175
G1 X170.894 Y66.021 E64.88358
G1 X172.396 Y68.043 E65.15562
G1 X173.79 Y70.07 E65.4213
G1 X175.183 Y72.238 E65.69961
G1 X176.452 Y74.386 E65.96906
G1 X177.675 Y76.604 E66.2426
G1 X178.794 Y78.827 E66.51139
G1 X179.863 Y81.114 E66.78404
G1 X180.845 Y83.426 E67.05532
G1 X181.755 Y85.777 E67.32759
G1 X182.576 Y88.143 E67.59806
G1 X183.325 Y90.558 E67.87114
G1 X183.981 Y92.97 E68.1411
G1 X184.565 Y95.427 E68.41384
G1 X185.055 Y97.875 E68.68347
G1 X185.472 Y100.349 E68.95443
G1 X185.812 Y102.85 E69.22703
G1 X186.059 Y105.343 E69.49759
G1 X186.229 Y107.861 E69.77015
G1 X186.305 Y110.124 E70.01469
G1 X186.305 Y112.893 E70.31375
G1 X186.211 Y115.394 E70.58404
G1 X186.04 Y117.911 E70.85651
G1 X185.776 Y120.409 E71.12779
G1 X185.436 Y122.884 E71.3976
G1 X185.019 Y125.374 E71.67027
G1 X184.51 Y127.825 E71.94062
G1 X183.921 Y130.281 E72.21339
G1 X183.252 Y132.698 E72.48424
G1 X182.516 Y135.045 E72.74989
G1 X181.664 Y137.473 E73.02779
G1 X180.747 Y139.821 E73.30003
G1 X179.772 Y142.09 E73.56675
G1 X178.686 Y144.403 E73.84271
G1 X177.555 Y146.627 E74.11218
G1 X176.387 Y148.75 E74.37387
G1 X175.071 Y150.946 E74.65037
G1 X173.669 Y153.11 E74.92884
G1 X172.246 Y155.157 E75.19809
G1 X170.746 Y157.184 E75.47043
G1 X169.184 Y159.138 E75.7406
G1 X167.545 Y161.062 E76.01357
G1 X165.89 Y162.874 E76.2786
G1 X164.086 Y164.711 E76.55667
G1 X162.271 Y166.445 E76.82777
G1 X160.392 Y168.123 E77.09984
G1 X158.469 Y169.728 E77.37036
G1 X156.514 Y171.256 E77.63834
G1 X154.449 Y172.751 E77.91367
G1 X152.39 Y174.141 E78.18197
G1 X150.248 Y175.492 E78.45548
G1 X148.067 Y176.763 E78.7281
G1 X145.856 Y177.952 E78.99923
G1 X143.594 Y179.074 E79.27193
G1 X141.315 Y180.107 E79.54216
G1 X138.997 Y181.07 E79.81325
G1 X136.638 Y181.962 E80.08563
G1 X134.267 Y182.765 E80.35598
G1 X131.848 Y183.495 E80.62887
G1 X129.429 Y184.134 E80.89909
G1 X126.961 Y184.7 E81.17255
G1 X124.503 Y185.171 E81.44284
G1 X122.011 Y185.568 E81.71537
G1 X119.531 Y185.871 E81.9852
G1 X117.036 Y186.099 E82.25579
G1 X114.514 Y186.25 E82.52865
G1 X112.015 Y186.308 E82.79862
G1 X109.483 Y186.289 E83.07208
G1 X106.99 Y186.174 E83.34161
G1 X104.461 Y185.981 E83.61554
G1 X101.979 Y185.702 E83.88528
G1 X99.478 Y185.338 E84.15823
G1 X97.022 Y184.889 E84.42788
G1 X94.56 Y184.362 E84.6998
G1 X92.118 Y183.757 E84.97151
G1 X89.703 Y183.065 E85.24282
G1 X87.372 Y182.312 E85.50738
G1 X84.943 Y181.436 E85.78625
G1 X82.652 Y180.521 E86.05268
G1 X80.314 Y179.497 E86.32834
G1 X78.058 Y178.414 E86.59861
G1 X75.82 Y177.252 E86.87095
G1 X73.671 Y176.041 E87.13736
G1 X71.515 Y174.721 E87.41038
G1 X69.38 Y173.32 E87.68617
G1 X67.329 Y171.869 E87.95751
G1 X65.333 Y170.357 E88.22795
G1 X63.374 Y168.765 E88.50057
G1 X61.478 Y167.121 E88.7716
G1 X59.652 Y165.43 E89.04038
G1 X57.859 Y163.632 E89.31462
G1 X56.137 Y161.8 E89.58616
G1 X54.473 Y159.91 E89.85811
G1 X52.885 Y157.972 E90.12871
G1 X51.352 Y155.974 E90.40069
G1 X49.893 Y153.925 E90.67235
G1 X48.505 Y151.832 E90.94358
G1 X47.184 Y149.693 E91.2151
G1 X45.945 Y147.525 E91.48478
G1 X44.756 Y145.284 E91.75877
G1 X43.658 Y143.019 E92.03061
G1 X42.65 Y140.741 E92.29965
G1 X41.728 Y138.473 E92.56406
G1 X40.832 Y136.037 E92.84438
G1 X40.049 Y133.648 E93.11589
G1 X39.355 Y131.259 E93.38457
G1 X38.718 Y128.814 E93.65745
G1 X38.205 Y126.496 E93.91385
G1 X37.74 Y123.943 E94.19411
G1 X37.357 Y121.405 E94.47132
G1 X37.056 Y118.901 E94.7437
G1 X36.849 Y116.41 E95.01365
G1 X36.733 Y113.88 E95.28718
G1 X36.695 Y111.373 E95.55797
G1 X36.738 Y108.867 E95.82865
G1 X36.858 Y106.46 E96.08893
G1 X37.091 Y103.833 E96.37376
G1 X37.394 Y101.36 E96.64284
G1 X37.773 Y98.876 E96.91422
G1 X38.227 Y96.395 E97.18662
G1 X38.726 Y94.149 E97.4351
G1 X39.411 Y91.51 E97.72956
G1 X40.115 Y89.122 E97.99843
G1 X40.914 Y86.723 E98.27152
G1 X41.744 Y84.461 E98.53174
G1 X42.705 Y82.109 E98.80614
G1 X43.772 Y79.746 E99.08616
G1 X44.857 Y77.522 E99.35341
G1 X46.057 Y75.265 E99.62948
G1 X47.315 Y73.078 E99.90196
G1 X48.642 Y70.95 E100.17281
G1 X50.039 Y68.861 E100.44422
G1 X51.505 Y66.817 E100.71588
G1 X53.04 Y64.828 E100.98722
G1 X54.644 Y62.885 E101.25933
G1 X56.304 Y61.01 E101.52979
G1 X57.993 Y59.223 E101.79535
G0 F7200 X58.274 Y59.508
G1 F1800 X60.089 Y57.718 E102.07066
G1 X61.925 Y56.01 E102.34148
G1 X63.76 Y54.425 E102.60336
G1 X65.768 Y52.812 E102.88153
G1 X67.762 Y51.31 E103.15114
G1 X69.818 Y49.864 E103.4226
G1 X71.907 Y48.503 E103.69187
G1 X74.057 Y47.202 E103.96328
G1 X76.224 Y45.99 E104.23143
G1 X78.446 Y44.839 E104.50169
G1 X80.711 Y43.759 E104.7727
G1 X82.997 Y42.767 E105.04183
G1 X85.329 Y41.844 E105.31269
G1 X87.677 Y41.009 E105.58184
G1 X90.07 Y40.245 E105.85313
G1 X92.471 Y39.572 E106.12243
G1 X94.878 Y38.975 E106.39027
G1 X97.338 Y38.45 E106.66193
G1 X99.795 Y38.017 E106.93137
G1 X102.286 Y37.659 E107.20317
G1 X104.76 Y37.396 E107.47186
G1 X107.262 Y37.207 E107.74285
G1 X109.756 Y37.111 E108.0124
G1 X112.265 Y37.092 E108.28338
G1 X114.754 Y37.167 E108.55231
G1 X117.23 Y37.318 E108.82022
G1 X119.744 Y37.544 E109.09283
G1 X122.201 Y37.864 E109.36042
G1 X124.683 Y38.262 E109.6319
G1 X127.145 Y38.745 E109.90287
G1 X129.423 Y39.275 E110.15546
G1 X131.988 Y39.963 E110.44228
G1 X134.374 Y40.694 E110.71179
G1 X136.73 Y41.503 E110.98082
G1 X139.076 Y42.39 E111.25169
G1 X141.393 Y43.36 E111.52297
G1 X143.649 Y44.396 E111.79108
G1 X145.898 Y45.519 E112.06257
G1 X148.088 Y46.709 E112.33175
G1 X150.236 Y47.967 E112.60059
G1 X152.312 Y49.274 E112.86554
G1 X154.426 Y50.717 E113.14197
G1 X156.452 Y52.198 E113.413
G1 X158.407 Y53.735 E113.68158
G1 X160.32 Y55.339 E113.9512
G1 X162.181 Y57.008 E114.22118
G1 X163.922 Y58.68 E114.48187
G1 X165.729 Y60.546 E114.76241
G1 X167.405 Y62.393 E115.03176
G1 X169.021 Y64.293 E115.30115
G1 X170.573 Y66.259 E115.57166
G1 X172.066 Y68.27 E115.84216
G1 X173.46 Y70.297 E116.10785
G1 X174.839 Y72.442 E116.38325
G1 X176.102 Y74.579 E116.65134
G1 X177.318 Y76.784 E116.9233
G1 X178.432 Y78.996 E117.19078
G1 X179.495 Y81.27 E117.46188
G1 X180.472 Y83.57 E117.73176
G1 X181.377 Y85.908 E118.00252
G1 X182.194 Y88.262 E118.27163
G1 X182.939 Y90.663 E118.54313
G1 X183.592 Y93.063 E118.81176
G1 X184.173 Y95.506 E119.08296
G1 X184.661 Y97.941 E119.35117
G1 X185.076 Y100.403 E119.62082
G1 X185.414 Y102.889 E119.89177
G1 X185.66 Y105.37 E120.16104
G1 X185.829 Y107.874 E120.43208
G1 X185.905 Y110.137 E120.67662
G1 X185.905 Y112.878 E120.97265
G1 X185.812 Y115.367 E121.24165
G1 X185.642 Y117.869 E121.51249
G1 X185.38 Y120.355 E121.78247
G1 X185.042 Y122.818 E122.05096
G1 X184.627 Y125.293 E122.32199
G1 X184.121 Y127.732 E122.59102
G1 X183.535 Y130.174 E122.86224
G1 X182.87 Y132.578 E123.13162
G1 X182.134 Y134.925 E123.39727
G1 X181.291 Y137.328 E123.6723
G1 X180.38 Y139.663 E123.94299
G1 X179.41 Y141.92 E124.20831
G1 X178.329 Y144.222 E124.48297
G1 X177.204 Y146.434 E124.75099
G1 X176.044 Y148.544 E125.01104
G1 X174.735 Y150.729 E125.28612
G1 X173.341 Y152.882 E125.56313
G1 X171.925 Y154.919 E125.83106
G1 X170.433 Y156.934 E126.10184
G1 X168.88 Y158.879 E126.37065
G1 X167.25 Y160.792 E126.64208
G1 X165.605 Y162.594 E126.90559
G1 X163.81 Y164.422 E127.18228
G1 X162.005 Y166.147 E127.45193
G1 X160.136 Y167.816 E127.72255
G1 X158.223 Y169.413 E127.99168
G1 X156.28 Y170.932 E128.25804
G1 X154.225 Y172.419 E128.53199
G1 X152.166 Y173.809 E128.80029
G1 X150.046 Y175.146 E129.07098
G1 X147.877 Y176.411 E129.34216
G1 X145.678 Y177.594 E129.61184
G1 X143.429 Y178.71 E129.88299
G1 X141.161 Y179.738 E130.15192
G1 X138.856 Y180.696 E130.42151
G1 X136.51 Y181.583 E130.69238
G1 X134.151 Y182.382 E130.96137
G1 X131.746 Y183.108 E131.23269
G1 X129.34 Y183.744 E131.50146
G1 X126.886 Y184.307 E131.77338
G1 X124.44 Y184.776 E132.04236
G1 X121.962 Y185.171 E132.31336
G1 X119.495 Y185.473 E132.58178
G1 X117.012 Y185.7 E132.85107
G1 X114.505 Y185.85 E133.12231
G1 X112.018 Y185.908 E133.39098
G1 X109.501 Y185.889 E133.66282
G1 X107.02 Y185.775 E133.93105
G1 X104.506 Y185.583 E134.20335
G1 X102.037 Y185.306 E134.47168
G1 X99.55 Y184.944 E134.7431
G1 X97.106 Y184.498 E135.01142
G1 X94.656 Y183.974 E135.282
G1 X92.228 Y183.373 E135.55214
G1 X89.826 Y182.684 E135.82201
G1 X87.508 Y181.936 E136.08507
G1 X85.091 Y181.065 E136.36254
G1 X82.813 Y180.155 E136.62747
G1 X80.487 Y179.136 E136.90172
G1 X78.242 Y178.059 E137.17064
G1 X76.016 Y176.904 E137.44148
G1 X73.88 Y175.7 E137.7063
G1 X71.734 Y174.387 E137.978
G1 X69.611 Y172.994 E138.25224
G1 X67.571 Y171.55 E138.52217
G1 X65.575 Y170.038 E138.7926
G1 X63.636 Y168.463 E139.06239
G1 X61.75 Y166.828 E139.33197
G1 X59.935 Y165.147 E139.59914
G1 X58.15 Y163.358 E139.87208
G1 X56.437 Y161.536 E140.14217
G1 X54.782 Y159.656 E140.41267
G1 X53.202 Y157.728 E140.68189
