;FLAVOR:UltiGCode
;TIME:2790
;MATERIAL:2761
;MATERIAL2:0
;NOZZLE_DIAMETER:0.4
;MINX:87.808
;MINY:87.82
;MINZ:0.27
;MAXX:135.192
;MAXY:135.189
;MAXZ:4.97
;TARGET_MACHINE.NAME:Ultimaker 2+
;Generated with Cura_SteamEngine 5.6.0
M82 ;absolute extrusion mode
G0 F3000 Y50 ;avoid prime blob
G92 E0
G92 E0
G10
;LAYER_COUNT:48
;LAYER:0
M107
G0 F7200 X91.061 Y92.003 Z0.27
;TYPE:SKIRT
G11
G1 F1800 X92.606 Y90.548 E0.22921
G1 X94.249 Y89.335 E0.44977
G1 X96.445 Y88.463 E0.70495
G1 X98.034 Y88.04 E0.88254
G1 X99.61 Y87.831 E1.05424
G1 X101.71 Y87.865 E1.28107
G1 X103.475 Y88.154 E1.47423
G1 X105.628 Y88.873 E1.71937
G1 X105.972 Y89.047 E1.76101
G1 X107.442 Y88.464 E1.9318
G1 X109.034 Y88.04 E2.10973
G1 X110.61 Y87.831 E2.28143
G1 X112.71 Y87.865 E2.50826
G1 X114.475 Y88.154 E2.70141
G1 X116.628 Y88.873 E2.94656
G1 X116.97 Y89.046 E2.98795
G1 X118.25 Y88.529 E3.13704
G1 X119.963 Y88.053 E3.32906
G1 X121.385 Y87.843 E3.4843
G1 X123.244 Y87.82 E3.68509
G1 X125.135 Y88.028 E3.89055
G1 X127.559 Y88.846 E4.16684
G1 X128.913 Y89.534 E4.33087
G1 X130.645 Y90.645 E4.5531
G1 X132.082 Y92.163 E4.77885
G1 X133.358 Y93.903 E5.01189
G1 X134.088 Y95.29 E5.18116
G1 X134.807 Y97.057 E5.38719
G1 X135.146 Y99.35 E5.63753
G1 X135.192 Y100.896 E5.80457
G1 X134.95 Y103.061 E6.03985
G1 X134.573 Y104.684 E6.2198
G1 X133.951 Y105.973 E6.37437
G1 X134.807 Y108.074 E6.61939
G1 X135.146 Y110.35 E6.86791
G1 X135.192 Y111.896 E7.03495
G1 X134.95 Y114.061 E7.27023
G1 X134.573 Y115.684 E7.45018
G1 X133.951 Y116.973 E7.60475
G1 X134.807 Y119.074 E7.84977
G1 X135.146 Y121.35 E8.09829
G1 X135.192 Y122.896 E8.26533
G1 X134.95 Y125.061 E8.50061
G1 X134.573 Y126.685 E8.68066
G1 X133.662 Y128.569 E8.90667
G1 X132.877 Y129.829 E9.067
G1 X131.835 Y131.104 E9.24484
G1 X130.391 Y132.454 E9.45833
G1 X128.754 Y133.662 E9.67805
G1 X126.393 Y134.592 E9.95211
G1 X125.351 Y134.879 E10.06883
G1 X123.058 Y135.189 E10.31873
G1 X121.358 Y135.152 E10.50237
G1 X120.197 Y135 E10.62883
G1 X117.597 Y134.219 E10.92203
G1 X117.042 Y133.945 E10.98887
G1 X115.438 Y134.577 E11.17507
G1 X114.302 Y134.889 E11.3023
G1 X112.058 Y135.189 E11.54681
G1 X110.358 Y135.152 E11.73045
G1 X109.197 Y135 E11.85691
G1 X106.597 Y134.219 E12.1501
G1 X106.042 Y133.945 E12.21695
G1 X104.438 Y134.577 E12.40314
G1 X103.302 Y134.889 E12.53038
G1 X101.058 Y135.189 E12.77488
G1 X99.358 Y135.152 E12.95853
G1 X98.197 Y135 E13.08499
G1 X95.587 Y134.213 E13.3794
G1 X94.048 Y133.44 E13.5654
G1 X92.332 Y132.339 E13.7856
G1 X90.774 Y130.668 E14.03234
G1 X89.718 Y129.211 E14.22668
G1 X88.82 Y127.504 E14.43499
G1 X88.193 Y125.924 E14.61857
G1 X87.854 Y123.648 E14.86709
G1 X87.808 Y122.104 E15.03392
G1 X88.05 Y119.943 E15.26876
G1 X88.427 Y118.31 E15.44977
G1 X89.071 Y116.997 E15.60771
G1 X88.82 Y116.504 E15.66746
G1 X88.193 Y114.924 E15.85104
G1 X87.854 Y112.648 E16.09956
G1 X87.808 Y111.104 E16.26639
G1 X88.05 Y108.943 E16.50123
G1 X88.427 Y107.31 E16.68224
G1 X89.071 Y105.997 E16.84018
G1 X88.82 Y105.504 E16.89993
G1 X88.193 Y103.924 E17.08351
G1 X87.854 Y101.648 E17.33203
G1 X87.808 Y100.104 E17.49886
G1 X88.05 Y97.943 E17.73371
G1 X88.434 Y96.291 E17.91688
G1 X89.403 Y94.326 E18.1535
G1 X90.406 Y92.785 E18.35207
G1 X91.061 Y92.003 E18.46224
G0 F7200 X91.368 Y92.26
G1 F1800 X92.844 Y90.87 E18.68121
G1 X94.445 Y89.688 E18.89614
G1 X96.548 Y88.85 E19.14063
G1 X98.137 Y88.427 E19.31822
G1 X99.604 Y88.231 E19.47806
G1 X101.645 Y88.26 E19.69851
G1 X103.41 Y88.549 E19.89167
G1 X105.447 Y89.23 E20.12363
G1 X105.953 Y89.486 E20.18488
G1 X107.545 Y88.851 E20.36999
G1 X109.137 Y88.427 E20.54792
G1 X110.604 Y88.231 E20.70776
G1 X112.645 Y88.26 E20.92821
G1 X114.41 Y88.549 E21.12137
G1 X116.447 Y89.23 E21.35333
G1 X116.951 Y89.485 E21.41434
G1 X118.4 Y88.9 E21.5831
G1 X120.023 Y88.449 E21.76503
G1 X121.391 Y88.243 E21.91444
G1 X123.2 Y88.218 E22.10983
G1 X125.05 Y88.421 E22.31083
G1 X127.431 Y89.225 E22.58224
G1 X128.697 Y89.871 E22.73574
G1 X130.39 Y90.957 E22.95297
G1 X131.76 Y92.4 E23.16786
G1 X133.004 Y94.09 E23.3945
G1 X133.717 Y95.441 E23.55948
G1 X134.418 Y97.164 E23.76037
G1 X134.746 Y99.362 E24.00039
G1 X134.792 Y100.908 E24.16743
G1 X134.56 Y102.971 E24.39164
G1 X134.193 Y104.552 E24.56692
G1 X133.494 Y106.001 E24.74067
G1 X133.667 Y106.334 E24.7812
G1 X134.418 Y108.177 E24.99614
G1 X134.746 Y110.362 E25.23476
G1 X134.792 Y111.908 E25.4018
G1 X134.56 Y113.971 E25.62601
G1 X134.193 Y115.552 E25.8013
G1 X133.494 Y117.001 E25.97505
G1 X133.667 Y117.334 E26.01558
G1 X134.418 Y119.177 E26.23051
G1 X134.746 Y121.362 E26.46913
G1 X134.792 Y122.908 E26.63618
G1 X134.56 Y124.971 E26.86039
G1 X134.193 Y126.553 E27.03578
G1 X133.322 Y128.357 E27.25213
G1 X132.537 Y129.617 E27.41246
G1 X131.562 Y130.812 E27.57903
G1 X130.153 Y132.132 E27.78754
G1 X128.557 Y133.31 E28.00178
G1 X126.287 Y134.206 E28.26535
G1 X125.245 Y134.493 E28.38207
G1 X123.066 Y134.789 E28.61957
G1 X121.41 Y134.755 E28.79845
G1 X120.249 Y134.603 E28.92491
G1 X117.774 Y133.86 E29.20399
G1 X117.06 Y133.508 E29.28997
G1 X115.332 Y134.191 E29.49064
G1 X114.196 Y134.503 E29.61787
G1 X112.066 Y134.789 E29.84998
G1 X110.41 Y134.755 E30.02886
G1 X109.249 Y134.603 E30.15532
G1 X106.774 Y133.86 E30.43441
G1 X106.06 Y133.508 E30.52038
G1 X104.332 Y134.191 E30.72105
G1 X103.196 Y134.503 E30.84828
G1 X101.066 Y134.789 E31.08039
G1 X99.41 Y134.755 E31.25927
G1 X98.249 Y134.603 E31.38573
G1 X95.766 Y133.855 E31.6658
G1 X94.264 Y133.103 E31.84721
G1 X92.589 Y132.028 E32.06216
G1 X91.098 Y130.433 E32.29797
G1 X90.042 Y128.976 E32.49231
G1 X89.192 Y127.356 E32.68989
G1 X88.582 Y125.819 E32.86848
G1 X88.254 Y123.636 E33.10689
G1 X88.208 Y122.092 E33.27371
G1 X88.44 Y120.033 E33.49749
G1 X88.807 Y118.443 E33.67373
G1 X89.518 Y116.993 E33.84814
G1 X89.192 Y116.356 E33.92542
G1 X88.582 Y114.819 E34.10401
G1 X88.254 Y112.636 E34.34243
G1 X88.208 Y111.092 E34.50925
G1 X88.44 Y109.033 E34.73303
G1 X88.807 Y107.443 E34.90927
G1 X89.518 Y105.993 E35.08368
G1 X89.192 Y105.356 E35.16096
G1 X88.582 Y103.819 E35.33955
G1 X88.254 Y101.636 E35.57796
G1 X88.208 Y100.092 E35.74479
G1 X88.44 Y98.033 E35.96857
G1 X88.813 Y96.427 E36.14663
G1 X89.762 Y94.503 E36.37833
G1 X90.713 Y93.042 E36.5666
G1 X91.368 Y92.26 E36.67676
G0 F7200 X91.675 Y92.517
G1 F1800 X93.082 Y91.192 E36.8855
G1 X94.641 Y90.041 E37.09478
G1 X96.696 Y89.222 E37.3337
G1 X98.191 Y88.823 E37.50081
G1 X99.599 Y88.631 E37.65428
G1 X101.58 Y88.655 E37.86825
G1 X103.345 Y88.944 E38.0614
G1 X105.266 Y89.587 E38.28019
G1 X105.933 Y89.925 E38.36094
G1 X107.693 Y89.223 E38.56559
G1 X109.191 Y88.823 E38.73304
G1 X110.599 Y88.631 E38.88651
G1 X112.58 Y88.655 E39.10047
G1 X114.345 Y88.944 E39.29363
G1 X116.266 Y89.587 E39.51241
G1 X116.932 Y89.924 E39.59303
G1 X118.55 Y89.271 E39.78146
G1 X120.083 Y88.845 E39.9533
G1 X121.451 Y88.639 E40.10271
G1 X123.156 Y88.616 E40.28687
G1 X124.966 Y88.815 E40.48353
G1 X127.249 Y89.581 E40.7436
G1 X128.515 Y90.227 E40.8971
G1 X130.13 Y91.265 E41.10444
G1 X131.438 Y92.638 E41.30924
G1 X132.65 Y94.277 E41.52939
G1 X133.346 Y95.592 E41.69008
G1 X134.029 Y97.271 E41.88584
G1 X134.35 Y99.421 E42.12061
G1 X134.392 Y100.919 E42.28246
G1 X134.17 Y102.88 E42.4956
G1 X133.812 Y104.421 E42.66646
G1 X133.046 Y106.009 E42.85687
G1 X133.312 Y106.519 E42.919
G1 X134.029 Y108.281 E43.12444
G1 X134.35 Y110.421 E43.35815
G1 X134.392 Y111.919 E43.52
G1 X134.17 Y113.88 E43.73314
G1 X133.812 Y115.421 E43.904
G1 X133.046 Y117.009 E44.09441
G1 X133.312 Y117.519 E44.15653
G1 X134.029 Y119.281 E44.36198
G1 X134.35 Y121.421 E44.59569
G1 X134.392 Y122.919 E44.75754
G1 X134.17 Y124.881 E44.97078
G1 X133.813 Y126.421 E45.14151
G1 X132.982 Y128.145 E45.34821
G1 X132.197 Y129.405 E45.50854
G1 X131.288 Y130.52 E45.6639
G1 X129.915 Y131.81 E45.86737
G1 X128.36 Y132.958 E46.07612
G1 X126.181 Y133.82 E46.32919
G1 X125.139 Y134.107 E46.44592
G1 X123.074 Y134.389 E46.67101
G1 X121.462 Y134.358 E46.84514
G1 X120.301 Y134.206 E46.9716
G1 X117.951 Y133.501 E47.23657
G1 X117.077 Y133.07 E47.34182
G1 X115.226 Y133.805 E47.55691
G1 X114.09 Y134.117 E47.68414
G1 X112.074 Y134.389 E47.90384
G1 X110.462 Y134.358 E48.07797
G1 X109.301 Y134.206 E48.20443
G1 X106.951 Y133.501 E48.4694
G1 X106.077 Y133.07 E48.57465
G1 X104.226 Y133.805 E48.78974
G1 X103.09 Y134.117 E48.91697
G1 X101.074 Y134.389 E49.13667
G1 X99.462 Y134.358 E49.3108
G1 X98.301 Y134.206 E49.43726
G1 X95.945 Y133.497 E49.70298
G1 X94.48 Y132.766 E49.8798
G1 X92.845 Y131.717 E50.0896
G1 X91.421 Y130.197 E50.31454
G1 X90.396 Y128.79 E50.50255
G1 X89.564 Y127.208 E50.69559
G1 X88.971 Y125.714 E50.86919
G1 X88.65 Y123.577 E51.10257
G1 X88.608 Y122.081 E51.26421
G1 X88.83 Y120.123 E51.47702
G1 X89.187 Y118.576 E51.64849
G1 X89.966 Y116.988 E51.83952
G1 X89.564 Y116.208 E51.93429
G1 X88.971 Y114.714 E52.10789
G1 X88.65 Y112.577 E52.34127
G1 X88.608 Y111.081 E52.5029
G1 X88.83 Y109.123 E52.71572
G1 X89.187 Y107.576 E52.88719
G1 X89.966 Y105.988 E53.07822
G1 X89.564 Y105.208 E53.17299
G1 X88.971 Y103.714 E53.34659
G1 X88.65 Y101.577 E53.57997
G1 X88.608 Y100.081 E53.7416
G1 X88.83 Y98.123 E53.95442
G1 X89.192 Y96.563 E54.12738
G1 X90.121 Y94.68 E54.35415
G1 X91.02 Y93.299 E54.53211
G1 X91.675 Y92.517 E54.64228
G0 F7200 X91.982 Y92.774
G1 F1800 X93.32 Y91.514 E54.84077
G1 X94.837 Y90.394 E55.04442
G1 X96.844 Y89.594 E55.27776
G1 X98.246 Y89.219 E55.4345
G1 X99.595 Y89.031 E55.5816
G1 X101.515 Y89.05 E55.78897
G1 X103.28 Y89.339 E55.98213
G1 X105.085 Y89.944 E56.18773
G1 X105.913 Y90.364 E56.288
G1 X107.841 Y89.595 E56.51218
G1 X109.246 Y89.219 E56.66926
G1 X110.595 Y89.031 E56.81636
G1 X112.515 Y89.05 E57.02373
G1 X114.28 Y89.339 E57.21688
G1 X116.085 Y89.944 E57.42248
G1 X116.913 Y90.363 E57.52271
G1 X118.7 Y89.642 E57.73082
G1 X120.143 Y89.241 E57.89257
G1 X121.511 Y89.035 E58.04198
G1 X123.112 Y89.014 E58.2149
G1 X124.883 Y89.209 E58.40732
G1 X127.068 Y89.938 E58.65609
G1 X128.299 Y90.564 E58.80524
G1 X129.876 Y91.577 E59.00767
G1 X131.116 Y92.876 E59.20162
G1 X132.328 Y94.515 E59.42177
G1 X132.975 Y95.743 E59.57168
G1 X133.64 Y97.378 E59.7623
G1 X133.954 Y99.48 E59.99184
G1 X133.994 Y100.875 E60.14256
G1 X133.78 Y102.79 E60.35067
G1 X133.432 Y104.289 E60.51687
G1 X132.598 Y106.016 E60.72399
G1 X132.941 Y106.67 E60.80375
G1 X133.64 Y108.388 E61.00406
G1 X133.954 Y110.48 E61.23253
G1 X133.994 Y111.875 E61.38325
G1 X133.78 Y113.79 E61.59136
G1 X133.432 Y115.289 E61.75756
G1 X132.598 Y117.016 E61.96468
G1 X132.941 Y117.67 E62.04444
G1 X133.64 Y119.388 E62.24475
G1 X133.954 Y121.48 E62.47322
G1 X133.994 Y122.875 E62.62394
G1 X133.78 Y124.791 E62.83216
G1 X133.433 Y126.287 E62.99801
G1 X132.642 Y127.933 E63.19524
G1 X131.857 Y129.193 E63.35557
G1 X131.014 Y130.229 E63.49982
G1 X129.677 Y131.488 E63.69816
G1 X128.164 Y132.605 E63.90127
G1 X126.075 Y133.434 E64.144
G1 X125.033 Y133.721 E64.26073
G1 X123.081 Y133.989 E64.47352
G1 X121.514 Y133.961 E64.64278
G1 X120.353 Y133.809 E64.76924
G1 X118.128 Y133.142 E65.02011
G1 X117.094 Y132.632 E65.14462
G1 X115.12 Y133.419 E65.37413
G1 X113.984 Y133.731 E65.50136
G1 X112.081 Y133.989 E65.70877
G1 X110.514 Y133.961 E65.87803
G1 X109.353 Y133.809 E66.00449
G1 X107.128 Y133.142 E66.25535
G1 X106.094 Y132.632 E66.37987
G1 X104.12 Y133.419 E66.60938
G1 X102.984 Y133.731 E66.73661
G1 X101.081 Y133.989 E66.94402
G1 X99.514 Y133.961 E67.11328
G1 X98.353 Y133.809 E67.23974
G1 X96.123 Y133.139 E67.49121
G1 X94.696 Y132.429 E67.66335
G1 X93.104 Y131.407 E67.86767
G1 X91.713 Y129.923 E68.08734
G1 X90.72 Y128.555 E68.2699
G1 X89.936 Y127.06 E68.45222
G1 X89.36 Y125.609 E68.62082
G1 X89.046 Y123.518 E68.84918
G1 X89.006 Y122.125 E68.99969
G1 X89.22 Y120.213 E69.20747
G1 X89.567 Y118.709 E69.37417
G1 X90.413 Y116.984 E69.58167
G1 X89.936 Y116.06 E69.69398
G1 X89.36 Y114.609 E69.86258
G1 X89.046 Y112.518 E70.09094
G1 X89.006 Y111.125 E70.24145
G1 X89.22 Y109.213 E70.44923
G1 X89.567 Y107.709 E70.61593
G1 X90.413 Y105.984 E70.82343
G1 X89.936 Y105.06 E70.93573
G1 X89.36 Y103.609 E71.10434
G1 X89.046 Y101.518 E71.3327
G1 X89.006 Y100.125 E71.4832
G1 X89.22 Y98.213 E71.69099
G1 X89.571 Y96.699 E71.85884
G1 X90.48 Y94.857 E72.08068
G1 X91.327 Y93.556 E72.24834
G1 X91.982 Y92.774 E72.35851
G0 F7200 X92.257 Y93.065
G1 F1800 X93.558 Y91.836 E72.5518
G1 X95.033 Y90.747 E72.74981
G1 X96.992 Y89.966 E72.97757
G1 X98.303 Y89.615 E73.12415
G1 X99.592 Y89.431 E73.26477
G1 X101.45 Y89.445 E73.46544
G1 X103.215 Y89.734 E73.6586
G1 X104.904 Y90.301 E73.85102
G1 X105.943 Y90.827 E73.97679
G1 X106.133 Y90.707 E74.00106
G1 X107.989 Y89.967 E74.21685
G1 X109.303 Y89.615 E74.36377
G1 X110.592 Y89.431 E74.50439
G1 X112.45 Y89.445 E74.70506
G1 X114.215 Y89.734 E74.89822
G1 X115.904 Y90.301 E75.09064
G1 X116.941 Y90.826 E75.21617
G1 X117.13 Y90.707 E75.24029
G1 X118.85 Y90.013 E75.4406
G1 X120.203 Y89.637 E75.59226
G1 X121.571 Y89.431 E75.74167
G1 X123.068 Y89.412 E75.90336
G1 X124.797 Y89.602 E76.09121
G1 X126.887 Y90.295 E76.32902
G1 X128.083 Y90.901 E76.47382
G1 X129.619 Y91.888 E76.67101
G1 X130.794 Y93.114 E76.85441
G1 X132.006 Y94.753 E77.07456
G1 X132.604 Y95.894 E77.21369
G1 X133.251 Y97.485 E77.39918
G1 X133.558 Y99.539 E77.62347
G1 X133.594 Y100.886 E77.769
G1 X133.39 Y102.7 E77.96615
G1 X133.052 Y104.157 E78.12768
G1 X132.15 Y106.024 E78.35162
G1 X132.57 Y106.821 E78.44892
G1 X133.251 Y108.495 E78.64409
G1 X133.558 Y110.539 E78.86732
G1 X133.594 Y111.886 E79.01285
G1 X133.39 Y113.7 E79.21
G1 X133.052 Y115.157 E79.37153
G1 X132.15 Y117.024 E79.59547
G1 X132.57 Y117.821 E79.69276
G1 X133.251 Y119.495 E79.88794
G1 X133.558 Y121.539 E80.11117
G1 X133.594 Y122.886 E80.2567
G1 X133.39 Y124.701 E80.45395
G1 X133.053 Y126.153 E80.61494
G1 X132.302 Y127.721 E80.8027
G1 X131.517 Y128.981 E80.96303
G1 X130.704 Y129.976 E81.1018
G1 X129.439 Y131.166 E81.28937
G1 X127.968 Y132.252 E81.48685
G1 X125.969 Y133.048 E81.71922
G1 X124.927 Y133.335 E81.83595
G1 X123.088 Y133.589 E82.03645
G1 X121.566 Y133.564 E82.20085
G1 X120.405 Y133.412 E82.3273
G1 X118.305 Y132.783 E82.56406
G1 X117.062 Y132.171 E82.71369
G1 X116.869 Y132.292 E82.73829
G1 X115.014 Y133.033 E82.95403
G1 X113.878 Y133.345 E83.08126
G1 X112.088 Y133.589 E83.27637
G1 X110.566 Y133.564 E83.44076
G1 X109.405 Y133.412 E83.56722
G1 X107.305 Y132.783 E83.80398
G1 X106.062 Y132.171 E83.95361
G1 X105.869 Y132.292 E83.97821
G1 X104.014 Y133.033 E84.19395
G1 X102.878 Y133.345 E84.32118
G1 X101.088 Y133.589 E84.51628
G1 X99.566 Y133.564 E84.68068
G1 X98.405 Y133.412 E84.80714
G1 X96.301 Y132.781 E85.04437
G1 X94.912 Y132.092 E85.21183
G1 X93.36 Y131.096 E85.41099
G1 X92.036 Y129.687 E85.6198
G1 X91.074 Y128.369 E85.79603
G1 X90.308 Y126.912 E85.97381
G1 X89.749 Y125.504 E86.13742
G1 X89.442 Y123.459 E86.36075
G1 X89.406 Y122.114 E86.50606
G1 X89.61 Y120.303 E86.70289
G1 X89.947 Y118.842 E86.86482
G1 X90.861 Y116.979 E87.08893
G1 X90.308 Y115.912 E87.21873
G1 X89.749 Y114.504 E87.38234
G1 X89.442 Y112.459 E87.60567
G1 X89.406 Y111.114 E87.75098
G1 X89.61 Y109.303 E87.94781
G1 X89.947 Y107.842 E88.10974
G1 X90.861 Y105.979 E88.33385
G1 X90.308 Y104.912 E88.46365
G1 X89.749 Y103.504 E88.62726
G1 X89.442 Y101.459 E88.85059
G1 X89.406 Y100.114 E88.9959
G1 X89.61 Y98.303 E89.19273
G1 X89.95 Y96.835 E89.35547
G1 X90.839 Y95.034 E89.57238
G1 X91.634 Y93.812 E89.72983
G1 X92.257 Y93.065 E89.83488
G0 F7200 X92.532 Y93.355
G1 F1800 X93.796 Y92.158 E90.02289
G1 X95.229 Y91.1 E90.21527
G1 X97.14 Y90.338 E90.43746
G1 X98.361 Y90.011 E90.57397
G1 X99.59 Y89.831 E90.70812
G1 X101.385 Y89.84 E90.90198
G1 X103.15 Y90.129 E91.09514
G1 X104.776 Y90.68 E91.28056
G1 X105.973 Y91.291 E91.4257
G1 X106.282 Y91.078 E91.46624
G1 X108.093 Y90.353 E91.67691
G1 X109.361 Y90.011 E91.81875
G1 X110.59 Y89.831 E91.9529
G1 X112.385 Y89.84 E92.14676
G1 X114.15 Y90.129 E92.33992
G1 X115.776 Y90.68 E92.52534
G1 X116.972 Y91.291 E92.67039
G1 X117.28 Y91.078 E92.71083
G1 X119 Y90.384 E92.91114
G1 X120.263 Y90.033 E93.05271
G1 X121.631 Y89.827 E93.20212
G1 X123.024 Y89.81 E93.35258
G1 X124.713 Y89.996 E93.53609
G1 X126.707 Y90.652 E93.7628
G1 X127.867 Y91.238 E93.90316
G1 X129.363 Y92.199 E94.09519
G1 X130.505 Y93.391 E94.27347
G1 X131.652 Y94.939 E94.48155
